moelyaakoubi/RealTimeDataUR/Scripts/robot_data.csv
timestamp,actual_q_0,actual_q_1,actual_q_2,actual_q_3,actual_q_4,actual_q_5,actual_current_0,actual_current_1,actual_current_2,actual_current_3,actual_current_4,actual_current_5
2105.1279999999997,0.751800718246356,-1.9528202107299215,1.609709948472192,-1.2748905059660913,-1.5102245748208603,-0.08591430141188638,-5.669176323610166e-17,-0.7748144772406355,-1.9984970428125837,-0.9572721200273633,0.04747628250161226,0.0
2105.14,0.751800718246356,-1.9528202107299215,1.609709948472192,-1.2748905059660913,-1.5102245748208603,-0.08591430141188638,-5.669176323610166e-17,-0.7748144772406355,-1.9984970428125837,-0.9572721200273633,0.04747628250161226,0.0
2105.152,0.751800718246356,-1.9528202107299215,1.609709948472192,-1.2748905059660913,-1.5102245748208603,-0.08591430141188638,-5.669176323610166e-17,-0.7748144772406355,-1.9984970428125837,-0.9572721200273633,0.04747628250161226,0.0
2105.1639999999998,0.751800718246356,-1.9528202107299215,1.609709948472192,-1.2748905059660913,-1.5102245748208603,-0.08591430141188638,-5.669176323610166e-17,-0.7748144772406355,-1.9984970428125837,-0.9572721200273633,0.04747628250161226,0.0
2105.176,0.751800718246356,-1.9528202107299215,1.609709948472192,-1.2748905059660913,-1.5102245748208603,-0.08591430141188638,-5.669176323610166e-17,-0.7748144772406355,-1.9984970428125837,-0.9572721200273633,0.04747628250161226,0.0
2105.188,0.751800718246356,-1.9528202107299215,1.609709948472192,-1.2748905059660913,-1.5102245748208603,-0.08591430141188638,-5.669176323610166e-17,-0.7748144772406355,-1.9984970428125837,-0.9572721200273633,0.04747628250161226,0.0
2105.2,0.751800718246356,-1.9528202107299215,1.609709948472192,-1.2748905059660913,-1.5102245748208603,-0.08591430141188638,-5.669176323610166e-17,-0.7748144772406355,-1.9984970428125837,-0.9572721200273633,0.04747628250161226,0.0
2105.212,0.751800718246356,-1.9528202107299215,1.609709948472192,-1.2748905059660913,-1.5102245748208603,-0.08591430141188638,-5.669176323610166e-17,-0.7748144772406355,-1.9984970428125837,-0.9572721200273633,0.04747628250161226,0.0
2105.2239999999997,0.751800718246356,-1.9528202107299215,1.609709948472192,-1.2748905059660913,-1.5102245748208603,-0.08591430141188638,-5.669176323610166e-17,-0.7748144772406355,-1.9984970428125837,-0.9572721200273633,0.04747628250161226,0.0
2105.236,0.751800718246356,-1.9528202107299215,1.609709948472192,-1.2748905059660913,-1.5102245748208603,-0.08591430141188638,-5.669176323610166e-17,-0.7748144772406355,-1.9984970428125837,-0.9572721200273633,0.04747628250161226,0.0
2105.248,0.751800718246356,-1.9528202107299215,1.609709948472192,-1.2748905059660913,-1.5102245748208603,-0.08591430141188638,-5.669176323610166e-17,-0.7748144772406355,-1.9984970428125837,-0.9572721200273633,0.04747628250161226,0.0
2105.2599999999998,0.751800718246356,-1.9528202107299215,1.609709948472192,-1.2748905059660913,-1.5102245748208603,-0.08591430141188638,-5.669176323610166e-17,-0.7748144772406355,-1.9984970428125837,-0.9572721200273633,0.04747628250161226,0.0
2105.272,0.751800718246356,-1.9528202107299215,1.609709948472192,-1.2748905059660913,-1.5102245748208603,-0.08591430141188638,-5.669176323610166e-17,-0.7748144772406355,-1.9984970428125837,-0.9572721200273633,0.04747628250161226,0.0
2105.284,0.751800718246356,-1.9528202107299215,1.609709948472192,-1.2748905059660913,-1.5102245748208603,-0.08591430141188638,-5.669176323610166e-17,-0.7748144772406355,-1.9984970428125837,-0.9572721200273633,0.04747628250161226,0.0
2105.296,0.751800718246356,-1.9528202107299215,1.609709948472192,-1.2748905059660913,-1.5102245748208603,-0.08591430141188638,-5.669176323610166e-17,-0.7748144772406355,-1.9984970428125837,-0.9572721200273633,0.04747628250161226,0.0
2105.308,0.751800718246356,-1.9528202107299215,1.609709948472192,-1.2748905059660913,-1.5102245748208603,-0.08591430141188638,-5.669176323610166e-17,-0.7748144772406355,-1.9984970428125837,-0.9572721200273633,0.04747628250161226,0.0
2105.3199999999997,0.751800718246356,-1.9528202107299215,1.609709948472192,-1.2748905059660913,-1.5102245748208603,-0.08591430141188638,-5.669176323610166e-17,-0.7748144772406355,-1.9984970428125837,-0.9572721200273633,0.04747628250161226,0.0
2105.334,0.751800718246356,-1.9528202107299215,1.609709948472192,-1.2748905059660913,-1.5102245748208603,-0.08591430141188638,-5.669176323610166e-17,-0.7748144772406355,-1.9984970428125837,-0.9572721200273633,0.04747628250161226,0.0
2105.344,0.751800718246356,-1.9528202107299215,1.609709948472192,-1.2748905059660913,-1.5102245748208603,-0.08591430141188638,-5.669176323610166e-17,-0.7748144772406355,-1.9984970428125837,-0.9572721200273633,0.04747628250161226,0.0
2105.3559999999998,0.751800718246356,-1.9528202107299215,1.609709948472192,-1.2748905059660913,-1.5102245748208603,-0.08591430141188638,-5.669176323610166e-17,-0.7748144772406355,-1.9984970428125837,-0.9572721200273633,0.04747628250161226,0.0
2105.37,0.751800718246356,-1.9528202107299215,1.609709948472192,-1.2748905059660913,-1.5102245748208603,-0.08591430141188638,-5.669176323610166e-17,-0.7748144772406355,-1.9984970428125837,-0.9572721200273633,0.04747628250161226,0.0
2105.38,0.751800718246356,-1.9528202107299215,1.609709948472192,-1.2748905059660913,-1.5102245748208603,-0.08591430141188638,-5.669176323610166e-17,-0.7748144772406355,-1.9984970428125837,-0.9572721200273633,0.04747628250161226,0.0
2105.392,0.751800718246356,-1.9528202107299215,1.609709948472192,-1.2748905059660913,-1.5102245748208603,-0.08591430141188638,-5.669176323610166e-17,-0.7748144772406355,-1.9984970428125837,-0.9572721200273633,0.04747628250161226,0.0
2105.404,0.751800718246356,-1.9528202107299215,1.609709948472192,-1.2748905059660913,-1.5102245748208603,-0.08591430141188638,-5.669176323610166e-17,-0.7748144772406355,-1.9984970428125837,-0.9572721200273633,0.04747628250161226,0.0
2105.4159999999997,0.751800718246356,-1.9528202107299215,1.609709948472192,-1.2748905059660913,-1.5102245748208603,-0.08591430141188638,-5.669176323610166e-17,-0.7748144772406355,-1.9984970428125837,-0.9572721200273633,0.04747628250161226,0.0
2105.428,0.751800718246356,-1.9528202107299215,1.609709948472192,-1.2748905059660913,-1.5102245748208603,-0.08591430141188638,-5.669176323610166e-17,-0.7748144772406355,-1.9984970428125837,-0.9572721200273633,0.04747628250161226,0.0
2105.44,0.751800718246356,-1.9528202107299215,1.609709948472192,-1.2748905059660913,-1.5102245748208603,-0.08591430141188638,-5.669176323610166e-17,-0.7748144772406355,-1.9984970428125837,-0.9572721200273633,0.04747628250161226,0.0
2105.4519999999998,0.751800718246356,-1.9528202107299215,1.609709948472192,-1.2748905059660913,-1.5102245748208603,-0.08591430141188638,-5.669176323610166e-17,-0.7748144772406355,-1.9984970428125837,-0.9572721200273633,0.04747628250161226,0.0
2105.464,0.751800718246356,-1.9528202107299215,1.609709948472192,-1.2748905059660913,-1.5102245748208603,-0.08591430141188638,-5.669176323610166e-17,-0.7748144772406355,-1.9984970428125837,-0.9572721200273633,0.04747628250161226,0.0
2105.476,0.751800718246356,-1.9528202107299215,1.609709948472192,-1.2748905059660913,-1.5102245748208603,-0.08591430141188638,-5.669176323610166e-17,-0.7748144772406355,-1.9984970428125837,-0.9572721200273633,0.04747628250161226,0.0
2105.488,0.751800718246356,-1.9528202107299215,1.609709948472192,-1.2748905059660913,-1.5102245748208603,-0.08591430141188638,-5.669176323610166e-17,-0.7748144772406355,-1.9984970428125837,-0.9572721200273633,0.04747628250161226,0.0
2105.5,0.751800718246356,-1.9528202107299215,1.609709948472192,-1.2748905059660913,-1.5102245748208603,-0.08591430141188638,-5.669176323610166e-17,-0.7748144772406355,-1.9984970428125837,-0.9572721200273633,0.04747628250161226,0.0
2105.5119999999997,0.751800718246356,-1.9528202107299215,1.609709948472192,-1.2748905059660913,-1.5102245748208603,-0.08591430141188638,-5.669176323610166e-17,-0.7748144772406355,-1.9984970428125837,-0.9572721200273633,0.04747628250161226,0.0
2105.524,0.751800718246356,-1.9528202107299215,1.609709948472192,-1.2748905059660913,-1.5102245748208603,-0.08591430141188638,-5.669176323610166e-17,-0.7748144772406355,-1.9984970428125837,-0.9572721200273633,0.04747628250161226,0.0
2105.536,0.751800718246356,-1.9528202107299215,1.609709948472192,-1.2748905059660913,-1.5102245748208603,-0.08591430141188638,-5.669176323610166e-17,-0.7748144772406355,-1.9984970428125837,-0.9572721200273633,0.04747628250161226,0.0
2105.548,0.751800718246356,-1.9528202107299215,1.609709948472192,-1.2748905059660913,-1.5102245748208603,-0.08591430141188638,-5.669176323610166e-17,-0.7748144772406355,-1.9984970428125837,-0.9572721200273633,0.04747628250161226,0.0
2105.56,0.751800718246356,-1.9528202107299215,1.609709948472192,-1.2748905059660913,-1.5102245748208603,-0.08591430141188638,-5.669176323610166e-17,-0.7748144772406355,-1.9984970428125837,-0.9572721200273633,0.04747628250161226,0.0
2105.572,0.751800718246356,-1.9528202107299215,1.609709948472192,-1.2748905059660913,-1.5102245748208603,-0.08591430141188638,-5.669176323610166e-17,-0.7748144772406355,-1.9984970428125837,-0.9572721200273633,0.04747628250161226,0.0
2105.584,0.751800718246356,-1.9528202107299215,1.609709948472192,-1.2748905059660913,-1.5102245748208603,-0.08591430141188638,-5.669176323610166e-17,-0.7748144772406355,-1.9984970428125837,-0.9572721200273633,0.04747628250161226,0.0
2105.596,0.751800718246356,-1.9528202107299215,1.609709948472192,-1.2748905059660913,-1.5102245748208603,-0.08591430141188638,-5.669176323610166e-17,-0.7748144772406355,-1.9984970428125837,-0.9572721200273633,0.04747628250161226,0.0
2105.6079999999997,0.751800718246356,-1.9528202107299215,1.609709948472192,-1.2748905059660913,-1.5102245748208603,-0.08591430141188638,-5.669176323610166e-17,-0.7748144772406355,-1.9984970428125837,-0.9572721200273633,0.04747628250161226,0.0
2105.62,0.751800718246356,-1.9528202107299215,1.609709948472192,-1.2748905059660913,-1.5102245748208603,-0.08591430141188638,-5.669176323610166e-17,-0.7748144772406355,-1.9984970428125837,-0.9572721200273633,0.04747628250161226,0.0
2105.632,0.751800718246356,-1.9528202107299215,1.609709948472192,-1.2748905059660913,-1.5102245748208603,-0.08591430141188638,-5.669176323610166e-17,-0.7748144772406355,-1.9984970428125837,-0.9572721200273633,0.04747628250161226,0.0
2105.644,0.751800718246356,-1.9528202107299215,1.609709948472192,-1.2748905059660913,-1.5102245748208603,-0.08591430141188638,-5.669176323610166e-17,-0.7748144772406355,-1.9984970428125837,-0.9572721200273633,0.04747628250161226,0.0
2105.656,0.751800718246356,-1.9528202107299215,1.609709948472192,-1.2748905059660913,-1.5102245748208603,-0.08591430141188638,-5.669176323610166e-17,-0.7748144772406355,-1.9984970428125837,-0.9572721200273633,0.04747628250161226,0.0
2105.668,0.751800718246356,-1.9528202107299215,1.609709948472192,-1.2748905059660913,-1.5102245748208603,-0.08591430141188638,-5.669176323610166e-17,-0.7748144772406355,-1.9984970428125837,-0.9572721200273633,0.04747628250161226,0.0
2105.68,0.751800718246356,-1.9528202107299215,1.609709948472192,-1.2748905059660913,-1.5102245748208603,-0.08591430141188638,-5.669176323610166e-17,-0.7748144772406355,-1.9984970428125837,-0.9572721200273633,0.04747628250161226,0.0
2105.692,0.751800718246356,-1.9528202107299215,1.609709948472192,-1.2748905059660913,-1.5102245748208603,-0.08591430141188638,-5.669176323610166e-17,-0.7748144772406355,-1.9984970428125837,-0.9572721200273633,0.04747628250161226,0.0
2105.7039999999997,0.751800718246356,-1.9528202107299215,1.609709948472192,-1.2748905059660913,-1.5102245748208603,-0.08591430141188638,-5.669176323610166e-17,-0.7748144772406355,-1.9984970428125837,-0.9572721200273633,0.04747628250161226,0.0
2105.716,0.751800718246356,-1.9528202107299215,1.609709948472192,-1.2748905059660913,-1.5102245748208603,-0.08591430141188638,-5.669176323610166e-17,-0.7748144772406355,-1.9984970428125837,-0.9572721200273633,0.04747628250161226,0.0
2105.728,0.751800718246356,-1.9528202107299215,1.609709948472192,-1.2748905059660913,-1.5102245748208603,-0.08591430141188638,-5.669176323610166e-17,-0.7748144772406355,-1.9984970428125837,-0.9572721200273633,0.04747628250161226,0.0
2105.74,0.751800718246356,-1.9528202107299215,1.609709948472192,-1.2748905059660913,-1.5102245748208603,-0.08591430141188638,-5.669176323610166e-17,-0.7748144772406355,-1.9984970428125837,-0.9572721200273633,0.04747628250161226,0.0
2105.752,0.751800718246356,-1.9528202107299215,1.609709948472192,-1.2748905059660913,-1.5102245748208603,-0.08591430141188638,-5.669176323610166e-17,-0.7748144772406355,-1.9984970428125837,-0.9572721200273633,0.04747628250161226,0.0
2105.764,0.751800718246356,-1.9528202107299215,1.609709948472192,-1.2748905059660913,-1.5102245748208603,-0.08591430141188638,-5.669176323610166e-17,-0.7748144772406355,-1.9984970428125837,-0.9572721200273633,0.04747628250161226,0.0
2105.776,0.7518007165565731,-1.9528202082166475,1.6097099472820235,-1.2748905074149661,-1.510224575103293,-0.08591430307303849,-4.158870418474181e-05,-0.7747554361577419,-1.9984999169159512,-0.9572915447873219,0.04746889392224373,-6.5087455845236275e-06
2105.788,0.7518006231960713,-1.9528200693582516,1.6097098815252184,-1.274890587465313,-1.5102245907076846,-0.08591439485170671,-0.00034934516926568067,-0.7743187544978605,-1.9985212220412079,-0.9574352924481413,0.047414207798448946,-5.467346287520038e-05
2105.7999999999997,0.7518000423332204,-1.9528192054202727,1.6097094724048249,-1.2748910855161109,-1.510224687793829,-0.08591496587283043,-0.0009565412268453374,-0.7734582838178208,-1.9985634361290823,-0.9577189239907652,0.04730626089864016,-0.00014970114778131423
2105.812,0.7517982135657431,-1.952816485429353,1.609708184345055,-1.274892653561131,-1.510224993456319,-0.08591676365497314,-0.0018631812725080697,-0.7721761126878668,-1.9986269004747317,-0.9581424780922658,0.047144950146839545,-0.00029159179747629096
2105.824,0.7517940114982685,-1.952810235544928,1.6097052246937424,-1.2748962565511572,-1.510225695795146,-0.08592089452560625,-0.003069278378877441,-0.7704753279143284,-1.998712112757302,-0.9587060068445368,0.046930117861547466,-0.0004803454035540113
2105.836,0.751785945742333,-1.952798239059221,1.6096995437223431,-1.27490317239398,-1.510227043915707,-0.08592882362111176,-0.004574861908640539,-0.7683600095862455,-1.998819718420471,-0.9594095697873521,0.046661545821781315,-0.0007159619471344127
2105.848,0.7517721609163793,-1.9527777363972447,1.6096898346259343,-1.274914991954402,-1.510229347928803,-0.08594237488678225,-0.006379987592443685,-0.7658352245349452,-1.9989504992494451,-0.9602532260111204,0.04633894741862696,-0.0009984413923870665
2105.86,0.7517504366457574,-1.9527454251168024,1.6096745335232152,-1.274933619054238,-1.5102329789506355,-0.0859637310768191,-0.008484750075246789,-0.7629070182219202,-1.9991053591251302,-0.9612370243266366,0.04596195789225177,-0.0013277836784747687
2105.872,0.7517181875627236,-1.952697459908486,1.6096518194565073,-1.2749612704723106,-1.5102383691028134,-0.08599543375433427,-0.010889297937820293,-0.7595824050745772,-1.9992853069308207,-0.962360991496954,0.045530122654293174,-0.0017039887099211859
2105.884,0.7516724633064414,-1.9526294525956773,1.609619614391753,-1.275000475944454,-1.5102460115123444,-0.08604038329135033,-0.013593851204599165,-0.7558693572936976,-1.9994914365806147,-0.9636251185232068,0.04504288369551944,-0.002127056345409019
2105.8959999999997,0.7516099485229809,-1.952536472134546,1.6095755832185168,-1.2750540781635102,-1.510256460311643,-0.08610183886879863,-0.016598721355390256,-0.7517767921611247,-1.9997249041321865,-0.965029344971711,0.04449956407856342,-0.002596986385019032
2105.908,0.7515269628653193,-1.9524130446140529,1.6095171337499856,-1.2751252327793363,-1.5102703306385266,-0.08618341847651934,-0.019904333866716913,-0.7473145578810196,-1.999986901939127,-0.966573541323752,0.04389935051550738,-0.003113778555925167
2105.92,0.75141946099334,-1.952253153255949,1.6094414167229676,-1.275217408398797,-1.5102882986362118,-0.08628909891326586,-0.023511253319164687,-0.7424934179932071,-2.000278629789853,-0.9682574893218425,0.04324127402998948,-0.0036774324965669685
2105.932,0.751283032573834,-1.9520502384147722,1.6093453257978925,-1.275334386585766,-1.5103111014533246,-0.08642321578669865,-0.02742021112027162,-0.7373250344025525,-2.000601262970962,-0.9700808602769053,0.04252418870342929,-0.004287947739328523
2105.944,0.7511129022804984,-1.951797197577851,1.6092254975588123,-1.27548026186113,-1.5103395372438904,-0.08659046351338962,-0.031632135908533185,-0.7318219490739192,-2.0009559171826714,-0.9720431912893441,0.04174674850493674,-0.004945323691762512
2105.956,0.7509039297939375,-1.951486385365305,1.6090783115134006,-1.2756594417027856,-1.510374465167338,-0.0867958953188186,-0.03614818672327742,-0.7259975644482308,-2.0013436102226687,-0.9741438593233537,0.040907382204388776,-0.005649559616409068
2105.968,0.7506506098016624,-1.9511096135300416,1.6088998900929528,-1.2758766465456377,-1.510416805388501,-0.08704492323737778,-0.04096978904776539,-0.7198661226411406,-2.0017652203420826,-0.976382053057795,0.04000426636822176,-0.006400654609272694
2105.98,0.7503470719980909,-1.950658150957758,1.608686098652386,-1.276136909781604,-1.5104675390776157,-0.08734331811236817,-0.04609867385918004,-0.713442683491997,-2.0022214411633312,-0.9787567424183805,0.039035296437603485,-0.007198607577036339
2105.9919999999997,0.7499870810845477,-1.95012272366694,1.6084325454702395,-1.2764455777596115,-1.5105277084103204,-0.08769720959600047,-0.05153691984943829,-0.7067431015369938,-2.0027127330341807,-0.9812666456745842,0.03799805588893638,-0.008043417213107208
2106.004,0.7495640367692641,-1.9494935148088635,1.6081345817486739,-1.276808309785599,-1.5105984165676594,-0.08811308614939595,-0.05728699901528593,-0.6997840019864388,-2.0032392706753117,-0.9839101939605556,0.03688978347715855,-0.00893508197261436
2106.016,0.7490709737673784,-1.9487601646675952,1.6077873016134716,-1.2772310781225116,-1.5106808277360777,-0.08859779504258469,-0.06335182585513256,-0.6925827557920343,-2.0038008869600383,-0.9866854930521223,0.03570733856318184,-0.009873600046495347
2106.028,0.7485005618009356,-1.9479117706599895,1.6073855421140373,-1.2777201679903092,-1.5107761671074256,-0.08915854235450738,-0.0697348104538377,-0.6851574538955838,-2.0043970126443296,-0.9895902822017489,0.03444716452809094,-0.01085896933483828
2106.04,0.7478451055988877,-1.9469368873356911,1.6069238832233972,-1.27828217756596,-1.510885720878954,-0.08980289297301525,-0.07643991578536422,-0.6775268807555598,-2.0050266118429017,-0.9926218897998678,0.03310525027869464,-0.011891187419675004
2106.0519999999997,0.7470965448970934,-1.9458235263771329,1.606396647838199,-1.278924017983444,-1.5110108362533206,-0.09053877059486748,-0.08347171961708505,-0.6697104872523071,-2.005688113022791,-0.9957771855943873,0.03167708985174687,-0.012970251537452952
2106.064,0.746246454438318,-1.9445591565995395,1.6057979017787125,-1.2796529133337486,-1.5111529214385833,-0.09137445772573649,-0.09083548145871075,-0.6617283630759901,-2.0063793352593002,-0.9990525291603274,0.03015764012802138,-0.014096158551443725
2106.076,0.7452860439722341,-1.9431307039509234,1.6051214537888296,-1.2804764006648757,-1.511313445648204,-0.09231859568020084,-0.09853721506340701,-0.6536012087036462,-2.00709740947058,-1.0024437142685187,0.028541276672593843,-0.015268904924398086
2106.0879999999997,0.7442061582554204,-1.941524551512086,1.6043608555360633,-1.281402329981833,-1.511493939101051,-0.09338018458175146,-0.10658376705873528,-0.6453503070722677,-2.00783869431606,-1.0059459087562428,0.026821747724664488,-0.016488486691782267
2106.1,0.7429972770513631,-1.93972653949662,1.603509401611549,-1.282438864246643,-1.51169599302139,-0.09456858336278806,-0.11498290236052004,-0.6369974950536688,-2.0085986864105823,-1.0095535894537255,0.024992126369381484,-0.01775489943599468
2106.112,0.7416495151304547,-1.9377219652509066,1.6025601295300436,-1.283594479378336,-1.5119212596388962,-0.09589350976462097,-0.12374339710335297,-0.6285651348334892,-2.00937192447021,-1.0132604716687932,0.023044760935946287,-0.019068138261998407
2106.124,0.740152622269995,-1.9354955832541165,1.6015058197299257,-1.2848779642529529,-1.5121714521886434,-0.09736504033746929,-0.13287513990697292,-0.6200760852903936,-2.010151886967299,-1.0170594326781999,0.020971223681487267,-0.020428197774872536
2106.136,0.7384959832541902,-1.9330316051182095,1.600338995573196,-1.2862984207035444,-1.5124483449111104,-0.09899361044046451,-0.1423892423873496,-0.6115536734620898,-2.0109308828312886,-1.0209424286184023,0.018762257839362913,-0.02183507205983003
2106.1479999999997,0.7366686178741533,-1.930313699587935,1.5990519233454765,-1.2878652635201737,-1.5127537730521805,-0.10079001424164513,-0.15229815991440981,-0.6030216661712446,-2.0116999346880458,-1.0249004041118168,0.016407723134682438,-0.02328875466533096
2106.16,0.7346591809279045,-1.9273249925408322,1.597636612256012,-1.2895882204499127,-1.5130896328631387,-0.10276540471796114,-0.16261582371320055,-0.5945042418662437,-2.0124486540841207,-1.0289231939072576,0.01389653989980044,-0.024789238589970848
2106.172,0.7324578679668436,-1.9240509014717482,1.5960861567162212,-1.291475698147516,-1.5134575630718174,-0.10492942019841056,-0.115173813266053,-0.6681296239875408,-2.0097757896892157,-1.0067370569780167,0.021793866360429345,-0.017354066116834647
2106.1839999999997,0.7301034372113768,-1.9205490728605463,1.5944278553876778,-1.2934944640477326,-1.513851085580658,-0.10724395915429863,-0.11571104914727731,-0.6743306350577144,-2.010185449410726,-1.0064403230770578,0.021065961060543766,-0.017353761284196665
2106.196,0.7276138238288018,-1.9168461823195155,1.592674340585725,-1.2956291399517896,-1.5142672026833068,-0.10969139029904262,-0.11628322753471161,-0.6808924195574849,-2.01061140676435,-1.0061236041844261,0.020296303765652664,-0.01735344137539302
2106.208,0.7249890278191187,-1.912942229848654,1.5908256123103632,-1.297879725859687,-1.514705914379765,-0.11227171363263988,-0.11689102793449818,-0.6878156778937496,-2.0110524481770535,-1.005786417542322,0.01948491559870313,-0.017353106796791008
2106.22,0.7222290491823274,-1.9088372154479636,1.5888816705615922,-1.300246221771424,-1.5151672206700324,-0.11498492915509306,-0.11753516438091927,-0.6951011231250495,-2.011507293131352,-1.0054282572255526,0.018631822671870208,-0.01735275797685456
2106.232,0.719333887918428,-1.9045311391174433,1.586842515339412,-1.3027286276870012,-1.515651121554109,-0.11783103686640128,-0.11821638482621705,-0.7027494768243756,-2.011974594018877,-1.005048594666221,0.017737056695056482,-0.01735239536614814
2106.2439999999997,0.7163035440274204,-1.9000240008570932,1.5847081466438224,-1.3053269436064188,-1.5161576170319941,-0.12081003676656366,-0.11893547043768277,-0.7107614647006492,-2.012452935991728,-1.0046468792159715,0.016800655615277472,-0.01735201943734157
2106.256,0.7131380175093047,-1.8953158006669133,1.5824785644748238,-1.3080411695296768,-1.5166867071036885,-0.12392192885558106,-0.11969323479260124,-0.719137811974924,-2.0129408368125823,-1.0042225387473669,0.015822664286758936,-0.017351630685213868
2106.268,0.7098373083640808,-1.8904065385469035,1.5801537688324159,-1.310871305456775,-1.517238391769192,-0.1271667131334535,-0.12049052296100547,-0.7278792385071833,-2.013436746704513,-1.0037749802959626,0.01480313517158313,-0.01735122962665759
2106.2799999999997,0.7064014165917488,-1.885296214497064,1.5777337597165988,-1.313817351387713,-1.517812671028505,-0.1305443896001801,-0.12132821046576084,-0.7369864536695115,-2.0139390482015345,-1.003303590744726,0.01374212907065919,-0.017350816800683427
2106.292,0.7028303421923087,-1.8799848285173946,1.5752185371273726,-1.3168793073224911,-1.5184095448816262,-0.13405495825576264,-0.12220720210901742,-0.7464601509613037,-2.0144460560010145,-1.0028077375525046,0.012639715884767398,-0.01735039276842406
2106.304,0.6991240851657603,-1.8744723806078962,1.572608101064737,-1.3200571732611097,-1.5190290133285558,-0.1376984191001993,-0.12312843065349541,-0.7563010023621104,-2.01495601681911,-1.0022867695282895,0.01149597540539636,-0.017349958113138535
2106.316,0.6952826455121038,-1.8687588707685672,1.5699024515286926,-1.3233509492035687,-1.5196710763692955,-0.14147477213349102,-0.1240928553466782,-0.7665096524176453,-2.015467109250521,-1.001740017653072,0.010310998135039738,-0.01734951344021587
2106.328,0.6913060232313393,-1.8628442989994092,1.5671015885192388,-1.326760635149867,-1.5203357340038437,-0.14538401735563689,-0.1251014602753985,-0.7770867120544126,-2.015977443633877,-1.0011667959511201,0.00908488613659505,-0.017349059377178972
2106.3399999999997,0.6871942183234665,-1.8567286653004205,1.5642055120363756,-1.3302862311000068,-1.521022986232202,-0.14942615476663867,-0.126155252537945,-0.7880327521184409,-2.0164850619242594,-1.0005664024125909,0.007817753911424924,-0.01734859657368822
2106.352,0.6829472307884856,-1.8504119696716028,1.5612142220801033,-1.333927737053986,-1.5217328330543687,-0.15360118436649461,-0.12725526022028616,-0.7993482966335139,-2.016987937574298,-0.9999381199693284,0.006509729305633997,-0.01734812570154468
2106.364,0.6785650606263967,-1.8438942121129553,1.5581277186504219,-1.3376851530118055,-1.5224652744703437,-0.1579091061552056,-0.12840253016263128,-0.8110338157743785,-2.0174839754255736,-0.9992812175258725,0.005160954444016185,-0.017347647454693166
2106.3759999999997,0.6740477078371995,-1.837175392624478,1.5549460017473313,-1.3415584789734645,-1.523220310480128,-0.1623499201327716,-0.12959812550210043,-0.8230897185504337,-2.0179710116119867,-0.998594951047579,0.003771586691103211,-0.01734716254922489
2106.388,0.6693951724208942,-1.830255511206171,1.5516690713708314,-1.3455477149389647,-1.5239979410837217,-0.16692362629919177,-0.13084312297693362,-0.8355163451953822,-2.0184468134769236,-0.9978785647078912,0.0023417996386648817,-0.017346671723379732
2106.4,0.6646074543774807,-1.823134567858034,1.5482969275209224,-1.3496528609083054,-1.5247981662811245,-0.17163022465446698,-0.13213860997727658,-0.8483139592586775,-2.0189090795062614,-0.9971312920967502,0.0008717841189450115,-0.0173461757375482
2106.412,0.6596845537069591,-1.8158125625800672,1.5448295701976043,-1.3538739168814846,-1.5256209860723358,-0.1764697151985981,-0.13348568132734023,-0.8614827393942306,-2.019355439279119,-0.996352357492176,-0.0006382507571426104,-0.01734567537427281
2106.424,0.6546264704093293,-1.8082894953722706,1.541266999400877,-1.358210882858506,-1.5264664004573563,-0.1814420979315825,-0.13488543578335974,-0.8750227708427187,-2.0197834534387105,-0.9955409771970367,-0.0021880765377257742,-0.017345171438249027
2106.4359999999997,0.6494332044845914,-1.800565366234645,1.5376092151307403,-1.362663758839366,-1.527334409436186,-0.18654737285342282,-0.13633897223168182,-0.8889340366031675,-2.0201906136854366,-0.994696360943031,-0.003777444344512906,-0.017344664756325633
2106.448,0.6441047559327454,-1.7926401751671888,1.5338562173871944,-1.3672325448240672,-1.5282250130088242,-0.1917855399641173,-0.13784738557101145,-0.9032164082906292,-2.020574342794815,-0.9938177133638982,-0.005406083765193773,-0.017344156177504528
2106.46,0.6386411247537912,-1.7845139221699036,1.5300080061702395,-1.371917240812608,-1.5291382111752725,-0.1971565992636677,-0.1394117622628717,-0.9178696366761143,-2.0209319946626723,-0.9929042355398658,-0.007073701724797502,-0.01734364657293982
2106.4719999999998,0.6330423109477289,-1.7761866072427877,1.5260645814798752,-1.376717846804989,-1.5300740039355283,-0.20266055075207134,-0.14103317553415712,-0.9328933419061879,-2.02126085438046,-0.9919551266152936,-0.00877998133720304,-0.01734313683593637
2106.484,0.6273083145145584,-1.7676582303858428,1.5220259433161019,-1.3816343628012104,-1.5310323912895942,-0.20829739442933093,-0.14271268021583783,-0.9482870033990873,-2.021558138343401,-0.9909695854914777,-0.010524580738107251,-0.01734262788194715
2106.496,0.6214391354542799,-1.7589287915990681,1.5178920916789194,-1.3866667888012723,-1.5320133732374686,-0.21406713029544555,-0.14445130720183463,-0.9640499494153821,-2.021820994394601,-0.9899468125965065,-0.012307131900817274,-0.017342120648570478
2106.508,0.615434773766893,-1.7499982908824636,1.5136630265683275,-1.3918151248051736,-1.533016949779153,-0.21996975835041432,-0.14625005751239967,-0.9801813463012692,-2.02204650200823,-0.9888860117340416,-0.014127239436385814,-0.017341616095546054
2106.52,0.6092952294523981,-1.7408667282360293,1.5093387479843265,-1.397079370812916,-1.534043120914645,-0.22600527859423813,-0.1481098959466442,-0.9966801874029932,-2.022231672515084,-0.9877863920128198,-0.015984479379679256,-0.017341115204749655
2106.5319999999997,0.6030205025107951,-1.7315341036597651,1.5049192559269164,-1.4024595268244981,-1.5350918866439471,-0.23217369102691698,-0.15003174430911964,-1.0135452816520072,-2.022373449374103,-0.986647169858624,-0.017878397963096634,-0.01734061898018761
2106.544,0.5966105929420839,-1.7220004171536711,1.500404550396097,-1.4079555928399206,-1.5361632469670576,-0.23847499564844998,-0.1520164741960868,-1.0307752418203158,-2.0224687084933617,-0.9854675711103611,-0.0198085103797641,-0.01734012844798856
2106.556,0.5900655007462645,-1.7122656687177473,1.4957946313918684,-1.4135675688591824,-1.5372572018839774,-0.2449091924588389,-0.15406489932756026,-1.0483684724470252,-2.0225142586045215,-0.9842468332018444,-0.02177429953816426,-0.017339644656401462
2106.5679999999998,0.5833852259233371,-1.7023298583519946,1.4910894989142307,-1.4192954548822856,-1.5383737513947064,-0.251476281458082,-0.1561777674121573,-1.066323157437013,-2.022506841694636,-0.9829842074307538,-0.0237752148102687,-0.0173391686757745
2106.58,0.5765697684733014,-1.692192986056411,1.4862891529631839,-1.425139250909229,-1.5395128954992439,-0.2581762626461801,-0.1583557515325515,-1.0846372473343089,-2.0224431334996016,-0.9816789613161258,-0.025810670775371258,-0.017338701598556654
2106.592,0.5696191283961577,-1.6818550518309987,1.4813935935387277,-1.431098956940012,-1.5406746341975905,-0.26500913602313236,-0.16059944104055127,-1.1033084462728366,-2.0223197440635268,-0.9803303810456535,-0.027880045961967387,-0.01733824453928019
2106.604,0.5625333056919057,-1.6713160556757556,1.4764028206408624,-1.4371745729746355,-1.5418589674897465,-0.27197490158894055,-0.16290933195195992,-1.1223341986090227,-2.0221332183687064,-0.9789377740138714,-0.029982681590134452,-0.017337798634548214
2106.616,0.5553123003605456,-1.6605759975906835,1.4713168342695877,-1.4433660990130983,-1.5430658953757108,-0.2790735593436029,-0.1652858168327692,-1.1417116752409762,-2.0218800370408525,-0.9775004714522165,-0.03211788031701238,-0.017337365043021594
2106.6279999999997,0.5479561124020774,-1.6496348775757816,1.466135634424904,-1.4496735350554015,-1.5442954178554853,-0.2863051092871203,-0.167729174170019,-1.1614377596209355,-2.0215566171346633,-0.9760178311518121,-0.03428490498815951,-0.01733694494540178
2106.64,0.5404647418165011,-1.638492695631049,1.460859221106811,-1.456096881101546,-1.5455475349290673,-0.2936695514194927,-0.17023955722217318,-1.1815090334680685,-2.0211593130047114,-0.9744892402795137,-0.03648297739763409,-0.017336539544413956
2106.652,0.5328381886038166,-1.6271494517564875,1.455487594315309,-1.46263613715153,-1.5468222465964594,-0.30116688574071926,-0.1728169823460535,-1.2019217621909124,-2.020684417267211,-0.9729141182877922,-0.03871127705986926,-0.017336150064787937
2106.6639999999998,0.5250764527640239,-1.615605145952097,1.4500207540503975,-1.4692913032053543,-1.54811955285766,-0.30879711225080086,-0.17546131679954602,-1.2226718800292766,-2.020128161857995,-0.9712919199185924,-0.04096893999650091,-0.017335777753237365
2106.676,0.5171795342971232,-1.6038597782178758,1.444458700312077,-1.476062379263018,-1.5494394537126697,-0.3165602309497384,-0.17817226602165137,-1.243754974927819,-2.0194867191926558,-0.9696221383013076,-0.04325505754150455,-0.017335423878437256
2106.688,0.5091474332031142,-1.5919133485538248,1.4388014331003474,-1.4829493653245231,-1.5507819491614887,-0.3244562418375292,-0.1809493603942267,-1.2651662731542463,-2.0187562034345885,-0.9679043081445622,-0.04556867516811132,-0.017335089730999623
2106.7,0.5009801494819972,-1.579765856959944,1.4330489524152086,-1.4899522613898686,-1.552147039204117,-0.3324851449141759,-0.18379194149258415,-1.2869006236776166,-2.017932671877247,-0.9661380090214542,-0.047908791341152265,-0.017334776623447228
2106.712,0.49267768313377186,-1.5674173034362342,1.4272012582566604,-1.4970710674590535,-1.5535347238405537,-0.3406469401796768,-0.18669914783532093,-1.3089524823235312,-2.0170121264468386,-0.9643228687474857,-0.05027435639862157,-0.017334485890185335
2106.7239999999997,0.484251768761486,-1.5548851412752143,1.4212666156831588,-1.5042957218998003,-1.5549430417345311,-0.34893009185375057,-0.054383619554161,-1.5040740181961831,-2.023501551688179,-0.9269165900146643,-0.024323535878369263,1.2863093253516475e-05
2106.736,0.47580285456722693,-1.542318770660854,1.415315773595084,-1.5115400971398127,-1.5563552038475947,-0.357235853657178,-0.05474304816620476,-1.5273796594894096,-2.0248852475999795,-0.9270506498429468,-0.02529860357458988,1.2503492028561127e-05
2106.748,0.46735394037296785,-1.5297524000464957,1.4093649315070094,-1.5187844723798243,-1.5577673659606575,-0.3655416154606055,-0.05508725478314927,-1.5506227336309355,-2.0261986377501917,-0.9271898421528592,-0.026269093495531505,1.214389037998063e-05
2106.7599999999998,0.4589050261787089,-1.5171860294321364,1.4034140894189344,-1.5260288476198358,-1.559179528073721,-0.37384737726403294,-0.0554158272416233,-1.5737995865008227,-2.0274417045766064,-0.927334224045651,-0.02723502476458166,1.1784289642577476e-05
2106.772,0.4504561119844498,-1.5046196588177772,1.3974632473308597,-1.5332732228598474,-1.5605916901867847,-0.3821531390674595,-0.055728358994491814,-1.5969065700659404,-2.0286144345023027,-0.9274838516882353,-0.028196417234693436,1.1424691151071218e-05
2106.784,0.4420071977901907,-1.4920532882034179,1.391512405242785,-1.5405175980998598,-1.5620038522998474,-0.39045890087088697,-0.056024449393334674,-1.6199400430242719,-2.0297168179309963,-0.9276387803018629,-0.029153291482737556,1.1065096240093358e-05
2106.796,0.43355828359593174,-1.4794869175890586,1.3855615631547102,-1.5477619733398722,-1.563416014412911,-0.39876466267431443,-0.05630370396849617,-1.6428963714478273,-2.0307488492418524,-0.9277990641509731,-0.030105668803730924,1.0705506244180807e-05
2106.808,0.42510936940167265,-1.4669205469746993,1.3796107210666355,-1.5550063485798837,-1.5648281765259746,-0.4070704244777419,-0.05656573470652725,-1.665771929423983,-2.0317105267837228,-0.9279647565322032,-0.031053571204936944,1.034592249777213e-05
2106.8199999999997,0.41666045520741357,-1.45435417636034,1.3736598789785608,-1.5622507238198953,-1.5662403386390373,-0.41537618628116935,-0.056810160324839445,-1.6885630996951293,-2.032601852868836,-0.9281359097635774,-0.03199702139985087,9.986346335200326e-06
2106.832,0.4082115410131546,-1.4417878057459816,1.367709036890486,-1.5694950990599068,-1.567652500752101,-0.4236819480845959,-0.05703660654339459,-1.7112662742964566,-2.0334228337659264,-0.9283125751738587,-0.032936042802066086,9.626779090688484e-06
2106.846,0.3983544744531857,-1.4271270400292284,1.3607663877877323,-1.5779468701732542,-1.569300023217341,-0.43337200352192795,-0.05727758062284565,-1.7376372950053949,-2.0342917501617928,-0.9285257186890188,-0.0340260024695544,9.207297023361075e-06
2106.8559999999998,0.39131371262463654,-1.416655064517263,1.3558073527143366,-1.5839838495399308,-1.5704768249782273,-0.44029347169145083,-0.057434100281799245,-1.7563942549070977,-2.034853804808396,-0.9286826428372426,-0.03480089634560659,8.907676692153309e-06
2106.868,0.38286479843037746,-1.4040886939029038,1.3498565106262619,-1.5912282247799432,-1.5718889870912909,-0.4485992334948783,-0.057604436654494065,-1.7788118971621472,-2.035463827204185,-0.9288761427082192,-0.03572677875773217,8.548144205975759e-06
2106.88,0.3744158842361184,-1.3915223232885445,1.3439056685381872,-1.5984726000199547,-1.5733011492043545,-0.45690499529830575,-0.05775537185294332,-1.8011272174991733,-2.0360035688951608,-0.9290753499737947,-0.03664833290567391,8.188625973538873e-06
2106.892,0.3659669700418594,-1.3789559526741852,1.3379548264501124,-1.6057169752599663,-1.5747133113174172,-0.4652107571017332,-0.057886570569152876,-1.8233366639094035,-2.0364730558101902,-0.9292803108629287,-0.0375655856073909,7.829123328433248e-06
2106.904,0.3575180558476003,-1.366389582059826,1.3320039843620377,-1.6129613504999787,-1.5761254734304808,-0.4735165189051598,-0.05799770605577796,-1.845436697456685,-2.036872317781838,-0.9294910705551772,-0.038478564341701736,7.469637604105288e-06
2106.9159999999997,0.34906914165334124,-1.3538232114454667,1.326053142273963,-1.6202057257399902,-1.5775376355435444,-0.48182228070858724,-0.058088460372209876,-1.8674237928983166,-2.037201388535673,-0.9297076731713125,-0.039387297241351114,7.110170133853971e-06
2106.928,0.34062022745908227,-1.3412568408311074,1.3201023001858883,-1.6274501009800026,-1.5789497976566071,-0.4901280425120147,-0.05815852462633579,-1.8892944393028681,-2.03746030567901,-0.9299301617641266,-0.040291813085975306,6.750722250824293e-06
2106.94,0.3321713132648232,-1.328690470216749,1.3141514580978135,-1.6346944762200142,-1.5803619597696708,-0.49843380431544215,-0.05820759921180913,-1.9110451406648798,-2.0376491106891272,-0.9301585783094216,-0.04119214129496234,6.3912952880012205e-06
2106.9519999999998,0.3237273837483374,-1.3161315134909497,1.3082041268786633,-1.6419345774343448,-1.5817732887374403,-0.5067346658979295,0.09411296038367775,-2.113535784610969,-2.0544493365776253,-0.905955742415159,-0.009865068451661952,0.01735036175641319
2106.964,0.3153827716790284,-1.3037202751371213,1.302326748132831,-1.6490895206226055,-1.5831680176625484,-0.5149378927974029,0.09686777934724831,-2.135664340808008,-2.057115827332445,-0.9083935199229793,-0.009505818591974007,0.01734973794550405
2106.976,0.3071733422368275,-1.2915100987131227,1.2965445828604076,-1.656128553807025,-1.5845401519938473,-0.5230082275080203,0.09959758700883775,-2.1573095332033314,-2.059686219765377,-0.9108113041193076,-0.009164045461047456,0.017349151629365477
2106.988,0.2990990954217348,-1.279500984218954,1.2908576310613933,-1.663051676987604,-1.585889691731337,-0.5309456700297845,0.1022994424118108,-2.1784749068798925,-2.0621629780876627,-0.913207518497179,-0.008839566468702546,0.01734860146458753
2107.0,0.29116003123375017,-1.267692931654615,1.2852658927357885,-1.6698588901643436,-1.5872166368750182,-0.5387502203626928,0.10497057793554213,-2.199164182688527,-2.064548533302475,-0.9155806582181014,-0.008532166340488773,0.017348086129842448
2107.0119999999997,0.2833561496728738,-1.256085941020106,1.2797693678835929,-1.6765501933372429,-1.5885209874248902,-0.546421878506747,0.10760839871386838,-2.2193812430053725,-2.0668452831202018,-0.9179292886050942,-0.00824159924743343,0.017347604325904875
2107.024,0.2756874507391054,-1.2446800123154258,1.2743680565048063,-1.6831255865063017,-1.5898027433809538,-0.5539606444619452,0.110210481438771,-2.2391301179328984,-2.0690555918658644,-0.9202520435768661,-0.007967590883401989,0.017347154775670327
2107.036,0.2681539344324453,-1.2334751455405755,1.269061958599429,-1.6895850696715211,-1.5910619047432073,-0.5613665182282892,0.11277457259259695,-2.258414971936963,-2.071181790376898,-0.9225476240293078,-0.007709840489222016,0.017346736224171783
2107.048,0.26075560075289306,-1.2224713406955559,1.263851074167461,-1.6959286428328992,-1.5922984715116524,-0.5686394998057782,0.11529858615156337,-2.2772400909128887,-2.073226175890326,-0.9248147961705537,-0.007468022822953944,0.01734634743859461
2107.06,0.25349244970044915,-1.211668597780366,1.258735403208902,-1.7021563059904379,-1.5935124436862882,-0.5757795891944131,0.1177806008024064,-2.2956098696721394,-2.075191011918064,-0.9270523898153659,-0.0072417900758013735,0.017345987208288813
2107.072,0.24636448127511346,-1.2010669167950052,1.2537149457237522,-1.7082680591441362,-1.5947038212671147,-0.582786786394192,0.12021885671330233,-2.3135287998419196,-2.0770785281098214,-0.9292592966446196,-0.007030773733353786,0.017345654344784134
2107.084,0.23937169547688586,-1.1906662977394742,1.2487897017120115,-1.714263902293994,-1.595872604254133,-0.5896610914051168,0.12261175189859266,-2.3310014581684464,-2.0788909201027073,-0.931434468435163,-0.006834586382041109,0.017345347681795905
2107.096,0.23251409230576647,-1.1804667406137739,1.2439596711736802,-1.7201438354400116,-1.5970187926473418,-0.5964025042271865,0.12495783821665746,-2.3480324952155742,-2.08063034935719,-0.9335769152652516,-0.006652823460657296,0.01734506607523572
2107.1079999999997,0.22579167176175519,-1.1704682454179025,1.239224854108758,-1.7259078585821896,-1.5981423864467414,-0.6030110248604021,0.12725581703783934,-2.3646266244492136,-2.0822989429789582,-0.9356857037004145,-0.0064850649571707155,0.017344808403219
2107.12,0.219204433844852,-1.16067081215186,1.2345852505172452,-1.7315559717205264,-1.5992433856523327,-0.6094866533047618,0.12950453461896583,-2.3807886116990518,-2.083898793526789,-0.9377599549645927,-0.00633087705096193,0.017344573566070873
2107.132,0.21275237855505702,-1.1510744408156484,1.2300408603991415,-1.7370881748550246,-1.6003217902641147,-0.6158293895602673,0.13170297721909124,-2.396523264987719,-2.085431958806084,-0.9397988431008355,-0.006189813700842184,0.017344360486331038
2107.144,0.20643550589237025,-1.1416791314092665,1.225591683754447,-1.7425044679856816,-1.6013776002820874,-0.6220392336269178,0.13385026598983615,-2.4118354247185265,-2.0869004616483666,-0.9418015931258975,-0.006061418179279449,0.01734416810875746
2107.156,0.20025381585679158,-1.1324848839327144,1.2212377205831615,-1.7478048511124982,-1.6024108157062509,-0.6281161855047133,0.13594565167217815,-2.4267299542123553,-2.088306289676896,-0.9437674791827254,-0.005945224553356208,0.017343995400329024
2107.168,0.1942073084483209,-1.1234916983859922,1.2169789708852854,-1.7529893242354753,-1.603421436536606,-0.6340602451936546,0.1379885091300499,-2.4412117305845245,-2.089651395058716,-0.9456958226946658,-0.00584075911305843,0.017343841350247118
2107.18,0.18829598366695843,-1.1146995747690989,1.2128154346608184,-1.758057887354612,-1.6044094627731518,-0.6398714126937399,0.1399783317495801,-2.4552856359525292,-2.090937694243647,-0.9475859905250013,-0.0057475417475913,0.0173437049699363
2107.192,0.18251984151270428,-1.1061085130820363,1.2087471119097606,-1.7630105404699083,-1.6053748944158883,-0.6455496880049711,0.1419147257312927,-2.4689565489654828,-2.092167067690571,-0.9494373931451804,-0.00566508727047317,0.017343585293043997
2107.2039999999997,0.17687888198555812,-1.0977185133248026,1.2047740026321119,-1.7678472835813643,-1.6063177314648165,-0.6510950711273482,0.14379740430105456,-2.4822293366466175,-2.0933413595818373,-0.9512494828150181,-0.005592906694234019,0.01734348137543943
2107.216,0.17137310508552006,-1.0895295754973988,1.2008961068278727,-1.77256811668898,-1.6072379739199354,-0.6565075620608694,0.14562618186401913,-2.4951088465395834,-2.0944623775261766,-0.9530217517778145,-0.005530508455577282,0.01734339229521164
2107.228,0.1660025108125902,-1.0815416995998248,1.1971134244970425,-1.777173039792756,-1.608135621781245,-0.6617871608055355,0.14740096812438971,-2.507599899150646,-2.095531892251188,-0.9547537304733343,-0.005477399591955694,0.017343317152666935
2107.24,0.16076709916676857,-1.0737548856320807,1.1934259556396216,-1.7816620528926919,-1.6090106750487454,-0.6669338673613474,0.14912176219225323,-2.5197072806777014,-2.0965516372858843,-0.956444985771202,-0.005433086870509069,0.017343255070327895
2107.252,0.15566687014805503,-1.0661691335941672,1.1898337002556096,-1.7860351559887864,-1.6098631337224374,-0.6719476817283043,0.1507886466973824,-2.5314357360184094,-2.0975233086343827,-0.9580951192273055,-0.0053970778703897335,0.01734320519292001
2107.264,0.15070182375644958,-1.0587844434860827,1.186336658345007,-1.7902923490810423,-1.6106929978023201,-0.6768286039064071,0.15240178192839862,-2.542789962048929,-2.098448564441359,-0.9597037653654547,-0.005368882019497357,0.017343166687381617
2107.276,0.14587195999195235,-1.0516008153078271,1.1829348299078137,-1.794433632169457,-1.6115002672883936,-0.6815766338956539,0.15396140001453906,-2.5537746011661477,-2.099329024650542,-0.9612705899865509,-0.005348011586689433,0.017343138742848027
2107.288,0.14117727885456322,-1.0446182490594023,1.1796282149440294,-1.7984590052540321,-1.6122849421806587,-0.6861917716960466,0.15546779916536796,-2.564394235085162,-2.100166270656833,-0.962795288507272,-0.005333982630612018,0.017343120570651224
2107.2999999999997,0.1366177803442823,-1.0378367447408063,1.1764168134536543,-1.802368468334766,-1.6130470224791136,-0.6906740173075843,0.15692133798353752,-2.574653378885263,-2.1009618449532925,-0.9642775843301215,-0.005326315906137973,0.017343111404311176
2107.312,0.13219346446110947,-1.0312563023520411,1.1733006254366884,-1.8061620214116605,-1.613786508183761,-0.6950233707302669,0.15832242986319223,-2.584556475296786,-2.1017172507737603,-0.965717227246606,-0.0053245377296547184,0.017343110499530863
2107.324,0.12790433120504474,-1.0248769218931049,1.1702796508931321,-1.8098396644847154,-1.6145033992945983,-0.6992398319640944,0.15967153748647622,-2.594107889222675,-2.102433951732375,-0.967113991875215,-0.005328180804244218,0.01734311713418948
2107.336,0.12375038057608823,-1.0186986033639993,1.1673538898229845,-1.8134013975539292,-1.6151976958116272,-0.7033234010090679,0.16096916742889772,-2.603311902487508,-2.103113371460742,-0.9684676761356046,-0.005336785005923537,0.0173431306083355
2107.348,0.11973161257423992,-1.0127213467647227,1.1645233422262464,-1.8168472206193034,-1.6158693977348468,-0.7072740778651863,0.16221586488345352,-2.612172708808158,-2.103756893243964,-0.9697780997604443,-0.0053498981320527885,0.017343150244179612
2107.36,0.11584802719949971,-1.0069451520952768,1.1617880081029173,-1.8201771336808363,-1.6165185050642572,-0.7110918625324496,0.1634122085123072,-2.6206944089794755,-2.1043658596563377,-0.9710451028460875,-0.005367076613046895,0.017343175386087283
2107.372,0.11209962445186739,-1.0013700193556598,1.1591478874529977,-1.8233911367385307,-1.6171450177998592,-0.7147767550108579,0.16455880543393975,-2.628881006269809,-2.1049415721980034,-0.9722685444433691,-0.005387886188501733,0.01734320540057138
2107.384,0.10848640433134304,-0.9959959485458718,1.156602980276487,-1.8264892297923838,-1.617748935941652,-0.7183287553004121,0.16565628635268603,-2.636736402020079,-2.1054852909332555,-0.9734483011894349,-0.005411902548841405,0.01734323967628451
2107.3959999999997,0.10500836683792725,-0.9908229396659145,1.1541532865733855,-1.8294714128423966,-1.6183302594896354,-0.7217478634011112,0.16670530083681173,-2.6442643914415696,-2.1059982341317367,-0.9745842659817022,-0.005438711943581315,0.017343277624011427
2107.408,0.10166551197161966,-0.985850992715787,1.151798806343693,-1.8323376858885698,-1.6188889884438096,-0.7250340793129544,0.1677065127504191,-2.651468659606775,-2.1064815779132178,-0.9756763466946725,-0.005467911757281143,0.017343318676661158
2107.42,0.09845783973242006,-0.9810801076954894,1.1495395395874102,-1.8350880489309027,-1.6194251228041754,-0.7281874030359443,0.1686605958438248,-2.658352777629145,-2.106936455897282,-0.9767244649405935,-0.005499111054240987,0.017343362289259444
2107.432,0.09538535012032878,-0.9765102846050215,1.1473754863045362,-1.8377225019693952,-1.619938662570732,-0.7312078345700783,0.16956822950625705,-2.6649201990262745,-2.107363958858495,-0.9777285548745018,-0.0055319310929765305,0.01734340793894098
2107.444,0.0924480431353456,-0.9721415234443826,1.1453066464950716,-1.8402410450040474,-1.6204296077434792,-0.7340953739153573,0.17043009468419607,-2.6711742562624625,-2.1077651343880417,-0.9786885620443359,-0.005566005811483104,0.01734345512494163
2107.456,0.08964591877747052,-0.9679738242135745,1.143333020159016,-1.8426436780348592,-1.6208979583224181,-0.736850021071783,0.17124686996808836,-2.6771181574669507,-2.108140986563081,-0.9796044422868767,-0.005600982284281877,0.017343503368591223
2107.468,0.08697897704670332,-0.9640071869125952,1.1414546072963696,-1.8449304010618315,-1.6213437143075478,-0.7394717760393528,0.17201922784954463,-2.6827549833224382,-2.108492475623901,-0.9804761606696493,-0.005636521152173884,0.017343552213305698
2107.48,0.08444721794304466,-0.9602416115414458,1.1396714079071328,-1.8471012140849634,-1.6217668756988672,-0.7419606388180675,0.17274783115085438,-2.6880876841218337,-2.1088205176605914,-0.981303690479689,-0.0056722970256649205,0.017343601224580115
2107.4919999999997,0.0820506414664941,-0.9566770981001262,1.1379834219913048,-1.849156117104255,-1.6221674424963792,-0.7443166094079281,0.17343332962803726,-2.6931190769884994,-2.1091259843094328,-0.9820870122593066,-0.005707998862927636,0.01734364998998161
2107.504,0.07978924761705164,-0.9533136465886365,1.1363906495488862,-1.8510951101197062,-1.622545414700081,-0.7465396878089336,0.17407635674836308,-2.697851843256534,-2.1094097024596827,-0.9828261128891005,-0.005743330323157195,0.017343698119142038
2107.516,0.07766303639471706,-0.9501512570069766,1.1348930905798764,-1.852918193131318,-1.6229007923099754,-0.7486298740210842,0.17467752664298553,-2.7022885260093434,-2.1096724539723204,-0.9835209847190565,-0.005778010096175666,0.017343745243749844
2107.528,0.07567200779949079,-0.9471899293551473,1.1334907450842766,-1.8546253661390883,-1.6232335753260596,-0.7505871680443796,0.17523743123504043,-2.7064315277715063,-2.109914975410168,-0.98417162474727,-0.005811772209000648,0.017343791017551218
2107.54,0.07381616183137285,-0.9444296636331462,1.1321836130620855,-1.8562166291430193,-1.6235437637483354,-0.7524115698788201,0.17575663754294396,-2.7102831083527357,-2.110137957781173,-0.9847780338471551,-0.00584436631025194,0.01734383511633265
2107.5519999999997,0.07209549849036301,-0.9418704598409757,1.1309716945133033,-1.85769198214311,-1.623831357576801,-0.7541030795244072,0.1762356851594059,-2.7138453828411078,-2.1103420462950737,-0.9853402160431181,-0.005875557932939851,0.017343877237922047
2107.564,0.07051001777646126,-0.9395123179786342,1.1298549894379306,-1.8590514251393602,-1.6240963568114584,-0.7556616969811376,0.17667508390513922,-2.7171203197419262,-2.110527840133473,-0.9858581778346099,-0.005905128736448908,0.017343917102181645
2107.576,0.0690597196896674,-0.9373552380461234,1.1288334978359673,-1.860294958131771,-1.6243387614523073,-0.7570874222490138,0.17707531165730866,-2.7201097392621536,-2.110695892235095,-0.9863319275693077,-0.005932876728262408,0.01734395445100307
2107.5879999999997,0.06774460422998207,-0.9353992200434424,1.1279072197074131,-1.8614225811203404,-1.624558571499346,-0.7583802553280359,0.17743681235194142,-2.7228153117362033,-2.110846709095472,-0.9867614748649416,-0.00595861646604199,0.017343989048302238
2107.6,0.06656467139740463,-0.9336442639705904,1.1270761550522677,-1.8624342941050704,-1.6247557869525764,-0.759540196218202,0.17775999415978594,-2.7252385561925276,-2.1109807505822133,-0.9871468300801701,-0.005982179240595698,0.017344020680014637
2107.612,0.0655199211919355,-0.9320903698275682,1.1263403038705317,-1.86333009708596,-1.6249304078119984,-0.760567244919514,0.17804522783494045,-2.7273808390593297,-2.111098429766361,-0.9874880038347164,-0.006003413240237535,0.017344049154091587
2107.624,0.06461035361357426,-0.9307375376143767,1.125699666162205,-1.8641099900630103,-1.6250824340776102,-0.7614614014319709,0.17829284523552513,-2.729243373006927,-2.111200112769789,-0.9877850065785185,-0.006022183696984513,0.017344074300496302
2107.636,0.06383596866232133,-0.9295857673310142,1.1251542419272875,-1.8647739730362192,-1.6252118657494137,-0.7622226657555737,0.17850313801579626,-2.730827215926183,-2.1112861186291814,-0.9880378482101206,-0.006038373015010792,0.017344095971200433
2107.6479999999997,0.06319676633817672,-0.9286350589774814,1.1247040311657792,-1.8653220460055886,-1.6253187028274088,-0.7628510378903206,0.17867635648904515,-2.7321332700420564,-2.111356719177258,-0.9882465377445105,-0.006051880881712475,0.01734411404018145
2107.66,0.06269274664114022,-0.9278854125537785,1.1243490338776803,-1.8657542089711168,-1.6254029453115937,-0.7633465178362133,0.17881270866060836,-2.7331622811598812,-2.111412138940747,-0.988411083030036,-0.006062624361698123,0.017344128403419715
2107.672,0.06232390957121159,-0.9273368280599055,1.12408925006299,-1.8660704619328055,-1.6254645932019702,-0.763709105593251,0.17891235943057981,-2.7339148380454747,-2.111452555056327,-0.9885314905149584,-0.006070537973992041,0.017344138978896903
2107.6839999999997,0.06209025512839128,-0.9269893054958613,1.1239246797217095,-1.8662708048906547,-1.6255036464985366,-0.7639388011614336,0.17897542996562776,-2.7343913719362907,-2.1114780972036384,-0.9886077650631158,-0.006075573752652403,0.017344145706593938
2107.696,0.06199178331267907,-0.9268428448616479,1.123855322853838,-1.8663552378446626,-1.6255201052012955,-0.7640356045407621,0.17900199723962534,-2.734592156184477,-2.111488847556411,-0.9886399098191063,-0.0060777012909934685,0.017344148548489813
2107.708,0.061995194950001734,-0.9267081472303191,1.1238515201032473,-1.8664550780822102,-1.6255213422500718,-0.7640248346964444,-0.009447322252862895,-2.072214326386463,-1.8740531451285418,-0.9469196571826641,-0.03221896858788067,0.006592511446311559
2107.72,0.062024829220956194,-0.9261548672324258,1.1238452907553842,-1.8668683444256082,-1.6255241003031493,-0.7639640214985697,-0.009459178623531185,-2.0723954700596656,-1.8742694278586693,-0.9466781087399422,-0.03221810614816393,0.00658923032555768
2107.732,0.06207773856544655,-0.925165373599155,1.1238317550851182,-1.867605307094463,-1.625528994617051,-0.7638554111121385,-0.009488487627967073,-2.0727000086896887,-1.8746908303331153,-0.9462481334347591,-0.032216728391570686,0.006583194780306402
2107.7439999999997,0.06215387176501913,-0.9237378132787573,1.1238068360788147,-1.8686637444551346,-1.625535969765357,-0.7636990514188025,-0.009534801342829444,-2.073130229132517,-1.8753159877843972,-0.9456289019266066,-0.03221480334069845,0.0065744139491522215
2107.756,0.06225315520849024,-0.921869524376409,1.1237646610791299,-1.8700404491136178,-1.6255449460402644,-0.7634950112826848,-0.009597466690315793,-2.07368947388642,-1.8761430325673274,-0.9448192095127477,-0.032212285621760775,0.006562901078985599
2107.768,0.06237549305887523,-0.9195570435436151,1.1236975606855435,-1.8717312194431583,-1.6255558195805735,-0.7632433804467338,-0.009675625715639393,-2.0743820932387065,-1.8771696579121744,-0.9438174648309515,-0.03220911647596468,0.006548673462685404
2107.7799999999997,0.06252076747017903,-0.9167961154753801,1.123596067026782,-1.8737308483808706,-1.6255684625379851,-0.7629442693981927,-0.009768216086747302,-2.075213381588606,-1.8783932016873905,-0.9426216753373644,-0.032205223777790046,0.006531752358242041
2107.792,0.06268883885313367,-0.9135817043921328,1.1234489111717325,-1.8760331093828544,-1.6255827232810889,-0.762597809203819,-0.009873971840600725,-2.0761894971492687,-1.879810750384206,-0.9412294296766387,-0.03220052205968736,0.006512162890754043
2107.804,0.06287954618876712,-0.9099080073508938,1.123243019388989,-1.8786307394033148,-1.6255984266362615,-0.7622041513156095,-0.009991424408771031,-2.0773173639331994,-1.8814192636413463,-0.9396378770540974,-0.03219491254479354,0.006489933934953415
2107.816,0.06309270738849361,-0.9057684691950385,1.122963507906874,-1.8815154187399994,-1.6256153741645782,-0.7617634673479383,-0.010118903963338713,-2.0786045545905036,-1.8832157198316757,-0.9378437036875958,-0.032188283188099506,0.0064650979838158365
2107.828,0.06332811969923058,-0.9011557989134067,1.1225936757645685,-1.8846777475656449,-1.6256333444736981,-0.761275948827123,-0.010254541130379753,-2.0800591522498637,-1.885197283453641,-0.9358431063575359,-0.03218050872673448,0.006437690999485379
2107.8399999999997,0.06358556015187257,-0.8960619871364814,1.1221149952794074,-1.8881072189425332,-1.6256520935635717,-0.7607418069145719,-0.010396269130102824,-2.0816895890221185,-1.8873614954116078,-0.9336317629811681,-0.0321714507403525,0.0064077522499618265
2107.852,0.06386478605128822,-0.8904783244487788,1.1215070995836118,-1.8917921880940627,-1.625671355204708,-0.7601612721047575,-0.010541826403466572,-2.083504458239268,-1.8897064876788496,-0.9312047999981568,-0.03216095772297334,0.006375324133397879
2107.864,0.06416553550585535,-0.8843954201410158,1.120747766603247,-1.8957198376822753,-1.6256908413476179,-0.7595345938993789,-0.010688759796355203,-2.085512296781162,-1.892231224363324,-0.9285567561709033,-0.03214886516655771,0.006340451989001225
2107.8759999999997,0.06448752799440986,-0.8778032209614874,1.1198128987599802,-1.8998761388122212,-1.6257102425619783,-0.7588620404591611,-0.010834428363204616,-2.087721333022311,-1.8949357718699826,-0.9256815421511916,-0.03213499565684517,0.0063031838968104405
2107.888,0.06483046496835954,-0.8706910293513648,1.1186764975683243,-1.904245807450839,-1.6257292285039462,-0.7581438982348203,-0.010976007853733516,-2.090139194904216,-1.8978216016805527,-0.9225723948424389,-0.032119158983723306,0.0062635704688859175
2107.9,0.06519403048660297,-0.8630475205610022,1.1173106321726738,-1.908812255907244,-1.6257474484100065,-0.7573804715788066,-0.011110495927368173,-2.092772571437961,-1.900891930315636,-0.9192218251662881,-0.032101152265399786,0.006221664630998732
2107.912,0.06557604297426826,-0.8549004797422608,1.1156936841131624,-1.9135348713184364,-1.6257644549554158,-0.7565759818358231,-0.0011466528244950122,-2.5860099475154716,-2.0838853486198596,-0.9683617032035978,-0.04268724566002968,-0.00026487839888015343
2107.924,0.06595979457825477,-0.8465959263138547,1.1138783558285725,-1.9181985497291043,-1.6257793093464743,-0.755765413023763,-0.00107682950841747,-2.59478443142919,-2.0805948486834858,-0.96692781943015,-0.04270686923148916,-0.0002635706100901196
2107.9359999999997,0.0663414477163211,-0.8382159821987862,1.1118794497481865,-1.9227541602006548,-1.6257918407353023,-0.7549568588437765,-0.0010072704783364796,-2.603548415148375,-2.0772947536247863,-0.9654878374523226,-0.04272452861879092,-0.00026227870033499894
2107.948,0.06672101846323361,-0.8297611544225365,1.1096963524214263,-1.9272005837878838,-1.625802061579229,-0.7541503094260955,-0.0009379908307955476,-2.6123001807372392,-2.073989168725658,-0.9640416836473896,-0.04274022664418264,-0.00026100138069601954
2107.96,0.06709852273036379,-0.8212319150935539,1.107328392480929,-1.9315366785243144,-1.625809984222463,-0.7533457550123979,-0.0008690001766341768,-2.621038219253241,-2.070682328784624,-0.962589283425066,-0.042753972302244536,-0.0002597384565221493
2107.9719999999998,0.0674739762677824,-0.8126286999488537,1.1047748385718335,-1.9357612788062033,-1.6258156208975398,-0.7525431859543215,-0.0008003073363968318,-2.629760985703738,-2.067378496488696,-0.9611305457494024,-0.042765774538244566,-0.00025848973575791026
2107.984,0.06784739466632163,-0.8039519068125545,1.1020348970680003,-1.939873194650513,-1.6258189837267452,-0.7517425927120005,-0.0007319202129944039,-2.638466897042065,-2.064081963941113,-0.9596653622275056,-0.04277564224945906,-0.00025725502974507626
2107.996,0.0682187933596059,-0.7952018939624814,1.0991077095632493,-1.9438712108198484,-1.6258200847235162,-0.7509439658526178,-0.0006638456618490478,-2.647154329840904,-2.0607970545077205,-0.9581936061019626,-0.042783584285650954,-0.00025603415243411056
2108.008,0.06858818762605176,-0.7863789783991768,1.0959923501242548,-1.9477540858066194,-1.62581893579382,-0.7501472960489881,-0.0005960893598516308,-2.655821617610144,-2.057528125011199,-0.9567151311383658,-0.04278960945012652,-0.00025482692074119346
2108.02,0.06895559259083753,-0.7774834340109313,1.09268782229014,-1.9515205506678939,-1.6258155487375143,-0.7493525740781628,-0.00052865567174389,-2.664467047716705,-2.054279568315595,-0.9552297703973401,-0.04279372650026608,-0.0002536331543788463
2108.0319999999997,0.06932102322784323,-0.7685154896275517,1.0891930558020677,-1.9551693077014995,-1.6258099352496886,-0.7485597908200452,-0.00046154751415696394,-2.6730888578765577,-2.0510558163436303,-0.953737334876355,-0.042795944148511685,-0.0002524526758554233
2108.044,0.06968449436156082,-0.7594753269546235,1.085506903044153,-1.9586990289529327,-1.625802106921979,-0.7477689372560441,-0.0003947662159932332,-2.681685232157101,-2.0478613435702653,-0.9522376120073848,-0.04279627106317832,-0.0002512853106083076
2108.056,0.07004602066897614,-0.7503630783789994,1.0816281351748596,-1.9621083545415523,-1.6257920752438668,-0.7469800044677317,-0.0003283113733904306,-2.6902542964487823,-2.0447006710544935,-0.9507303639918321,-0.042794715869187046,-0.0002501308862909442
2108.0679999999998,0.07040561668142209,-0.7411788246350088,1.0775554379256154,-1.9653958907932312,-1.6257798516039612,-0.7461929836355328,-0.000262180699825787,-2.6987941133381725,-2.0415783710615467,-0.9492153259546567,-0.04279128714894769,-0.0002489892335376994
2108.08,0.07076329678640418,-0.7319225923196244,1.0732874070406644,-1.9685602081653064,-1.625765447291255,-0.7454078660374295,-0.000196369870432065,-2.707302676314201,-2.038499072350635,-0.9476922038925676,-0.042785993442855476,-0.0002478601856229947
2108.092,0.07111907522939863,-0.7225943512433162,1.0688225433291245,-1.9715998389480358,-1.6257488734963674,-0.7446246430476879,-0.00013087235642029131,-2.715777903226925,-2.0354674662013137,-0.9461606723916528,-0.04277884325034529,-0.0002467435781155357
2108.104,0.07147296611562354,-0.7131940116016819,1.0641592472967976,-1.9745132747250196,-1.6257301413127658,-0.7438433061356013,-6.567925204663833e-05,-2.7242176289152136,-2.0324883132726397,-0.9446203720851888,-0.04276984503079363,-0.00024563924899863494
2108.116,0.07182498341178359,-0.7037214209510987,1.0592958133214136,-1.9772989635730402,-1.6257092617379714,-0.7430638468642563,-7.790901120174921e-07,-2.732619596881952,-2.02956645138739,-0.9430709068129639,-0.0427590072036438,-0.00024454703922474147
2108.1279999999997,0.07217514094778872,-0.6941763609695464,1.0542304233306243,-1.9799553069794706,-1.6256862456747445,-0.7422862568893116,6.384235721016964e-05,-2.7409814499184253,-2.0267068043723206,-0.9415118404465161,-0.04274633814989612,-0.00024346679176255392
2108.14,0.07252345241844736,-0.6845585439813906,1.0489611399371084,-1.9824806564528306,-1.6256611039322513,-0.7415105279578036,0.00012820229070616203,-2.749300719516315,-2.0239143920651474,-0.9399426933311785,-0.04273184621231749,-0.00024239835194319272
2108.152,0.07286993138513422,-0.6748676092222379,1.0434858989795357,-1.984873309799121,-1.6256338472272178,-0.7407366519069658,0.000192321115458427,-2.7575748139259244,-2.021194341666485,-0.9383629382918782,-0.04271553969683596,-0.0002413415673405016
2108.1639999999998,0.07321459127743361,-0.6651031188169592,1.037802501411734,-1.987131507033201,-1.625604486185063,-0.7399646206630619,0.00025622269373392877,-2.765801004657382,-2.018551900591752,-0.9367719961389933,-0.042697426872423005,-0.00024029628843888763
2108.176,0.07355744539475845,-0.6552645534404764,1.0319086044750936,-1.989253425890622,-1.625573031341017,-0.7391944262402443,0.00031993462119530355,-2.773976411217679,-2.015992451043834,-0.9351692306029077,-0.042677515972630434,-0.00023926236741399171
2108.188,0.07389850690794512,-0.6453513076269966,1.0258017120808813,-1.9912371769009205,-1.6255394931412201,-0.7384260607394237,0.0003834885326005051,-2.7820979838252824,-2.01352152653743,-0.9335539426103182,-0.04265581519607166,-0.00023823965864090227
2108.2,0.07423778886082516,-0.6353626846888218,1.0194791643195389,-1.9930807979783332,-1.6255038819438123,-0.7376595163471604,0.0004469204413206296,-2.7901624838083903,-2.011144830654283,-0.9319253638047242,-0.04263233270711872,-0.00023722801894954782
2108.212,0.07457530417177359,-0.6252978912006535,1.0129381260029875,-1.9947822484799955,-1.6254662080199953,-0.7368947853345684,0.0005102711166807038,-2.798166461328253,-2.0088682583584556,-0.9302826491897539,-0.04260707663692617,-0.00023622730723666673
2108.2239999999997,0.07491106563523472,-0.6151560309993309,1.006175574133222,-1.9963394026750052,-1.6254264815550936,-0.7361318600562381,0.0005735865086116157,-2.8061062300292337,-2.006697920251024,-0.9286248687612926,-0.04258005508417684,-0.00023523738440650013
2108.236,0.07524508592322549,-0.6049360986419963,0.9991882841757157,-1.9977500425598675,-1.6253847126495877,-0.735370732949173,0.0006369182239867115,-2.813977838122653,-2.004640170221602,-0.9269509979617673,-0.042551276115738904,-0.0002342581133995594
2108.248,0.07557737758681696,-0.5946369722576232,0.9919728149990343,-1.999011849946779,-1.625340911320138,-0.7346113965317453,0.0007003240672434251,-2.8217770353219653,-2.0027016370201927,-0.9252599067642512,-0.0425207477679028,-0.00023328935930648156
2108.2599999999998,0.07590795305759403,-0.5842574057175041,0.9845254923221143,-2.0001223977406095,-1.6252950875005947,-0.733853843402664,0.000763868653175022,-2.8294992349561325,-2.000889260398087,-0.9235503471528258,-0.04248847804686383,-0.00023233098953511538
2108.272,0.07623682464909431,-0.5737960200393593,0.9768423904873604,-2.0010791403080876,-1.625247251042989,-0.733098066239962,0.0008276241068003537,-2.837139470431898,-1.9992103325624544,-0.9218209387267419,-0.04245447493011081,-0.00023138287305141805
2108.284,0.07656400455822565,-0.5632512939269194,0.9689193123504077,-2.001879402828161,-1.6251974117185153,-0.7323440577999927,0.0008916708642695555,-2.8446923450609196,-1.9976725458582931,-0.920070152092251,-0.042418746367418124,-0.00023044488039153323
2108.296,0.07688950486666347,-0.55262155333181,0.9607517670452707,-2.0025203694954534,-1.6251455792184935,-0.7315918109164468,0.0009560985949904673,-2.852151974078434,-1.9962840477573096,-0.9182962896485102,-0.042381300281550745,-0.00022951688496271924
2108.308,0.07721333754222787,-0.5419049599067707,0.9523349453456739,-2.0029990704285554,-1.6250917631553214,-0.7308413184993814,0.0010210072652432592,-2.8595119174124646,-1.9950535044782107,-0.9164974632791966,-0.04234214456956166,-0.00022859876164343384
2108.3199999999997,0.0775355144402407,-0.5310994981982455,0.9436636922984208,-2.003312367110979,-1.6250359730634134,-0.7300925735342609,0.0010865083719261092,-2.866765101464542,-1.9939901748168842,-0.9146715683677099,-0.042301287104958264,-0.0002276903862704756
2108.332,0.07785604730486347,-0.5202029614013206,0.9347324767511713,-2.0034569361641736,-1.6249782184001234,-0.7293455690810191,0.001152726377953304,-2.873903727796102,-1.993103996136821,-0.9128162534189465,-0.04225873573766163,-0.00022679163782191264
2108.344,0.0781749477704157,-0.5092129354701225,0.9255353573331168,-2.003429251217976,-1.6249185085466555,-0.7286002982731263,0.0012198003900333277,-2.8809191661082965,-1.992405684885609,-0.9109288844098734,-0.042214498296823326,-0.00022590239623392088
2108.3559999999998,0.07849222736267462,-0.4981267813408996,0.9160659443703579,-2.0032255626030757,-1.624856852808965,-0.7278567543166758,0.00128788612816729,-2.8878018283180547,-1.9919068545614242,-0.9090065027872178,-0.04216858259230436,-0.00022502254383907356
2108.368,0.07880789750015632,-0.4869416149818129,0.9063173571253631,-2.0028418745408487,-1.62479326041864,-0.7271149304894822,0.001357158246540231,-2.8945410197703523,-1.9916201547358197,-0.9070457757738051,-0.042120996416425506,-0.00022415196426036463
2108.38,0.0791219694953785,-0.475654284931073,0.8962821756379016,-2.002273919446317,-1.6247277405337766,-0.7263748201401921,0.0014278130814410113,-2.9011247626424406,-1.9915594356230388,-0.9050429373130559,-0.04207174754684441,-0.0002232905423381007
2108.392,0.07943445455610552,-0.4642613469213295,0.8859523863085147,-2.0015171288873894,-1.624660302239839,-0.7256364166874105,0.0015000719219525607,-2.907539585360565,-1.9917399438213457,-0.9029937175581495,-0.042020843749024844,-0.0002224381652985478
2108.404,0.07974536378657543,-0.45275903511021376,0.8753193201986913,-2.000566600654655,-1.6245909545505084,-0.724899713618834,0.0015741849197820857,-2.9137702702250934,-1.9921785562867382,-0.9008932582704371,-0.04196829278021108,-0.0002215947221636648
2108.4159999999997,0.08005470818871002,-0.44114322934086303,0.8643735828164616,-1.9994170612866053,-1.6245197064085177,-0.7241647044904038,0.0016504357876247304,-2.9197995493525664,-1.9928940615171513,-0.8987360107713566,-0.041914102392277365,-0.0002207601027151429
2108.428,0.0803624986633076,-0.4294094177373573,0.8531049739016855,-1.998062823259641,-1.624446566686478,-0.7234313829254662,0.0017291474809557781,-2.9256077362927213,-1.9939074993759498,-0.8965156121742129,-0.0418582803376506,-0.00021993419885354225
2108.44,0.08066874601121894,-0.4175526537917573,0.8415023954082022,-1.9964977358833265,-1.6243715441876914,-0.722699742613945,0.0018106891043435727,-2.931172277043222,-1.9952425742710636,-0.894224734372733,-0.04180083437498621,-0.00021911690425733594
2108.4519999999998,0.08097346093450687,-0.4055675069135187,0.8295537454821318,-1.9947151287294353,-1.624294647646951,-0.7219697773115303,0.0018954843603898558,-2.936467199354457,-1.996926160741931,-0.8918548986383483,-0.041741772275612814,-0.00021830811388577796
2108.464,0.08127665403758948,-0.3934480051770288,0.8172457957328226,-1.9927077461554967,-1.6242158857313358,-0.721241480838871,0.001984021960392877,-2.941462432706193,-1.998988926374064,-0.889396246453676,-0.0416811018333078,-0.0002175077239176464
2108.476,0.08157280951410602,-0.3814140217451385,0.804800388147622,-1.9905109556349538,-1.624136763899081,-0.7205281755259838,0.010756155182104684,-3.5469257775391987,-2.0344094084061806,-0.9843027441750115,-0.052265262275932006,-0.00600565092643721
2108.488,0.08185062355440782,-0.3699410298038357,0.7927268495124357,-1.9882277810586277,-1.6240605575328537,-0.7198573183206847,0.010504089570574157,-3.5621696935946963,-2.0250693055699696,-0.9869110356607563,-0.05222703732191328,-0.005970245802877477
2108.5,0.08210998211813864,-0.3590615101236585,0.7810897869293848,-1.9858924955041601,-1.6239876636675188,-0.7192295095303445,0.010250520320344765,-3.5770216691900254,-2.0159199350227794,-0.9895651626762657,-0.052189578045030376,-0.005937215092299597
2108.5119999999997,0.0823511148959176,-0.3487935856136506,0.769938719132942,-1.9835364694887074,-1.6239183632349556,-0.7186444980686053,0.009998137332951186,-3.5914468490228235,-2.006975777907338,-0.9922486236866885,-0.05215319891028736,-0.005906521928900036
2108.524,0.08257423428844901,-0.33915549874668827,0.7593227846731339,-1.9811905753046464,-1.6238529168442355,-0.7181020507047489,0.00974963230169848,-3.605398262364977,-1.998261744591161,-0.994941374260323,-0.052118191152879544,-0.005878132562240118
2108.536,0.0827795358450449,-0.33016549188230115,0.7492904640352848,-1.9788850288510709,-1.6237915651386432,-0.7176019518072989,0.00950770488825267,-3.6188167048943867,-1.989813530299563,-0.9976197335222976,-0.05208482325807575,-0.005852016209847196
2108.548,0.08296719866439835,-0.32184166021960525,0.7398892468979312,-1.9766492039700463,-1.6237345291227436,-0.7171440031102181,0.009275059619983848,-3.6316310591907386,-1.9816775763264747,-1.0002564459036776,-0.05205334139152805,-0.005828144915194453
2108.56,0.08313738575914661,-0.31420177830266294,0.7311652460058642,-1.974511419842469,-1.6236820104605831,-0.7167280235006777,0.009054392535601858,-3.643759157227462,-1.9739105446977836,-1.002820932765914,-0.05202396978816121,-0.005806493432347791
2108.572,0.08329024438561025,-0.3072631022442369,0.7231627618417159,-1.972498703461138,-1.6236341917459765,-0.7163538488274721,0.00884836702586058,-3.655109271282187,-1.9665782284373376,-1.0052797625902012,-0.051996911099653834,-0.005787039114213814
2108.584,0.08342590633995255,-0.3010421512657988,0.7159238053873674,-1.9706365308746392,-1.6235912367457432,-0.7160213317292561,0.008659578955448877,-3.665582287436117,-1.9597538475158922,-1.0075973573074395,-0.051972346704206404,-0.005769761813726822
2108.596,0.08354448822186705,-0.29555447369540033,0.7094875896119985,-1.968948552697377,-1.6235532906166643,-0.7157303414818657,0.008490511959706971,-3.6750745675190286,-1.9535157227494435,-1.0097369359002468,-0.05195043698161529,-0.0057546438035305895
2108.6079999999997,0.08364609166677345,-0.2908144041080307,0.7038900036661829,-1.9674563111806629,-1.6235204800968326,-0.7154807638640683,0.008343484750598781,-3.6834814425900873,-1.9479443750444012,-1.011661675040476,-0.05193132156381252,-0.005741669694301821
2108.62,0.08373080354737923,-0.28683481969155267,0.6991630867933196,-1.9661789577731845,-1.6234929136720115,-0.7152725010411869,0.008220593210826306,-3.690701208877721,-1.9431191610996827,-1.013336042109846,-0.05191511955606057,-0.0057308263727831625
2108.632,0.08379869614534674,-0.2836269050117046,0.6953345213411788,-1.965132981380222,-1.6234706817174755,-0.7151054714660878,0.008123650941343125,-3.6966394235705002,-1.9391146217916848,-1.0147272311351672,-0.05190192974595943,-0.005722102949960394
2108.644,0.08384982729369335,-0.2811999349678942,0.6924271656164195,-1.9643319582728278,-1.6234538566158188,-0.7149796097971359,0.008054132509761096,-3.7012132338035215,-1.9359967765190873,-1.0158066106811245,-0.05189183079004745,-0.005715490707463811
2108.656,0.08388424049044245,-0.2795610857372237,0.690458647373354,-1.9637863346408828,-1.6234424928510442,-0.7148948668327675,0.008013123901746928,-3.7043554291871303,-1.9338196353908228,-1.016551078452107,-0.05188488138992745,-0.0057109830712062494
2108.668,0.08390196498393762,-0.2787152828068562,0.6894410372714356,-1.9635032520244424,-1.6234366270792524,-0.7148512094624024,0.00800128439712238,-3.7060178967951045,-1.932622212027558,-1.0169442138531177,-0.05188112045336021,-0.005708575574156217
2108.68,0.08390430189050462,-0.27866376967382944,0.6893754968479333,-1.9634768149700008,-1.6234307310827862,-0.7148432608733222,0.03234460700382999,-3.7002795129923713,-1.9414228279643775,-1.0007268358537926,-0.03654456233603522,0.0023393296050788263
2108.692,0.08390130372142708,-0.2793963589576185,0.6902224098414403,-1.9636321815811701,-1.6233814588257598,-0.7148291327876111,0.03239324315664346,-3.6989889051173,-1.942189545170637,-1.0003651390979893,-0.036501539693008685,0.0023398553391639604
2108.7039999999997,0.08389510382858853,-0.2809087099901424,0.691968006711077,-1.9639502760490348,-1.6232796007975034,-0.7147999216393881,0.032474806752273405,-3.696278152396876,-1.9438960480902712,-0.999613685712025,-0.036413004553991976,0.0023410086746687227
2108.716,0.08388569836576673,-0.28319645023395434,0.6946015078771075,-1.9644246944735126,-1.6231251600714014,-0.7147556181321848,0.032588244906446,-3.692184508528753,-1.946513344885169,-0.9984857818296342,-0.03627895722749346,0.002342789054678305
2108.728,0.08387308149401596,-0.28625306057756017,0.6981068076519281,-1.9650458550477676,-1.6229181413084453,-0.7146962081754848,0.03273213781843652,-3.6867629259127104,-1.9499985268644506,-0.9970009605364405,-0.03609939848595317,0.002345195624913906
2108.74,0.08385724537299154,-0.2900700054783254,0.7024627551576486,-1.9658011488388318,-1.622658550758345,-0.7146216728914769,0.03290474714467883,-3.6800832795951735,-1.9542971381745045,-0.995184043495263,-0.03587432965637797,0.0023482272193829693
2108.752,0.08383818014927423,-0.2946368972549207,0.7076435093104161,-1.9666751304874284,-1.6223463962609994,-0.7145319886241355,0.033104070572097154,-3.67222698466192,-1.9593460605565112,-0.993064002840783,-0.03560375269402671,0.0023518823657022138
2108.764,0.08381587394165406,-0.29994168676806954,0.7136189514076458,-1.9676497401243989,-1.6219816872483221,-0.7144271269506701,0.03332789854191323,-3.663283271910938,-1.965076680649548,-0.9906727133303315,-0.0352876702302338,0.0023561592806465915
2108.776,0.08379031282332197,-0.30597087199264017,0.720355137317779,-1.968704547000284,-1.6215644347464018,-0.714307054695376,0.033573869297459875,-3.6533453885684555,-1.971418105494346,-0.9880436852630504,-0.03492608561104504,0.002361055857128356
2108.788,0.08376148080090766,-0.3127097158473182,0.7278147710178974,-1.9698170052071253,-1.6210946513779794,-0.714171733945939,0.0338395189451715,-3.6425069648718957,-1.9783002148242814,-0.9852108596508514,-0.034519002910672975,0.002366569664717113
2108.7999999999997,0.0837293597902887,-0.32014246504837907,0.7359576821202133,-1.9709627123669815,-1.6205723513652295,-0.7140211220722534,0.03412232401767751,-3.6308587407947743,-1.9856563798104614,-0.9822075312566614,-0.03406642693928471,0.002372697929718553
2108.812,0.0836939295890865,-0.3282525625845274,0.7447412918456092,-1.9721156631483048,-1.6199975505328048,-0.7138551717478157,0.03441973487692711,-3.6184857890458826,-1.993425729214296,-0.9790654453757999,-0.03356836324021458,0.0023794375398990646
2108.824,0.08365516784575085,-0.3370228475388837,0.7541210543595019,-1.9732484907993646,-1.6193702663111278,-0.7136738309737707,0.034729199153220126,-3.6054653097261813,-2.0015548975404944,-0.9758140936269994,-0.03302481808827657,0.0023867850205933254
2108.836,0.08361305002512234,-0.3464357372756748,0.7640508631907562,-1.9743326914018278,-1.61869051773989,-0.7134770431057094,0.03504817515174351,-3.5918650161445784,-2.009999238990353,-0.9724802151364167,-0.032435798486312804,0.002394736528356936
2108.848,0.08356754937034883,-0.35647338833836173,0.77448341534153,-1.975338827105614,-1.6179583254717294,-0.7132647468832936,0.03537413575155265,-3.5777420854313835,-2.0187235313627965,-0.9690874940308353,-0.03180131217228826,0.0024032878360514326
2108.86,0.08351863686101729,-0.36711783367115913,0.7853705284470124,-1.9762367060919788,-1.6171737117760348,-0.7130368764628434,0.0357045637177856,-3.5631426142429787,-2.0277022232702153,-0.9656564328974458,-0.03112136762856454,0.0024124343139843994
2108.872,0.0834662811673481,-0.37835109490364704,0.7966634088016882,-1.9769955383416882,-1.616336700542833,-0.7127933614530022,0.036036939602088994,-3.548101499433276,-2.036919295836592,-0.9622043749884551,-0.030395974107486647,0.0024221709133950622
2108.884,0.08341045555823222,-0.3901538092655734,0.8083114429341934,-1.9775840078532294,-1.6154474279173208,-0.7125341592307528,0.02085228677194662,-3.2652040136628044,-2.0244422548835903,-0.9241661406591629,-0.03210133336032999,0.0013535453742231152
2108.8959999999997,0.08335301852930396,-0.4021166290988374,0.8198901706953673,-1.9779619372777226,-1.6145359307816634,-0.7122679623269628,0.0022682366763245097,-2.939409239072823,-1.996609522798358,-0.884037523659887,-0.03435017826279678,6.203382086611988e-05
2108.908,0.08329537180599089,-0.41394675434855355,0.8311152251930053,-1.9781190575781453,-1.6136245942512346,-0.7120012911184457,0.002189267115723053,-2.9340818398288255,-1.9950367781239153,-0.8855347431451985,-0.03363564104497543,6.191959942777626e-05
2108.92,0.08323751427430469,-0.4256496310778548,0.8419988601473671,-1.9780621770968976,-1.612713418423347,-0.7117341465128302,0.0021127925835716286,-2.928501243656256,-1.9937956415181441,-0.8869616009458605,-0.03292116881316769,6.180435924895686e-05
2108.932,0.08317944480359879,-0.4372302071376968,0.8525522977620141,-1.9777975708570352,-1.611802403399965,-0.7114665293917879,0.0020384906078670514,-2.9226914031846682,-1.9928607898257964,-0.8883257921725497,-0.032206763778471724,6.168808580165838e-05
2108.944,0.08312116225329576,-0.4486929843234906,0.8627858393837697,-1.9773310390768746,-1.6108915492800513,-0.7111984406449086,0.001966078355095377,-2.9166731861333695,-1.992209780955629,-0.8896339836670363,-0.03149242810194284,6.157076239849147e-05
2108.956,0.0830626654727743,-0.46004206280462245,0.872708960683813,-1.9766679579215403,-1.6099808561595292,-0.7109298811698084,0.001895306854833157,-2.9104648650784632,-1.9918226009117108,-0.8908919769432502,-0.0307781639024559,6.145237683219309e-05
2108.968,0.08300395330125478,-0.47128117980115114,0.882330394507717,-1.975813323676265,-1.609070324131248,-0.7106608518722499,0.0018259562307062782,-2.904082518070092,-1.9916812924167255,-0.8921048413611425,-0.030063973263509708,6.133291146598667e-05
2108.98,0.08294502456768363,-0.48241374339637577,0.8916582032944907,-1.9747717913528344,-1.6081599532849404,-0.710391353666254,0.0017578317398597445,-2.8975403583319657,-1.991769648526955,-0.8932770236306674,-0.029349858239704738,6.121235277731933e-05
2108.9919999999997,0.08288587809061618,-0.4934428622163294,0.9006998426274369,-1.9735477085609103,-1.6072497437071878,-0.7101213874742225,0.001690760465037596,-2.8908510071735596,-1.992072958416945,-0.894412438363661,-0.028635820861327765,6.109068418761588e-05
2109.004,0.08282651267809829,-0.5043713715810725,0.9094622172096398,-1.9721451453321928,-1.6063396954813793,-0.7098509542270532,0.0016245885351508149,-2.884025721112138,-1.9925777952699568,-0.8955145433627609,-0.027921863137433934,6.0967890648348985e-05
2109.016,0.08276692712754641,-0.515201856630922,0.9179517303393104,-1.970567920469497,-1.605429808687676,-0.709580054864265,0.0015591787830121645,-2.8770745818687296,-1.9932718384032135,-0.8965864025392203,-0.027207987059845513,6.084395350673265e-05
2109.028,0.08270712022562632,-0.525936672848295,0.9261743277838073,-1.9688196248988987,-1.6045200834029671,-0.7093086903341161,0.0014944087552750847,-2.8700066560651023,-1.9941437233766575,-0.8976307387391365,-0.026494194604658093,6.071886092745893e-05
2109.04,0.08264709074813024,-0.5365779643285791,0.9341355368073062,-1.9669036424264874,-1.6036105197008297,-0.7090368615937299,0.001430169022060862,-2.8628301300700585,-1.9951829150969487,-0.8986499783084057,-0.025780487735075453,6.059259365148236e-05
2109.0519999999997,0.0825868374598526,-0.547127680098292,0.9418405009891346,-1.9648231682385076,-1.6027011176514918,-0.7087645696092206,0.0013663617274429342,-2.855552424356675,-1.9963795999448215,-0.8996462888414858,-0.02506686840324421,6.046513682297769e-05
2109.064,0.08252635911446408,-0.5575875887333321,0.9492940113725912,-1.9625812254318893,-1.6017918773217854,-0.7084918153558197,0.001302899344168495,-2.8481802908674747,-1.997724593691734,-0.9006216112886936,-0.024353338551120884,6.033647095971775e-05
2109.076,0.08246565445438417,-0.5679592914924347,0.9565005344035504,-1.960180679819354,-1.6008827987751078,-0.7082185998180028,0.001239703599276146,-2.8407198962419957,-1.999209262603995,-0.9015776873766207,-0.023639900111975042,6.0206582835630154e-05
2109.0879999999997,0.08240472221065206,-0.5782442341496434,0.9634642370511676,-1.9576242532176096,-1.5999738820713771,-0.707944923989622,0.0011767045432651228,-2.833176893208269,-2.0008254556010843,-0.9025160831061422,-0.022926555010961226,6.0075451342629845e-05
2109.1,0.08234356110279602,-0.5884437176833561,0.9701890094469992,-1.9549145353973838,-1.5990651272669885,-0.7076707888740357,0.0011138397385162628,-2.825556482036997,-2.0025654457415882,-0.9034382089610195,-0.022213305166993512,5.994306309343824e-05
2109.112,0.08228216983870089,-0.5985589079575266,0.9766784853318538,-1.9520539948490327,-1.5981565344147732,-0.7073961954842432,0.0010510535517350354,-2.8178634636063165,-2.0044218795772846,-0.9043453373494099,-0.021500152492346016,5.980939573084211e-05
2109.124,0.08222054711447394,-0.6085908445120394,0.9829360605600794,-1.949044988496409,-1.597248103563948,-0.7071211448430201,0.0009882965286984841,-2.810102285362045,-2.006387733219556,-0.9052386176975669,-0.020787098893716403,5.967443602664019e-05
2109.136,0.08215869161430917,-0.6185404485635644,0.9889649098774709,-1.9458897704738716,-1.5963398347600775,-0.7068456379830534,0.0009255248478201326,-2.802277081238166,-2.0084562741036307,-0.9061190895621515,-0.02007414627323901,5.9538163299087785e-05
2109.15,0.08208623088901841,-0.6300453358447626,0.995713433276491,-1.9420267632533887,-1.5952803926872114,-0.7065236380949784,0.0008522213587226495,-2.7930718839830697,-2.010990732269396,-0.9071313687594386,-0.019242498371011666,5.9377494429736754e-05
2109.16,0.0820342769625472,-0.6381957955791355,1.0003481142804982,-1.939149248898227,-1.5945237834568902,-0.7062932597880325,0.0007997875092697587,-2.7864497676762423,-2.012875748147965,-0.9078452837492255,-0.01864855154902062,5.926160628528112e-05
2109.172,0.08197171511852311,-0.6479028519962142,1.0057078437350122,-1.9355680074502706,-1.593616001030001,-0.7060163905691716,0.0007367582374239704,-2.778454649934511,-2.0152143932084905,-0.908692631533439,-0.01793591322696193,5.912128599924907e-05
2109.1839999999997,0.08190891511342287,-0.6575302145491486,1.0108496201720785,-1.9318486909654613,-1.5927083807948232,-0.70573906936424,0.0006735863401400753,-2.7704095395260353,-2.017631101424921,-0.909530438147103,-0.017223383445961356,5.897957717808639e-05
2109.196,0.08184587556977205,-0.6670783107823812,1.0157757159161738,-1.9279931448076333,-1.591800922777936,-0.7054612972576022,0.000610249797905214,-2.7623174446351193,-2.0201201727136207,-0.910359338979385,-0.01651096408770684,5.8836462089866646e-05
2109.208,0.08178308427665468,-0.6764747376216178,1.0204527129446181,-1.9240344393946156,-1.5909006260603213,-0.7051852237636478,-0.03564156294300637,-2.2348374522702037,-1.8862579603439715,-0.86736726798855,-0.023342966919614787,-0.0024086693089388094
2109.22,0.08172329093746006,-0.6853179463734946,1.0246973686184702,-1.920157788110643,-1.5900466227741736,-0.704922892541008,-0.03576932796108405,-2.2328431712858605,-1.881797399184883,-0.8708260199102827,-0.022743609474531565,-0.002418389401954638
2109.232,0.08166695948503157,-0.6935567948355743,1.0285130403516474,-1.9164124947204417,-1.5892450016659065,-0.7046762506512856,-0.03587422001372165,-2.2309249581775337,-1.8777161318180164,-0.874018104232069,-0.022181039050407258,-0.002427485050344368
2109.2439999999997,0.08161412623733327,-0.7012033508758195,1.0319328726975368,-1.9128196077979478,-1.588495737961999,-0.7044453671738626,-0.03595891608482351,-2.229100899555633,-1.8739849525851275,-0.876955851812989,-0.021655233570923905,-0.002435962175403987
2109.256,0.08156482542998815,-0.7082688396115335,1.0349874429498562,-1.909398453123015,-1.5877988084991506,-0.7042303064620077,-0.03602593855647399,-2.2273845467137705,-1.8705796316488157,-0.8796500520016384,-0.021166171942066294,-0.0024438264226332874
2109.268,0.08151908916145204,-0.7147636695028687,1.037704869275322,-1.9061667157451723,-1.5871541917259613,-0.7040311281858873,-0.03607765282059235,-2.225785790820624,-1.8674801270231962,-0.8821101604541252,-0.020713834149530302,-0.00245108315346161
2109.2799999999997,0.08147694734110052,-0.7206974509041659,1.0401109011540057,-1.9031405118952218,-1.58656186770423,-0.703847887373338,-0.03611626425357445,-2.224311593815008,-1.8646699225288426,-0.8843444668401285,-0.020298201343614358,-0.0024577374161208437
2109.292,0.08143842764041255,-0.7260790086406921,1.0422289949719465,-1.900334452021725,-1.5860218181098986,-0.7036806344482711,-0.03614381487910493,-2.2229666009563926,-1.8621354686258775,-0.8863602309294586,-0.01991925591337423,-0.002463793929300439
2109.304,0.08140355544742649,-0.7309163899177866,1.0440803771094815,-1.897761695988887,-1.5855340262337148,-0.7035294152665337,-0.036162179947454354,-2.2217536554774124,-1.8598657083638157,-0.8881637935711264,-0.019576981550033953,-0.002469257067301597
2109.316,0.0813723538246329,-0.7352168686547191,1.0456840964630103,-1.895434001281325,-1.585098476981659,-0.7033942711491123,-0.03617306458654624,-2.220674231399915,-1.857851674694218,-0.88976066755668,-0.019271363301536008,-0.002474130835573186
2109.328,0.08134484347045846,-0.7389869471568513,1.047057068006237,-1.8933617649082004,-1.5847151568751778,-0.7032752389125267,-0.036178000625573484,-2.2197287972284587,-1.8560861484382059,-0.8911556122067731,-0.01900238761754184,-0.0024784188603813907
2109.3399999999997,0.08132104268448252,-0.7422323558895885,1.048214108722945,-1.8915540595753653,-1.5843840540512755,-0.703172350896315,-0.0361783436581777,-2.2189171205971054,-1.8545633686164786,-0.8923526946073994,-0.018770042387172916,-0.002482124374436393
2109.352,0.0813009673365151,-0.7449580519900856,1.0491679670143301,-1.890018664592593,-1.5841051582624992,-0.703085634987481,-0.036175270384857475,-2.2182385218566045,-1.8532787886574857,-0.8933553397415405,-0.01857431696844091,-0.002485250200202494
2109.364,0.08128463083965215,-0.7471682170431952,1.0499293464899075,-1.8887620918984975,-1.58387846087685,-0.7030151146418193,-0.036169776249540854,-2.217692082948854,-1.8522288734853178,-0.894166371219677,-0.018415202211526014,-0.002487798741058319
2109.3759999999997,0.08127204412740857,-0.748866254552846,1.0505069248841767,-1.8877896075141374,-1.5837039548776577,-0.7029608089020174,-0.03616267337884753,-2.217276816554388,-1.8514109336400326,-0.8947880438818161,-0.01829269047497756,-0.0024897719701926974
2109.388,0.08126321563501558,-0.7500547874560626,1.0509073686953434,-1.8871052486744464,-1.5835816348634486,-0.7029227324124783,-0.0361545888222437,-2.216991799396164,-1.8508229934776201,-0.8952220692399872,-0.018206775634446337,-0.0024911714248581564
2109.4,0.08125815128495287,-0.7507356559514777,1.0511353440124875,-1.886711836832042,-1.5835114970478124,-0.7029008954307852,-0.036145963083257876,-2.216836272665699,-1.8504636912783285,-0.8954696344459382,-0.0181574530877029,-0.0024919981957663177
2109.412,0.08125844478395439,-0.750918503356754,1.0511978180536203,-1.8866073895112825,-1.583492996259812,-0.7028940732099329,0.1710190401852304,-2.844858620566205,-1.9919492478347651,-0.9307668691238198,0.020652825811978578,0.009419280672557474
2109.424,0.08134682171580582,-0.7510503653384495,1.051318988173526,-1.886605276560478,-1.5834978934553696,-0.7028382554902901,0.1854070897143299,-2.888388487640008,-2.0017801035299767,-0.9332021070704607,0.023337450527776617,0.010247620941077614
2109.4359999999997,0.08156995497576672,-0.7513832892499739,1.0516249173713161,-1.8865999418018333,-1.583510257849409,-0.7026973274281065,0.18534880055966174,-2.887966675910189,-2.0017185234177286,-0.9331635387902802,0.02330420662042956,0.010247633172923005
2109.448,0.0819278445638371,-0.751917275091329,1.0521156056469902,-1.8865913852353486,-1.58353008944193,-0.702471289023384,0.18525522117940235,-2.887289820514468,-2.001619730453851,-0.9331016800750636,0.02325085917452373,0.010247652807535075
2109.46,0.08242049048001696,-0.752652322862513,1.0527910530005484,-1.8865796068610248,-1.5835573882329337,-0.7021601402761206,0.1851262296884253,-2.8863575043571625,-2.0014836928498556,-0.933016533800035,0.023177371180133126,0.010247679866647342
2109.4719999999998,0.0830478927243063,-0.7535884325635269,1.053651259431991,-1.88656460667886,-1.5835921542224183,-0.7017638811863174,0.18496165885891572,-2.885169153825358,-2.0013103670585908,-0.9329081040628019,0.02308369177223793,0.010247714380176534
2109.484,0.08381005129670512,-0.7547256041943715,1.0546962249413172,-1.886546384688855,-1.5836343874103855,-0.7012825117539743,0.18476129664463486,-2.883724039295605,-2.001099697974604,-0.9327763963162072,0.022969756307192907,0.010247756386222408
2109.496,0.0847069661972134,-0.756063837755045,1.0559259495285278,-1.886524940891011,-1.5836840877968346,-0.7007160319790904,0.18452488684951665,-2.8820212757804837,-2.000851619189381,-0.9326214175374433,0.022835486460356245,0.010247805931067519
2109.508,0.08573863742583117,-0.7576031332455484,1.0573404331936227,-1.886500275285326,-1.5837412553817654,-0.7000644418616666,0.1842521299412393,-2.880059823716014,-2.000566053301597,-0.932443176433431,0.022680790345025147,0.010247863069177044
2109.52,0.08690506498255841,-0.7593434906658816,1.0589396759366014,-1.8864723878718017,-1.5838058901651788,-0.699327741401703,0.1839426840105558,-2.8778384898910128,-2.000242912282394,-0.9322416836823915,0.022505562652892393,0.010247927863198376
2109.5319999999997,0.08820624886739514,-0.7612849100160446,1.0607236777574645,-1.8864412786504374,-1.5838779921470731,-0.6985059305991994,0.18359616587724947,-2.875355928519814,-1.9998820978958722,-0.9320169522115623,0.02230968481625717,0.01024800038396112
2109.544,0.08964218908034134,-0.7634273912960365,1.0626924386562115,-1.886406947621233,-1.5839575613274501,-0.6975990094541551,0.18321215234369023,-2.8726106424598057,-1.9994835021748134,-0.9317689975109896,0.022093025192249382,0.010248080710476375
2109.556,0.09121288562139702,-0.7657709345058592,1.0648459586328427,-1.8863693947841886,-1.584044597706308,-0.6966069779665709,0.18279018159703558,-2.869600984575593,-1.9990470079518248,-0.9314978379833075,0.021855439269386982,0.010248168929935953
2109.5679999999998,0.09291833849056218,-0.7683155396455117,1.067184237687358,-1.8863286201393041,-1.5841391012836485,-0.6955298361364468,0.18232975476120558,-2.8663251592517676,-1.998572489446008,-0.9312034953294241,0.02159676989678144,0.010248265137713175
2109.58,0.09475854768783681,-0.7710612067149931,1.0697072758197574,-1.8862846236865796,-1.5842410720594708,-0.6943675839637828,0.18183033759975473,-2.8627812240563966,-1.998059812905291,-0.9308859949699948,0.02131684753637444,0.010248369437361104
2109.592,0.09673351321322092,-0.7740079357143053,1.072415073030041,-1.8862374054260158,-1.5843505100337758,-0.6931202214485781,0.181291362370831,-2.8589670915576466,-1.9975088373045662,-0.9305453665025692,0.02101549053858615,0.01024848194061191
2109.604,0.0988432350667145,-0.7771557266434463,1.0753076293182087,-1.886186965357611,-1.5844674152065616,-0.6917877485908335,0.18071222983537527,-2.854880531296141,-1.9969194150997884,-0.9301816441942594,0.020692505441813912,0.010248602767377567
2109.616,0.10108771324831757,-0.7805045795024173,1.0783849446842606,-1.8861333034813672,-1.5845917875778301,-0.690370165390549,0.1800923114196931,-2.850519171915813,-1.996291393038156,-0.9297948675097842,0.0203476872962202,0.010248732045747805
2109.6279999999997,0.10346694775803011,-0.784054494291218,1.0816470191281966,-1.8860764197972824,-1.5847236271475795,-0.6888674718477246,0.17943095153346764,-2.845880503456321,-1.9956246130245532,-0.929385081674695,0.01998082001230717,0.010248869911989334
2109.64,0.10598093859585213,-0.7878054710098485,1.0850938526500167,-1.8860163143053583,-1.5848629339158116,-0.6872796679623594,0.17872747004419262,-2.8409618798102207,-1.994918913044354,-0.9289523382735968,0.019591676734762833,0.010249016510546338
2109.652,0.10862968576178363,-0.7917575096583089,1.0887254452497208,-1.8859529870055942,-1.5850097078825254,-0.6856067537344543,0.17798116490887703,-2.835760521348371,-1.9941741281427416,-0.9284966958831153,0.019180020242128296,0.010249171994038062
2109.6639999999998,0.1114131892558246,-0.7959106102365991,1.092541796927309,-1.88588643789799,-1.5851639490477218,-0.6838487291640094,0.17719131496371476,-2.830273517717236,-1.993390091460679,-0.9280182207393942,0.01874560337281915,0.01024933652325859
2109.676,0.11433144907797504,-0.8002647727447192,1.0965429076827815,-1.8858166669825458,-1.5853256574113992,-0.6820055942510246,0.1763571828722221,-2.8244978308119792,-1.9925666353275944,-0.927516987439797,0.01828816947808713,0.010249510267175603
2109.688,0.11738446522823498,-0.8048199971826691,1.100728777516138,-1.8857436742592615,-1.5854948329735583,-0.680077348995499,0.175478018232104,-2.8184302979294547,-1.9917035924108977,-0.9269930796785334,0.01780745290249797,0.01024969340292927
2109.7,0.12057223770660438,-0.8095762835504479,1.1050994064273787,-1.885667459728138,-1.5856714757342,-0.6780639933974335,0.17455306084084668,-2.812067635105483,-1.990800796922434,-0.926446591015863,0.017303179492547383,0.010249886115830883
2109.712,0.12389476651308326,-0.8145336318480574,1.1096547944165036,-1.8855880233891735,-1.5858555856933236,-0.6759655274568281,0.17358154411968194,-2.8054064406409127,-1.9898580858818273,-0.9258776256804717,0.016775067134023373,0.010250088599361714
2109.7239999999997,0.1273520516476716,-0.8196920420754958,1.1143949414835126,-1.88550536524237,-1.586047162850929,-0.6737819511736829,0.17256269869527363,-2.7984431988213347,-1.9888753004368267,-0.9252862994046319,0.016222826318753884,0.010250301055171471
2109.736,0.13094409311036945,-0.825051514232765,1.1193198476284056,-1.8854194852877253,-1.586246207207016,-0.6715132645479969,0.17149575613799417,-2.7911742838354376,-1.9878522872405744,-0.9246727402916615,0.015646160741381674,0.010250523693077095
2109.748,0.1346708909011768,-0.8306120483198631,1.1244295128511828,-1.8853303835252415,-1.5864527187615858,-0.669159467579771,0.17037995285524565,-2.7835959638972767,-1.986788899885786,-0.9240370897151964,0.015044767926815309,0.010250756731059638
2109.7599999999998,0.13853244502009357,-0.8363736443367911,1.1297239371518442,-1.8852380599549177,-1.5866666975146364,-0.6667205602690052,0.16921453413777077,-2.7757044055779723,-1.9856850003957185,-0.9233795032497152,0.014418339889015721,0.0102510003952655
2109.772,0.14252875546711985,-0.8423363022835488,1.1352031205303894,-1.8851425145767537,-1.5868881434661697,-0.6641965426156995,0.16799875835632316,-2.7674956783525215,-1.9845404607717951,-0.9227001516317104,0.013766563821761774,0.010251254920001602
2109.784,0.1466598222422556,-0.8485000221601364,1.1408670629868192,-1.8850437473907498,-1.5871170566161847,-0.661587414619853,0.16673190130548052,-2.758965759367715,-1.9833551645976972,-0.9219992217508616,0.013089122822069543,0.010251520547734868
2109.796,0.1509256453455008,-0.8548648039665538,1.1467157645211328,-1.8849417583969057,-1.5873534369646816,-0.6588931762814667,0.1654132606907027,-2.7501105384374114,-1.9821290086997312,-0.9212769176705189,0.012385696646896288,0.01025179752908986
2109.808,0.1553262247768555,-0.8614306477028011,1.1527492251333304,-1.8848365475952225,-1.5875972845116602,-0.6561138276005405,0.16404216075402933,-2.740925823271368,-1.9808619048629954,-0.9205334616766518,0.011655962503786144,0.010252086122846485
2109.8199999999997,0.15986156053631967,-0.8681975533688782,1.1589674448234124,-1.8847281149856983,-1.5878485992571214,-0.6532493685770735,0.16261795703304543,-2.731407344944718,-1.979553781603247,-0.9197690953545564,0.010899595876081197,0.01025238659593796
2109.832,0.16453165262389335,-0.8751655209647842,1.1653704235913784,-1.8846164605683349,-1.5881073812010635,-0.6502997992110675,0.1611400412468899,-2.7215507636144203,-1.978204585993713,-0.9189840806922804,0.01011627138332425,0.010252699223447044
2109.844,0.16933650103957648,-0.8823345504905209,1.1719581614372288,-1.8845015843431305,-1.5883736303434883,-0.6472651195025207,0.15960784630223845,-2.7113516744904107,-1.9768142855466382,-0.9181787012099382,0.00930566367743769,0.010253024288604601
2109.8559999999998,0.1742761057833691,-0.8897046419460866,1.178730658360963,-1.884383486310087,-1.588647346684395,-0.6441453294514341,0.1580208514112059,-2.700805614068185,-1.9753828701486449,-0.9173532631137297,0.008467448375276944,0.010253362082788476
2109.868,0.17935046685527117,-0.8972757953314829,1.1856879143625814,-1.8842621664692034,-1.5889285302237832,-0.6409404290578067,0.15637858731216692,-2.689908066630987,-1.9739103540495522,-0.9165080964737,0.007601303028087437,0.010253712905514908
2109.88,0.18455958425528274,-0.9050480106467083,1.1928299294420839,-1.8841376248204798,-1.5892171809616533,-0.6376504183216403,0.15468064158338637,-2.6786544710287576,-1.9723967779035165,-0.9156435564238786,0.00670690812840097,0.01025407706444063
2109.892,0.1899034579834038,-0.9130212878917634,1.2001567035994705,-1.884009861363916,-1.5895132988980052,-0.6342752972429331,0.15292666403831107,-2.6670402277424605,-1.9708422108619572,-0.9147600243836826,0.005783948154849432,0.010254454875359557
2109.904,0.1953820880396343,-0.9211956270666484,1.2076682368347413,-1.8838788760995122,-1.5898168840328397,-0.630815065821686,0.15111637219014878,-2.655060706241342,-1.9692467527169386,-0.9138579092990501,0.004832112655344315,0.01025484666219325
2109.9159999999997,0.2009954744239743,-0.9295710281713632,1.2153645291478963,-1.8837446690272683,-1.590127936366156,-0.6272697240578982,0.14924955677221738,-2.642711252642052,-1.967610536094183,-0.9129376489019775,0.0038510973690274804,0.010255252756995436
