moelyaakoubi/RealTimeDataUR/Scripts/robot_data.csv
timestamp target_q_0 target_q_1 target_q_2 target_q_3 target_q_4 target_q_5 target_qd_0 target_qd_1 target_qd_2 target_qd_3 target_qd_4 target_qd_5 target_qdd_0 target_qdd_1 target_qdd_2 target_qdd_3 target_qdd_4 target_qdd_5 target_current_0 target_current_1 target_current_2 target_current_3 target_current_4 target_current_5 target_moment_0 target_moment_1 target_moment_2 target_moment_3 target_moment_4 target_moment_5 actual_q_0 actual_q_1 actual_q_2 actual_q_3 actual_q_4 actual_q_5 actual_qd_0 actual_qd_1 actual_qd_2 actual_qd_3 actual_qd_4 actual_qd_5 actual_current_0 actual_current_1 actual_current_2 actual_current_3 actual_current_4 actual_current_5 joint_control_output_0 joint_control_output_1 joint_control_output_2 joint_control_output_3 joint_control_output_4 joint_control_output_5 actual_TCP_pose_0 actual_TCP_pose_1 actual_TCP_pose_2 actual_TCP_pose_3 actual_TCP_pose_4 actual_TCP_pose_5 actual_TCP_speed_0 actual_TCP_speed_1 actual_TCP_speed_2 actual_TCP_speed_3 actual_TCP_speed_4 actual_TCP_speed_5 actual_TCP_force_0 actual_TCP_force_1 actual_TCP_force_2 actual_TCP_force_3 actual_TCP_force_4 actual_TCP_force_5 target_TCP_pose_0 target_TCP_pose_1 target_TCP_pose_2 target_TCP_pose_3 target_TCP_pose_4 target_TCP_pose_5 target_TCP_speed_0 target_TCP_speed_1 target_TCP_speed_2 target_TCP_speed_3 target_TCP_speed_4 target_TCP_speed_5 actual_digital_input_bits joint_temperatures_0 joint_temperatures_1 joint_temperatures_2 joint_temperatures_3 joint_temperatures_4 joint_temperatures_5 actual_execution_time robot_mode joint_mode_0 joint_mode_1 joint_mode_2 joint_mode_3 joint_mode_4 joint_mode_5 safety_status actual_tool_accelerometer_0 actual_tool_accelerometer_1 actual_tool_accelerometer_2 speed_scaling target_speed_fraction actual_momentum actual_main_voltage actual_robot_voltage actual_robot_current actual_joint_voltage_0 actual_joint_voltage_1 actual_joint_voltage_2 actual_joint_voltage_3 actual_joint_voltage_4 actual_joint_voltage_5 actual_digital_output_bits runtime_state joint_position_deviation_ratio
703.7139999999999 -0.6999999999999993 -1.5700000000000003 1.5700000000000003 -1.5700000000000003 -1.5700000000000003 0.0 0.0 0.0 0.0 0.0 0.0 0.0 0.0 0.0 0.0 0.0 0.0 0.0 9.161499119945228e-20 -1.4861993556273867 -2.075440237995849 -0.920691698351798 0.0006252407051619589 0.0 9.952649537947217e-19 -16.145415871819452 -16.13021775769184 -3.491025381691843 0.0023707514418722163 0.0 -0.6999999999999993 -1.5700000000000003 1.5700000000000003 -1.5700000000000003 -1.5700000000000003 0.0 0.0 0.0 0.0 0.0 0.0 0.0 9.161499119945228e-20 -1.4861993556273867 -2.075440237995849 -0.920691698351798 0.0006252407051619589 0.0 9.161499119945228e-20 -1.4861993556273867 -2.075440237995849 -0.920691698351798 0.0006252407051619589 0.0 -0.3129078330369898 0.0921202046453513 0.3032320146703553 2.8475298659302553 1.3245874220157179 -0.0006063792778784996 0.0 0.0 0.0 0.0 0.0 0.0 0.0 0.0 0.0 0.0 0.0 0.0 -0.3129078330369898 0.0921202046453513 0.3032320146703553 2.8475298659302553 1.3245874220157179 -0.0006063792778784996 0.0 0.0 0.0 0.0 0.0 0.0 0 25.5 25.0 24.5 24.0 23.5 23.0 0.13928100000000002 7 253 253 253 253 253 253 1 -0.007819923804226818 0.007819930313508047 -9.81999377278222 0.0 1.0 0.0 48.0 48.0 0.0 0.0 0.0 0.0 0.0 0.0 0.0 0 1 0.0
703.722 -0.6999999999999993 -1.5700000000000003 1.5700000000000003 -1.5700000000000003 -1.5700000000000003 0.0 0.0 0.0 0.0 0.0 0.0 0.0 0.0 0.0 0.0 0.0 0.0 0.0 9.161499119945228e-20 -1.4861993556273867 -2.075440237995849 -0.920691698351798 0.0006252407051619589 0.0 9.952649537947217e-19 -16.145415871819452 -16.13021775769184 -3.491025381691843 0.0023707514418722163 0.0 -0.6999999999999993 -1.5700000000000003 1.5700000000000003 -1.5700000000000003 -1.5700000000000003 0.0 0.0 0.0 0.0 0.0 0.0 0.0 9.161499119945228e-20 -1.4861993556273867 -2.075440237995849 -0.920691698351798 0.0006252407051619589 0.0 9.161499119945228e-20 -1.4861993556273867 -2.075440237995849 -0.920691698351798 0.0006252407051619589 0.0 -0.3129078330369898 0.0921202046453513 0.3032320146703553 2.8475298659302553 1.3245874220157179 -0.0006063792778784996 0.0 0.0 0.0 0.0 0.0 0.0 0.0 0.0 0.0 0.0 0.0 0.0 -0.3129078330369898 0.0921202046453513 0.3032320146703553 2.8475298659302553 1.3245874220157179 -0.0006063792778784996 0.0 0.0 0.0 0.0 0.0 0.0 0 25.5 25.0 24.5 24.0 23.5 23.0 0.152288 7 253 253 253 253 253 253 1 -0.007819923804226818 0.007819930313508047 -9.81999377278222 0.0 1.0 0.0 48.0 48.0 0.0 0.0 0.0 0.0 0.0 0.0 0.0 0 1 0.0
703.73 -0.6999999999999993 -1.5700000000000003 1.5700000000000003 -1.5700000000000003 -1.5700000000000003 0.0 0.0 0.0 0.0 0.0 0.0 0.0 0.0 0.0 0.0 0.0 0.0 0.0 9.161499119945228e-20 -1.4861993556273867 -2.075440237995849 -0.920691698351798 0.0006252407051619589 0.0 9.952649537947217e-19 -16.145415871819452 -16.13021775769184 -3.491025381691843 0.0023707514418722163 0.0 -0.6999999999999993 -1.5700000000000003 1.5700000000000003 -1.5700000000000003 -1.5700000000000003 0.0 0.0 0.0 0.0 0.0 0.0 0.0 9.161499119945228e-20 -1.4861993556273867 -2.075440237995849 -0.920691698351798 0.0006252407051619589 0.0 9.161499119945228e-20 -1.4861993556273867 -2.075440237995849 -0.920691698351798 0.0006252407051619589 0.0 -0.3129078330369898 0.0921202046453513 0.3032320146703553 2.8475298659302553 1.3245874220157179 -0.0006063792778784996 0.0 0.0 0.0 0.0 0.0 0.0 0.0 0.0 0.0 0.0 0.0 0.0 -0.3129078330369898 0.0921202046453513 0.3032320146703553 2.8475298659302553 1.3245874220157179 -0.0006063792778784996 0.0 0.0 0.0 0.0 0.0 0.0 0 25.5 25.0 24.5 24.0 23.5 23.0 0.177204 7 253 253 253 253 253 253 1 -0.007819923804226818 0.007819930313508047 -9.81999377278222 0.0 1.0 0.0 48.0 48.0 0.0 0.0 0.0 0.0 0.0 0.0 0.0 0 1 0.0
703.7379999999999 -0.6999999999999993 -1.5700000000000003 1.5700000000000003 -1.5700000000000003 -1.5700000000000003 0.0 0.0 0.0 0.0 0.0 0.0 0.0 0.0 0.0 0.0 0.0 0.0 0.0 9.161499119945228e-20 -1.4861993556273867 -2.075440237995849 -0.920691698351798 0.0006252407051619589 0.0 9.952649537947217e-19 -16.145415871819452 -16.13021775769184 -3.491025381691843 0.0023707514418722163 0.0 -0.6999999999999993 -1.5700000000000003 1.5700000000000003 -1.5700000000000003 -1.5700000000000003 0.0 0.0 0.0 0.0 0.0 0.0 0.0 9.161499119945228e-20 -1.4861993556273867 -2.075440237995849 -0.920691698351798 0.0006252407051619589 0.0 9.161499119945228e-20 -1.4861993556273867 -2.075440237995849 -0.920691698351798 0.0006252407051619589 0.0 -0.3129078330369898 0.0921202046453513 0.3032320146703553 2.8475298659302553 1.3245874220157179 -0.0006063792778784996 0.0 0.0 0.0 0.0 0.0 0.0 0.0 0.0 0.0 0.0 0.0 0.0 -0.3129078330369898 0.0921202046453513 0.3032320146703553 2.8475298659302553 1.3245874220157179 -0.0006063792778784996 0.0 0.0 0.0 0.0 0.0 0.0 0 25.5 25.0 24.5 24.0 23.5 23.0 0.214881 7 253 253 253 253 253 253 1 -0.007819923804226818 0.007819930313508047 -9.81999377278222 0.0 1.0 0.0 48.0 48.0 0.0 0.0 0.0 0.0 0.0 0.0 0.0 0 1 0.0
703.746 -0.6999999999999993 -1.5700000000000003 1.5700000000000003 -1.5700000000000003 -1.5700000000000003 0.0 0.0 0.0 0.0 0.0 0.0 0.0 0.0 0.0 0.0 0.0 0.0 0.0 9.161499119945228e-20 -1.4861993556273867 -2.075440237995849 -0.920691698351798 0.0006252407051619589 0.0 9.952649537947217e-19 -16.145415871819452 -16.13021775769184 -3.491025381691843 0.0023707514418722163 0.0 -0.6999999999999993 -1.5700000000000003 1.5700000000000003 -1.5700000000000003 -1.5700000000000003 0.0 0.0 0.0 0.0 0.0 0.0 0.0 9.161499119945228e-20 -1.4861993556273867 -2.075440237995849 -0.920691698351798 0.0006252407051619589 0.0 9.161499119945228e-20 -1.4861993556273867 -2.075440237995849 -0.920691698351798 0.0006252407051619589 0.0 -0.3129078330369898 0.0921202046453513 0.3032320146703553 2.8475298659302553 1.3245874220157179 -0.0006063792778784996 0.0 0.0 0.0 0.0 0.0 0.0 0.0 0.0 0.0 0.0 0.0 0.0 -0.3129078330369898 0.0921202046453513 0.3032320146703553 2.8475298659302553 1.3245874220157179 -0.0006063792778784996 0.0 0.0 0.0 0.0 0.0 0.0 0 25.5 25.0 24.5 24.0 23.5 23.0 0.156871 7 253 253 253 253 253 253 1 -0.007819923804226818 0.007819930313508047 -9.81999377278222 0.0 1.0 0.0 48.0 48.0 0.0 0.0 0.0 0.0 0.0 0.0 0.0 0 1 0.0
703.754 -0.6999999999999993 -1.5700000000000003 1.5700000000000003 -1.5700000000000003 -1.5700000000000003 0.0 0.0 0.0 0.0 0.0 0.0 0.0 0.0 0.0 0.0 0.0 0.0 0.0 9.161499119945228e-20 -1.4861993556273867 -2.075440237995849 -0.920691698351798 0.0006252407051619589 0.0 9.952649537947217e-19 -16.145415871819452 -16.13021775769184 -3.491025381691843 0.0023707514418722163 0.0 -0.6999999999999993 -1.5700000000000003 1.5700000000000003 -1.5700000000000003 -1.5700000000000003 0.0 0.0 0.0 0.0 0.0 0.0 0.0 9.161499119945228e-20 -1.4861993556273867 -2.075440237995849 -0.920691698351798 0.0006252407051619589 0.0 9.161499119945228e-20 -1.4861993556273867 -2.075440237995849 -0.920691698351798 0.0006252407051619589 0.0 -0.3129078330369898 0.0921202046453513 0.3032320146703553 2.8475298659302553 1.3245874220157179 -0.0006063792778784996 0.0 0.0 0.0 0.0 0.0 0.0 0.0 0.0 0.0 0.0 0.0 0.0 -0.3129078330369898 0.0921202046453513 0.3032320146703553 2.8475298659302553 1.3245874220157179 -0.0006063792778784996 0.0 0.0 0.0 0.0 0.0 0.0 0 25.5 25.0 24.5 24.0 23.5 23.0 0.221184 7 253 253 253 253 253 253 1 -0.007819923804226818 0.007819930313508047 -9.81999377278222 0.0 1.0 0.0 48.0 48.0 0.0 0.0 0.0 0.0 0.0 0.0 0.0 0 1 0.0
703.762 -0.6999999999999993 -1.5700000000000003 1.5700000000000003 -1.5700000000000003 -1.5700000000000003 0.0 0.0 0.0 0.0 0.0 0.0 0.0 0.0 0.0 0.0 0.0 0.0 0.0 9.161499119945228e-20 -1.4861993556273867 -2.075440237995849 -0.920691698351798 0.0006252407051619589 0.0 9.952649537947217e-19 -16.145415871819452 -16.13021775769184 -3.491025381691843 0.0023707514418722163 0.0 -0.6999999999999993 -1.5700000000000003 1.5700000000000003 -1.5700000000000003 -1.5700000000000003 0.0 0.0 0.0 0.0 0.0 0.0 0.0 9.161499119945228e-20 -1.4861993556273867 -2.075440237995849 -0.920691698351798 0.0006252407051619589 0.0 9.161499119945228e-20 -1.4861993556273867 -2.075440237995849 -0.920691698351798 0.0006252407051619589 0.0 -0.3129078330369898 0.0921202046453513 0.3032320146703553 2.8475298659302553 1.3245874220157179 -0.0006063792778784996 0.0 0.0 0.0 0.0 0.0 0.0 0.0 0.0 0.0 0.0 0.0 0.0 -0.3129078330369898 0.0921202046453513 0.3032320146703553 2.8475298659302553 1.3245874220157179 -0.0006063792778784996 0.0 0.0 0.0 0.0 0.0 0.0 0 25.5 25.0 24.5 24.0 23.5 23.0 0.134795 7 253 253 253 253 253 253 1 -0.007819923804226818 0.007819930313508047 -9.81999377278222 0.0 1.0 0.0 48.0 48.0 0.0 0.0 0.0 0.0 0.0 0.0 0.0 0 1 0.0
703.77 -0.6999999999999993 -1.5700000000000003 1.5700000000000003 -1.5700000000000003 -1.5700000000000003 0.0 0.0 0.0 0.0 0.0 0.0 0.0 0.0 0.0 0.0 0.0 0.0 0.0 9.161499119945228e-20 -1.4861993556273867 -2.075440237995849 -0.920691698351798 0.0006252407051619589 0.0 9.952649537947217e-19 -16.145415871819452 -16.13021775769184 -3.491025381691843 0.0023707514418722163 0.0 -0.6999999999999993 -1.5700000000000003 1.5700000000000003 -1.5700000000000003 -1.5700000000000003 0.0 0.0 0.0 0.0 0.0 0.0 0.0 9.161499119945228e-20 -1.4861993556273867 -2.075440237995849 -0.920691698351798 0.0006252407051619589 0.0 9.161499119945228e-20 -1.4861993556273867 -2.075440237995849 -0.920691698351798 0.0006252407051619589 0.0 -0.3129078330369898 0.0921202046453513 0.3032320146703553 2.8475298659302553 1.3245874220157179 -0.0006063792778784996 0.0 0.0 0.0 0.0 0.0 0.0 0.0 0.0 0.0 0.0 0.0 0.0 -0.3129078330369898 0.0921202046453513 0.3032320146703553 2.8475298659302553 1.3245874220157179 -0.0006063792778784996 0.0 0.0 0.0 0.0 0.0 0.0 0 25.5 25.0 24.5 24.0 23.5 23.0 0.138983 7 253 253 253 253 253 253 1 -0.007819923804226818 0.007819930313508047 -9.81999377278222 0.0 1.0 0.0 48.0 48.0 0.0 0.0 0.0 0.0 0.0 0.0 0.0 0 1 0.0
703.778 -0.6999999999999993 -1.5700000000000003 1.5700000000000003 -1.5700000000000003 -1.5700000000000003 0.0 0.0 0.0 0.0 0.0 0.0 0.0 0.0 0.0 0.0 0.0 0.0 0.0 9.161499119945228e-20 -1.4861993556273867 -2.075440237995849 -0.920691698351798 0.0006252407051619589 0.0 9.952649537947217e-19 -16.145415871819452 -16.13021775769184 -3.491025381691843 0.0023707514418722163 0.0 -0.6999999999999993 -1.5700000000000003 1.5700000000000003 -1.5700000000000003 -1.5700000000000003 0.0 0.0 0.0 0.0 0.0 0.0 0.0 9.161499119945228e-20 -1.4861993556273867 -2.075440237995849 -0.920691698351798 0.0006252407051619589 0.0 9.161499119945228e-20 -1.4861993556273867 -2.075440237995849 -0.920691698351798 0.0006252407051619589 0.0 -0.3129078330369898 0.0921202046453513 0.3032320146703553 2.8475298659302553 1.3245874220157179 -0.0006063792778784996 0.0 0.0 0.0 0.0 0.0 0.0 0.0 0.0 0.0 0.0 0.0 0.0 -0.3129078330369898 0.0921202046453513 0.3032320146703553 2.8475298659302553 1.3245874220157179 -0.0006063792778784996 0.0 0.0 0.0 0.0 0.0 0.0 0 25.5 25.0 24.5 24.0 23.5 23.0 0.13483099999999998 7 253 253 253 253 253 253 1 -0.007819923804226818 0.007819930313508047 -9.81999377278222 0.0 1.0 0.0 48.0 48.0 0.0 0.0 0.0 0.0 0.0 0.0 0.0 0 1 0.0
703.786 -0.6999999999999993 -1.5700000000000003 1.5700000000000003 -1.5700000000000003 -1.5700000000000003 0.0 0.0 0.0 0.0 0.0 0.0 0.0 0.0 0.0 0.0 0.0 0.0 0.0 9.161499119945228e-20 -1.4861993556273867 -2.075440237995849 -0.920691698351798 0.0006252407051619589 0.0 9.952649537947217e-19 -16.145415871819452 -16.13021775769184 -3.491025381691843 0.0023707514418722163 0.0 -0.6999999999999993 -1.5700000000000003 1.5700000000000003 -1.5700000000000003 -1.5700000000000003 0.0 0.0 0.0 0.0 0.0 0.0 0.0 9.161499119945228e-20 -1.4861993556273867 -2.075440237995849 -0.920691698351798 0.0006252407051619589 0.0 9.161499119945228e-20 -1.4861993556273867 -2.075440237995849 -0.920691698351798 0.0006252407051619589 0.0 -0.3129078330369898 0.0921202046453513 0.3032320146703553 2.8475298659302553 1.3245874220157179 -0.0006063792778784996 0.0 0.0 0.0 0.0 0.0 0.0 0.0 0.0 0.0 0.0 0.0 0.0 -0.3129078330369898 0.0921202046453513 0.3032320146703553 2.8475298659302553 1.3245874220157179 -0.0006063792778784996 0.0 0.0 0.0 0.0 0.0 0.0 0 25.5 25.0 24.5 24.0 23.5 23.0 0.21928299999999998 7 253 253 253 253 253 253 1 -0.007819923804226818 0.007819930313508047 -9.81999377278222 0.0 1.0 0.0 48.0 48.0 0.0 0.0 0.0 0.0 0.0 0.0 0.0 0 1 0.0
703.794 -0.6999999999999993 -1.5700000000000003 1.5700000000000003 -1.5700000000000003 -1.5700000000000003 0.0 0.0 0.0 0.0 0.0 0.0 0.0 0.0 0.0 0.0 0.0 0.0 0.0 9.161499119945228e-20 -1.4861993556273867 -2.075440237995849 -0.920691698351798 0.0006252407051619589 0.0 9.952649537947217e-19 -16.145415871819452 -16.13021775769184 -3.491025381691843 0.0023707514418722163 0.0 -0.6999999999999993 -1.5700000000000003 1.5700000000000003 -1.5700000000000003 -1.5700000000000003 0.0 0.0 0.0 0.0 0.0 0.0 0.0 9.161499119945228e-20 -1.4861993556273867 -2.075440237995849 -0.920691698351798 0.0006252407051619589 0.0 9.161499119945228e-20 -1.4861993556273867 -2.075440237995849 -0.920691698351798 0.0006252407051619589 0.0 -0.3129078330369898 0.0921202046453513 0.3032320146703553 2.8475298659302553 1.3245874220157179 -0.0006063792778784996 0.0 0.0 0.0 0.0 0.0 0.0 0.0 0.0 0.0 0.0 0.0 0.0 -0.3129078330369898 0.0921202046453513 0.3032320146703553 2.8475298659302553 1.3245874220157179 -0.0006063792778784996 0.0 0.0 0.0 0.0 0.0 0.0 0 25.5 25.0 24.5 24.0 23.5 23.0 0.179899 7 253 253 253 253 253 253 1 -0.007819923804226818 0.007819930313508047 -9.81999377278222 0.0 1.0 0.0 48.0 48.0 0.0 0.0 0.0 0.0 0.0 0.0 0.0 0 1 0.0
703.802 -0.6999999999999993 -1.5700000000000003 1.5700000000000003 -1.5700000000000003 -1.5700000000000003 0.0 0.0 0.0 0.0 0.0 0.0 0.0 0.0 0.0 0.0 0.0 0.0 0.0 9.161499119945228e-20 -1.4861993556273867 -2.075440237995849 -0.920691698351798 0.0006252407051619589 0.0 9.952649537947217e-19 -16.145415871819452 -16.13021775769184 -3.491025381691843 0.0023707514418722163 0.0 -0.6999999999999993 -1.5700000000000003 1.5700000000000003 -1.5700000000000003 -1.5700000000000003 0.0 0.0 0.0 0.0 0.0 0.0 0.0 9.161499119945228e-20 -1.4861993556273867 -2.075440237995849 -0.920691698351798 0.0006252407051619589 0.0 9.161499119945228e-20 -1.4861993556273867 -2.075440237995849 -0.920691698351798 0.0006252407051619589 0.0 -0.3129078330369898 0.0921202046453513 0.3032320146703553 2.8475298659302553 1.3245874220157179 -0.0006063792778784996 0.0 0.0 0.0 0.0 0.0 0.0 0.0 0.0 0.0 0.0 0.0 0.0 -0.3129078330369898 0.0921202046453513 0.3032320146703553 2.8475298659302553 1.3245874220157179 -0.0006063792778784996 0.0 0.0 0.0 0.0 0.0 0.0 0 25.5 25.0 24.5 24.0 23.5 23.0 0.175758 7 253 253 253 253 253 253 1 -0.007819923804226818 0.007819930313508047 -9.81999377278222 0.0 1.0 0.0 48.0 48.0 0.0 0.0 0.0 0.0 0.0 0.0 0.0 0 1 0.0
703.81 -0.6999999999999993 -1.5700000000000003 1.5700000000000003 -1.5700000000000003 -1.5700000000000003 0.0 0.0 0.0 0.0 0.0 0.0 0.0 0.0 0.0 0.0 0.0 0.0 0.0 9.161499119945228e-20 -1.4861993556273867 -2.075440237995849 -0.920691698351798 0.0006252407051619589 0.0 9.952649537947217e-19 -16.145415871819452 -16.13021775769184 -3.491025381691843 0.0023707514418722163 0.0 -0.6999999999999993 -1.5700000000000003 1.5700000000000003 -1.5700000000000003 -1.5700000000000003 0.0 0.0 0.0 0.0 0.0 0.0 0.0 9.161499119945228e-20 -1.4861993556273867 -2.075440237995849 -0.920691698351798 0.0006252407051619589 0.0 9.161499119945228e-20 -1.4861993556273867 -2.075440237995849 -0.920691698351798 0.0006252407051619589 0.0 -0.3129078330369898 0.0921202046453513 0.3032320146703553 2.8475298659302553 1.3245874220157179 -0.0006063792778784996 0.0 0.0 0.0 0.0 0.0 0.0 0.0 0.0 0.0 0.0 0.0 0.0 -0.3129078330369898 0.0921202046453513 0.3032320146703553 2.8475298659302553 1.3245874220157179 -0.0006063792778784996 0.0 0.0 0.0 0.0 0.0 0.0 0 25.5 25.0 24.5 24.0 23.5 23.0 0.16194 7 253 253 253 253 253 253 1 -0.007819923804226818 0.007819930313508047 -9.81999377278222 0.0 1.0 0.0 48.0 48.0 0.0 0.0 0.0 0.0 0.0 0.0 0.0 0 1 0.0
703.818 -0.6999999999999993 -1.5700000000000003 1.5700000000000003 -1.5700000000000003 -1.5700000000000003 0.0 0.0 0.0 0.0 0.0 0.0 0.0 0.0 0.0 0.0 0.0 0.0 0.0 9.161499119945228e-20 -1.4861993556273867 -2.075440237995849 -0.920691698351798 0.0006252407051619589 0.0 9.952649537947217e-19 -16.145415871819452 -16.13021775769184 -3.491025381691843 0.0023707514418722163 0.0 -0.6999999999999993 -1.5700000000000003 1.5700000000000003 -1.5700000000000003 -1.5700000000000003 0.0 0.0 0.0 0.0 0.0 0.0 0.0 9.161499119945228e-20 -1.4861993556273867 -2.075440237995849 -0.920691698351798 0.0006252407051619589 0.0 9.161499119945228e-20 -1.4861993556273867 -2.075440237995849 -0.920691698351798 0.0006252407051619589 0.0 -0.3129078330369898 0.0921202046453513 0.3032320146703553 2.8475298659302553 1.3245874220157179 -0.0006063792778784996 0.0 0.0 0.0 0.0 0.0 0.0 0.0 0.0 0.0 0.0 0.0 0.0 -0.3129078330369898 0.0921202046453513 0.3032320146703553 2.8475298659302553 1.3245874220157179 -0.0006063792778784996 0.0 0.0 0.0 0.0 0.0 0.0 0 25.5 25.0 24.5 24.0 23.5 23.0 0.19435400000000003 7 253 253 253 253 253 253 1 -0.007819923804226818 0.007819930313508047 -9.81999377278222 0.0 1.0 0.0 48.0 48.0 0.0 0.0 0.0 0.0 0.0 0.0 0.0 0 1 0.0
703.826 -0.6999999999999993 -1.5700000000000003 1.5700000000000003 -1.5700000000000003 -1.5700000000000003 0.0 0.0 0.0 0.0 0.0 0.0 0.0 0.0 0.0 0.0 0.0 0.0 0.0 9.161499119945228e-20 -1.4861993556273867 -2.075440237995849 -0.920691698351798 0.0006252407051619589 0.0 9.952649537947217e-19 -16.145415871819452 -16.13021775769184 -3.491025381691843 0.0023707514418722163 0.0 -0.6999999999999993 -1.5700000000000003 1.5700000000000003 -1.5700000000000003 -1.5700000000000003 0.0 0.0 0.0 0.0 0.0 0.0 0.0 9.161499119945228e-20 -1.4861993556273867 -2.075440237995849 -0.920691698351798 0.0006252407051619589 0.0 9.161499119945228e-20 -1.4861993556273867 -2.075440237995849 -0.920691698351798 0.0006252407051619589 0.0 -0.3129078330369898 0.0921202046453513 0.3032320146703553 2.8475298659302553 1.3245874220157179 -0.0006063792778784996 0.0 0.0 0.0 0.0 0.0 0.0 0.0 0.0 0.0 0.0 0.0 0.0 -0.3129078330369898 0.0921202046453513 0.3032320146703553 2.8475298659302553 1.3245874220157179 -0.0006063792778784996 0.0 0.0 0.0 0.0 0.0 0.0 0 25.5 25.0 24.5 24.0 23.5 23.0 0.138893 7 253 253 253 253 253 253 1 -0.007819923804226818 0.007819930313508047 -9.81999377278222 0.0 1.0 0.0 48.0 48.0 0.0 0.0 0.0 0.0 0.0 0.0 0.0 0 1 0.0
703.834 -0.6999999999999993 -1.5700000000000003 1.5700000000000003 -1.5700000000000003 -1.5700000000000003 0.0 0.0 0.0 0.0 0.0 0.0 0.0 0.0 0.0 0.0 0.0 0.0 0.0 9.161499119945228e-20 -1.4861993556273867 -2.075440237995849 -0.920691698351798 0.0006252407051619589 0.0 9.952649537947217e-19 -16.145415871819452 -16.13021775769184 -3.491025381691843 0.0023707514418722163 0.0 -0.6999999999999993 -1.5700000000000003 1.5700000000000003 -1.5700000000000003 -1.5700000000000003 0.0 0.0 0.0 0.0 0.0 0.0 0.0 9.161499119945228e-20 -1.4861993556273867 -2.075440237995849 -0.920691698351798 0.0006252407051619589 0.0 9.161499119945228e-20 -1.4861993556273867 -2.075440237995849 -0.920691698351798 0.0006252407051619589 0.0 -0.3129078330369898 0.0921202046453513 0.3032320146703553 2.8475298659302553 1.3245874220157179 -0.0006063792778784996 0.0 0.0 0.0 0.0 0.0 0.0 0.0 0.0 0.0 0.0 0.0 0.0 -0.3129078330369898 0.0921202046453513 0.3032320146703553 2.8475298659302553 1.3245874220157179 -0.0006063792778784996 0.0 0.0 0.0 0.0 0.0 0.0 0 25.5 25.0 24.5 24.0 23.5 23.0 0.185081 7 253 253 253 253 253 253 1 -0.007819923804226818 0.007819930313508047 -9.81999377278222 0.0 1.0 0.0 48.0 48.0 0.0 0.0 0.0 0.0 0.0 0.0 0.0 0 1 0.0
703.842 -0.6999999999999993 -1.5700000000000003 1.5700000000000003 -1.5700000000000003 -1.5700000000000003 0.0 0.0 0.0 0.0 0.0 0.0 0.0 0.0 0.0 0.0 0.0 0.0 0.0 9.161499119945228e-20 -1.4861993556273867 -2.075440237995849 -0.920691698351798 0.0006252407051619589 0.0 9.952649537947217e-19 -16.145415871819452 -16.13021775769184 -3.491025381691843 0.0023707514418722163 0.0 -0.6999999999999993 -1.5700000000000003 1.5700000000000003 -1.5700000000000003 -1.5700000000000003 0.0 0.0 0.0 0.0 0.0 0.0 0.0 9.161499119945228e-20 -1.4861993556273867 -2.075440237995849 -0.920691698351798 0.0006252407051619589 0.0 9.161499119945228e-20 -1.4861993556273867 -2.075440237995849 -0.920691698351798 0.0006252407051619589 0.0 -0.3129078330369898 0.0921202046453513 0.3032320146703553 2.8475298659302553 1.3245874220157179 -0.0006063792778784996 0.0 0.0 0.0 0.0 0.0 0.0 0.0 0.0 0.0 0.0 0.0 0.0 -0.3129078330369898 0.0921202046453513 0.3032320146703553 2.8475298659302553 1.3245874220157179 -0.0006063792778784996 0.0 0.0 0.0 0.0 0.0 0.0 0 25.5 25.0 24.5 24.0 23.5 23.0 0.164207 7 253 253 253 253 253 253 1 -0.007819923804226818 0.007819930313508047 -9.81999377278222 0.0 1.0 0.0 48.0 48.0 0.0 0.0 0.0 0.0 0.0 0.0 0.0 0 1 0.0
703.85 -0.6999999999999993 -1.5700000000000003 1.5700000000000003 -1.5700000000000003 -1.5700000000000003 0.0 0.0 0.0 0.0 0.0 0.0 0.0 0.0 0.0 0.0 0.0 0.0 0.0 9.161499119945228e-20 -1.4861993556273867 -2.075440237995849 -0.920691698351798 0.0006252407051619589 0.0 9.952649537947217e-19 -16.145415871819452 -16.13021775769184 -3.491025381691843 0.0023707514418722163 0.0 -0.6999999999999993 -1.5700000000000003 1.5700000000000003 -1.5700000000000003 -1.5700000000000003 0.0 0.0 0.0 0.0 0.0 0.0 0.0 9.161499119945228e-20 -1.4861993556273867 -2.075440237995849 -0.920691698351798 0.0006252407051619589 0.0 9.161499119945228e-20 -1.4861993556273867 -2.075440237995849 -0.920691698351798 0.0006252407051619589 0.0 -0.3129078330369898 0.0921202046453513 0.3032320146703553 2.8475298659302553 1.3245874220157179 -0.0006063792778784996 0.0 0.0 0.0 0.0 0.0 0.0 0.0 0.0 0.0 0.0 0.0 0.0 -0.3129078330369898 0.0921202046453513 0.3032320146703553 2.8475298659302553 1.3245874220157179 -0.0006063792778784996 0.0 0.0 0.0 0.0 0.0 0.0 0 25.5 25.0 24.5 24.0 23.5 23.0 0.135107 7 253 253 253 253 253 253 1 -0.007819923804226818 0.007819930313508047 -9.81999377278222 0.0 1.0 0.0 48.0 48.0 0.0 0.0 0.0 0.0 0.0 0.0 0.0 0 1 0.0
703.858 -0.6999999999999993 -1.5700000000000003 1.5700000000000003 -1.5700000000000003 -1.5700000000000003 0.0 0.0 0.0 0.0 0.0 0.0 0.0 0.0 0.0 0.0 0.0 0.0 0.0 9.161499119945228e-20 -1.4861993556273867 -2.075440237995849 -0.920691698351798 0.0006252407051619589 0.0 9.952649537947217e-19 -16.145415871819452 -16.13021775769184 -3.491025381691843 0.0023707514418722163 0.0 -0.6999999999999993 -1.5700000000000003 1.5700000000000003 -1.5700000000000003 -1.5700000000000003 0.0 0.0 0.0 0.0 0.0 0.0 0.0 9.161499119945228e-20 -1.4861993556273867 -2.075440237995849 -0.920691698351798 0.0006252407051619589 0.0 9.161499119945228e-20 -1.4861993556273867 -2.075440237995849 -0.920691698351798 0.0006252407051619589 0.0 -0.3129078330369898 0.0921202046453513 0.3032320146703553 2.8475298659302553 1.3245874220157179 -0.0006063792778784996 0.0 0.0 0.0 0.0 0.0 0.0 0.0 0.0 0.0 0.0 0.0 0.0 -0.3129078330369898 0.0921202046453513 0.3032320146703553 2.8475298659302553 1.3245874220157179 -0.0006063792778784996 0.0 0.0 0.0 0.0 0.0 0.0 0 25.5 25.0 24.5 24.0 23.5 23.0 0.188601 7 253 253 253 253 253 253 1 -0.007819923804226818 0.007819930313508047 -9.81999377278222 0.0 1.0 0.0 48.0 48.0 0.0 0.0 0.0 0.0 0.0 0.0 0.0 0 1 0.0
703.866 -0.6999999999999993 -1.5700000000000003 1.5700000000000003 -1.5700000000000003 -1.5700000000000003 0.0 0.0 0.0 0.0 0.0 0.0 0.0 0.0 0.0 0.0 0.0 0.0 0.0 9.161499119945228e-20 -1.4861993556273867 -2.075440237995849 -0.920691698351798 0.0006252407051619589 0.0 9.952649537947217e-19 -16.145415871819452 -16.13021775769184 -3.491025381691843 0.0023707514418722163 0.0 -0.6999999999999993 -1.5700000000000003 1.5700000000000003 -1.5700000000000003 -1.5700000000000003 0.0 0.0 0.0 0.0 0.0 0.0 0.0 9.161499119945228e-20 -1.4861993556273867 -2.075440237995849 -0.920691698351798 0.0006252407051619589 0.0 9.161499119945228e-20 -1.4861993556273867 -2.075440237995849 -0.920691698351798 0.0006252407051619589 0.0 -0.3129078330369898 0.0921202046453513 0.3032320146703553 2.8475298659302553 1.3245874220157179 -0.0006063792778784996 0.0 0.0 0.0 0.0 0.0 0.0 0.0 0.0 0.0 0.0 0.0 0.0 -0.3129078330369898 0.0921202046453513 0.3032320146703553 2.8475298659302553 1.3245874220157179 -0.0006063792778784996 0.0 0.0 0.0 0.0 0.0 0.0 0 25.5 25.0 24.5 24.0 23.5 23.0 0.14338 7 253 253 253 253 253 253 1 -0.007819923804226818 0.007819930313508047 -9.81999377278222 0.0 1.0 0.0 48.0 48.0 0.0 0.0 0.0 0.0 0.0 0.0 0.0 0 1 0.0
703.874 -0.6999999999999993 -1.5700000000000003 1.5700000000000003 -1.5700000000000003 -1.5700000000000003 0.0 0.0 0.0 0.0 0.0 0.0 0.0 0.0 0.0 0.0 0.0 0.0 0.0 9.161499119945228e-20 -1.4861993556273867 -2.075440237995849 -0.920691698351798 0.0006252407051619589 0.0 9.952649537947217e-19 -16.145415871819452 -16.13021775769184 -3.491025381691843 0.0023707514418722163 0.0 -0.6999999999999993 -1.5700000000000003 1.5700000000000003 -1.5700000000000003 -1.5700000000000003 0.0 0.0 0.0 0.0 0.0 0.0 0.0 9.161499119945228e-20 -1.4861993556273867 -2.075440237995849 -0.920691698351798 0.0006252407051619589 0.0 9.161499119945228e-20 -1.4861993556273867 -2.075440237995849 -0.920691698351798 0.0006252407051619589 0.0 -0.3129078330369898 0.0921202046453513 0.3032320146703553 2.8475298659302553 1.3245874220157179 -0.0006063792778784996 0.0 0.0 0.0 0.0 0.0 0.0 0.0 0.0 0.0 0.0 0.0 0.0 -0.3129078330369898 0.0921202046453513 0.3032320146703553 2.8475298659302553 1.3245874220157179 -0.0006063792778784996 0.0 0.0 0.0 0.0 0.0 0.0 0 25.5 25.0 24.5 24.0 23.5 23.0 0.160956 7 253 253 253 253 253 253 1 -0.007819923804226818 0.007819930313508047 -9.81999377278222 0.0 1.0 0.0 48.0 48.0 0.0 0.0 0.0 0.0 0.0 0.0 0.0 0 1 0.0
703.882 -0.6999999999999993 -1.5700000000000003 1.5700000000000003 -1.5700000000000003 -1.5700000000000003 0.0 0.0 0.0 0.0 0.0 0.0 0.0 0.0 0.0 0.0 0.0 0.0 0.0 9.161499119945228e-20 -1.4861993556273867 -2.075440237995849 -0.920691698351798 0.0006252407051619589 0.0 9.952649537947217e-19 -16.145415871819452 -16.13021775769184 -3.491025381691843 0.0023707514418722163 0.0 -0.6999999999999993 -1.5700000000000003 1.5700000000000003 -1.5700000000000003 -1.5700000000000003 0.0 0.0 0.0 0.0 0.0 0.0 0.0 9.161499119945228e-20 -1.4861993556273867 -2.075440237995849 -0.920691698351798 0.0006252407051619589 0.0 9.161499119945228e-20 -1.4861993556273867 -2.075440237995849 -0.920691698351798 0.0006252407051619589 0.0 -0.3129078330369898 0.0921202046453513 0.3032320146703553 2.8475298659302553 1.3245874220157179 -0.0006063792778784996 0.0 0.0 0.0 0.0 0.0 0.0 0.0 0.0 0.0 0.0 0.0 0.0 -0.3129078330369898 0.0921202046453513 0.3032320146703553 2.8475298659302553 1.3245874220157179 -0.0006063792778784996 0.0 0.0 0.0 0.0 0.0 0.0 0 25.5 25.0 24.5 24.0 23.5 23.0 0.174833 7 253 253 253 253 253 253 1 -0.007819923804226818 0.007819930313508047 -9.81999377278222 0.0 1.0 0.0 48.0 48.0 0.0 0.0 0.0 0.0 0.0 0.0 0.0 0 1 0.0
703.89 -0.6999999999999993 -1.5700000000000003 1.5700000000000003 -1.5700000000000003 -1.5700000000000003 0.0 0.0 0.0 0.0 0.0 0.0 0.0 0.0 0.0 0.0 0.0 0.0 0.0 9.161499119945228e-20 -1.4861993556273867 -2.075440237995849 -0.920691698351798 0.0006252407051619589 0.0 9.952649537947217e-19 -16.145415871819452 -16.13021775769184 -3.491025381691843 0.0023707514418722163 0.0 -0.6999999999999993 -1.5700000000000003 1.5700000000000003 -1.5700000000000003 -1.5700000000000003 0.0 0.0 0.0 0.0 0.0 0.0 0.0 9.161499119945228e-20 -1.4861993556273867 -2.075440237995849 -0.920691698351798 0.0006252407051619589 0.0 9.161499119945228e-20 -1.4861993556273867 -2.075440237995849 -0.920691698351798 0.0006252407051619589 0.0 -0.3129078330369898 0.0921202046453513 0.3032320146703553 2.8475298659302553 1.3245874220157179 -0.0006063792778784996 0.0 0.0 0.0 0.0 0.0 0.0 0.0 0.0 0.0 0.0 0.0 0.0 -0.3129078330369898 0.0921202046453513 0.3032320146703553 2.8475298659302553 1.3245874220157179 -0.0006063792778784996 0.0 0.0 0.0 0.0 0.0 0.0 0 25.5 25.0 24.5 24.0 23.5 23.0 0.17548 7 253 253 253 253 253 253 1 -0.007819923804226818 0.007819930313508047 -9.81999377278222 0.0 1.0 0.0 48.0 48.0 0.0 0.0 0.0 0.0 0.0 0.0 0.0 0 1 0.0
703.898 -0.6999999999999993 -1.5700000000000003 1.5700000000000003 -1.5700000000000003 -1.5700000000000003 0.0 0.0 0.0 0.0 0.0 0.0 0.0 0.0 0.0 0.0 0.0 0.0 0.0 9.161499119945228e-20 -1.4861993556273867 -2.075440237995849 -0.920691698351798 0.0006252407051619589 0.0 9.952649537947217e-19 -16.145415871819452 -16.13021775769184 -3.491025381691843 0.0023707514418722163 0.0 -0.6999999999999993 -1.5700000000000003 1.5700000000000003 -1.5700000000000003 -1.5700000000000003 0.0 0.0 0.0 0.0 0.0 0.0 0.0 9.161499119945228e-20 -1.4861993556273867 -2.075440237995849 -0.920691698351798 0.0006252407051619589 0.0 9.161499119945228e-20 -1.4861993556273867 -2.075440237995849 -0.920691698351798 0.0006252407051619589 0.0 -0.3129078330369898 0.0921202046453513 0.3032320146703553 2.8475298659302553 1.3245874220157179 -0.0006063792778784996 0.0 0.0 0.0 0.0 0.0 0.0 0.0 0.0 0.0 0.0 0.0 0.0 -0.3129078330369898 0.0921202046453513 0.3032320146703553 2.8475298659302553 1.3245874220157179 -0.0006063792778784996 0.0 0.0 0.0 0.0 0.0 0.0 0 25.5 25.0 24.5 24.0 23.5 23.0 0.135599 7 253 253 253 253 253 253 1 -0.007819923804226818 0.007819930313508047 -9.81999377278222 0.0 1.0 0.0 48.0 48.0 0.0 0.0 0.0 0.0 0.0 0.0 0.0 0 1 0.0
703.906 -0.6999999999999993 -1.5700000000000003 1.5700000000000003 -1.5700000000000003 -1.5700000000000003 0.0 0.0 0.0 0.0 0.0 0.0 0.0 0.0 0.0 0.0 0.0 0.0 0.0 9.161499119945228e-20 -1.4861993556273867 -2.075440237995849 -0.920691698351798 0.0006252407051619589 0.0 9.952649537947217e-19 -16.145415871819452 -16.13021775769184 -3.491025381691843 0.0023707514418722163 0.0 -0.6999999999999993 -1.5700000000000003 1.5700000000000003 -1.5700000000000003 -1.5700000000000003 0.0 0.0 0.0 0.0 0.0 0.0 0.0 9.161499119945228e-20 -1.4861993556273867 -2.075440237995849 -0.920691698351798 0.0006252407051619589 0.0 9.161499119945228e-20 -1.4861993556273867 -2.075440237995849 -0.920691698351798 0.0006252407051619589 0.0 -0.3129078330369898 0.0921202046453513 0.3032320146703553 2.8475298659302553 1.3245874220157179 -0.0006063792778784996 0.0 0.0 0.0 0.0 0.0 0.0 0.0 0.0 0.0 0.0 0.0 0.0 -0.3129078330369898 0.0921202046453513 0.3032320146703553 2.8475298659302553 1.3245874220157179 -0.0006063792778784996 0.0 0.0 0.0 0.0 0.0 0.0 0 25.5 25.0 24.5 24.0 23.5 23.0 0.135158 7 253 253 253 253 253 253 1 -0.007819923804226818 0.007819930313508047 -9.81999377278222 0.0 1.0 0.0 48.0 48.0 0.0 0.0 0.0 0.0 0.0 0.0 0.0 0 1 0.0
703.914 -0.6999999999999993 -1.5700000000000003 1.5700000000000003 -1.5700000000000003 -1.5700000000000003 0.0 0.0 0.0 0.0 0.0 0.0 0.0 0.0 0.0 0.0 0.0 0.0 0.0 9.161499119945228e-20 -1.4861993556273867 -2.075440237995849 -0.920691698351798 0.0006252407051619589 0.0 9.952649537947217e-19 -16.145415871819452 -16.13021775769184 -3.491025381691843 0.0023707514418722163 0.0 -0.6999999999999993 -1.5700000000000003 1.5700000000000003 -1.5700000000000003 -1.5700000000000003 0.0 0.0 0.0 0.0 0.0 0.0 0.0 9.161499119945228e-20 -1.4861993556273867 -2.075440237995849 -0.920691698351798 0.0006252407051619589 0.0 9.161499119945228e-20 -1.4861993556273867 -2.075440237995849 -0.920691698351798 0.0006252407051619589 0.0 -0.3129078330369898 0.0921202046453513 0.3032320146703553 2.8475298659302553 1.3245874220157179 -0.0006063792778784996 0.0 0.0 0.0 0.0 0.0 0.0 0.0 0.0 0.0 0.0 0.0 0.0 -0.3129078330369898 0.0921202046453513 0.3032320146703553 2.8475298659302553 1.3245874220157179 -0.0006063792778784996 0.0 0.0 0.0 0.0 0.0 0.0 0 25.5 25.0 24.5 24.0 23.5 23.0 0.13916599999999998 7 253 253 253 253 253 253 1 -0.007819923804226818 0.007819930313508047 -9.81999377278222 0.0 1.0 0.0 48.0 48.0 0.0 0.0 0.0 0.0 0.0 0.0 0.0 0 1 0.0
703.9219999999999 -0.6999999999999993 -1.5700000000000003 1.5700000000000003 -1.5700000000000003 -1.5700000000000003 0.0 0.0 0.0 0.0 0.0 0.0 0.0 0.0 0.0 0.0 0.0 0.0 0.0 9.161499119945228e-20 -1.4861993556273867 -2.075440237995849 -0.920691698351798 0.0006252407051619589 0.0 9.952649537947217e-19 -16.145415871819452 -16.13021775769184 -3.491025381691843 0.0023707514418722163 0.0 -0.6999999999999993 -1.5700000000000003 1.5700000000000003 -1.5700000000000003 -1.5700000000000003 0.0 0.0 0.0 0.0 0.0 0.0 0.0 9.161499119945228e-20 -1.4861993556273867 -2.075440237995849 -0.920691698351798 0.0006252407051619589 0.0 9.161499119945228e-20 -1.4861993556273867 -2.075440237995849 -0.920691698351798 0.0006252407051619589 0.0 -0.3129078330369898 0.0921202046453513 0.3032320146703553 2.8475298659302553 1.3245874220157179 -0.0006063792778784996 0.0 0.0 0.0 0.0 0.0 0.0 0.0 0.0 0.0 0.0 0.0 0.0 -0.3129078330369898 0.0921202046453513 0.3032320146703553 2.8475298659302553 1.3245874220157179 -0.0006063792778784996 0.0 0.0 0.0 0.0 0.0 0.0 0 25.5 25.0 24.5 24.0 23.5 23.0 0.177096 7 253 253 253 253 253 253 1 -0.007819923804226818 0.007819930313508047 -9.81999377278222 0.0 1.0 0.0 48.0 48.0 0.0 0.0 0.0 0.0 0.0 0.0 0.0 0 1 0.0
703.93 -0.6999999999999993 -1.5700000000000003 1.5700000000000003 -1.5700000000000003 -1.5700000000000003 0.0 0.0 0.0 0.0 0.0 0.0 0.0 0.0 0.0 0.0 0.0 0.0 0.0 9.161499119945228e-20 -1.4861993556273867 -2.075440237995849 -0.920691698351798 0.0006252407051619589 0.0 9.952649537947217e-19 -16.145415871819452 -16.13021775769184 -3.491025381691843 0.0023707514418722163 0.0 -0.6999999999999993 -1.5700000000000003 1.5700000000000003 -1.5700000000000003 -1.5700000000000003 0.0 0.0 0.0 0.0 0.0 0.0 0.0 9.161499119945228e-20 -1.4861993556273867 -2.075440237995849 -0.920691698351798 0.0006252407051619589 0.0 9.161499119945228e-20 -1.4861993556273867 -2.075440237995849 -0.920691698351798 0.0006252407051619589 0.0 -0.3129078330369898 0.0921202046453513 0.3032320146703553 2.8475298659302553 1.3245874220157179 -0.0006063792778784996 0.0 0.0 0.0 0.0 0.0 0.0 0.0 0.0 0.0 0.0 0.0 0.0 -0.3129078330369898 0.0921202046453513 0.3032320146703553 2.8475298659302553 1.3245874220157179 -0.0006063792778784996 0.0 0.0 0.0 0.0 0.0 0.0 0 25.5 25.0 24.5 24.0 23.5 23.0 0.179754 7 253 253 253 253 253 253 1 -0.007819923804226818 0.007819930313508047 -9.81999377278222 0.0 1.0 0.0 48.0 48.0 0.0 0.0 0.0 0.0 0.0 0.0 0.0 0 1 0.0
703.938 -0.6999999999999993 -1.5700000000000003 1.5700000000000003 -1.5700000000000003 -1.5700000000000003 0.0 0.0 0.0 0.0 0.0 0.0 0.0 0.0 0.0 0.0 0.0 0.0 0.0 9.161499119945228e-20 -1.4861993556273867 -2.075440237995849 -0.920691698351798 0.0006252407051619589 0.0 9.952649537947217e-19 -16.145415871819452 -16.13021775769184 -3.491025381691843 0.0023707514418722163 0.0 -0.6999999999999993 -1.5700000000000003 1.5700000000000003 -1.5700000000000003 -1.5700000000000003 0.0 0.0 0.0 0.0 0.0 0.0 0.0 9.161499119945228e-20 -1.4861993556273867 -2.075440237995849 -0.920691698351798 0.0006252407051619589 0.0 9.161499119945228e-20 -1.4861993556273867 -2.075440237995849 -0.920691698351798 0.0006252407051619589 0.0 -0.3129078330369898 0.0921202046453513 0.3032320146703553 2.8475298659302553 1.3245874220157179 -0.0006063792778784996 0.0 0.0 0.0 0.0 0.0 0.0 0.0 0.0 0.0 0.0 0.0 0.0 -0.3129078330369898 0.0921202046453513 0.3032320146703553 2.8475298659302553 1.3245874220157179 -0.0006063792778784996 0.0 0.0 0.0 0.0 0.0 0.0 0 25.5 25.0 24.5 24.0 23.5 23.0 0.196522 7 253 253 253 253 253 253 1 -0.007819923804226818 0.007819930313508047 -9.81999377278222 0.0 1.0 0.0 48.0 48.0 0.0 0.0 0.0 0.0 0.0 0.0 0.0 0 1 0.0
703.9459999999999 -0.6999999999999993 -1.5700000000000003 1.5700000000000003 -1.5700000000000003 -1.5700000000000003 0.0 0.0 0.0 0.0 0.0 0.0 0.0 0.0 0.0 0.0 0.0 0.0 0.0 9.161499119945228e-20 -1.4861993556273867 -2.075440237995849 -0.920691698351798 0.0006252407051619589 0.0 9.952649537947217e-19 -16.145415871819452 -16.13021775769184 -3.491025381691843 0.0023707514418722163 0.0 -0.6999999999999993 -1.5700000000000003 1.5700000000000003 -1.5700000000000003 -1.5700000000000003 0.0 0.0 0.0 0.0 0.0 0.0 0.0 9.161499119945228e-20 -1.4861993556273867 -2.075440237995849 -0.920691698351798 0.0006252407051619589 0.0 9.161499119945228e-20 -1.4861993556273867 -2.075440237995849 -0.920691698351798 0.0006252407051619589 0.0 -0.3129078330369898 0.0921202046453513 0.3032320146703553 2.8475298659302553 1.3245874220157179 -0.0006063792778784996 0.0 0.0 0.0 0.0 0.0 0.0 0.0 0.0 0.0 0.0 0.0 0.0 -0.3129078330369898 0.0921202046453513 0.3032320146703553 2.8475298659302553 1.3245874220157179 -0.0006063792778784996 0.0 0.0 0.0 0.0 0.0 0.0 0 25.5 25.0 24.5 24.0 23.5 23.0 0.21718 7 253 253 253 253 253 253 1 -0.007819923804226818 0.007819930313508047 -9.81999377278222 0.0 1.0 0.0 48.0 48.0 0.0 0.0 0.0 0.0 0.0 0.0 0.0 0 1 0.0
703.954 -0.6999999999999993 -1.5700000000000003 1.5700000000000003 -1.5700000000000003 -1.5700000000000003 0.0 0.0 0.0 0.0 0.0 0.0 0.0 0.0 0.0 0.0 0.0 0.0 0.0 9.161499119945228e-20 -1.4861993556273867 -2.075440237995849 -0.920691698351798 0.0006252407051619589 0.0 9.952649537947217e-19 -16.145415871819452 -16.13021775769184 -3.491025381691843 0.0023707514418722163 0.0 -0.6999999999999993 -1.5700000000000003 1.5700000000000003 -1.5700000000000003 -1.5700000000000003 0.0 0.0 0.0 0.0 0.0 0.0 0.0 9.161499119945228e-20 -1.4861993556273867 -2.075440237995849 -0.920691698351798 0.0006252407051619589 0.0 9.161499119945228e-20 -1.4861993556273867 -2.075440237995849 -0.920691698351798 0.0006252407051619589 0.0 -0.3129078330369898 0.0921202046453513 0.3032320146703553 2.8475298659302553 1.3245874220157179 -0.0006063792778784996 0.0 0.0 0.0 0.0 0.0 0.0 0.0 0.0 0.0 0.0 0.0 0.0 -0.3129078330369898 0.0921202046453513 0.3032320146703553 2.8475298659302553 1.3245874220157179 -0.0006063792778784996 0.0 0.0 0.0 0.0 0.0 0.0 0 25.5 25.0 24.5 24.0 23.5 23.0 0.390604 7 253 253 253 253 253 253 1 -0.007819923804226818 0.007819930313508047 -9.81999377278222 0.0 1.0 0.0 48.0 48.0 0.0 0.0 0.0 0.0 0.0 0.0 0.0 0 1 0.0
703.962 -0.6999999999999993 -1.5700000000000003 1.5700000000000003 -1.5700000000000003 -1.5700000000000003 0.0 0.0 0.0 0.0 0.0 0.0 0.0 0.0 0.0 0.0 0.0 0.0 0.0 9.161499119945228e-20 -1.4861993556273867 -2.075440237995849 -0.920691698351798 0.0006252407051619589 0.0 9.952649537947217e-19 -16.145415871819452 -16.13021775769184 -3.491025381691843 0.0023707514418722163 0.0 -0.6999999999999993 -1.5700000000000003 1.5700000000000003 -1.5700000000000003 -1.5700000000000003 0.0 0.0 0.0 0.0 0.0 0.0 0.0 9.161499119945228e-20 -1.4861993556273867 -2.075440237995849 -0.920691698351798 0.0006252407051619589 0.0 9.161499119945228e-20 -1.4861993556273867 -2.075440237995849 -0.920691698351798 0.0006252407051619589 0.0 -0.3129078330369898 0.0921202046453513 0.3032320146703553 2.8475298659302553 1.3245874220157179 -0.0006063792778784996 0.0 0.0 0.0 0.0 0.0 0.0 0.0 0.0 0.0 0.0 0.0 0.0 -0.3129078330369898 0.0921202046453513 0.3032320146703553 2.8475298659302553 1.3245874220157179 -0.0006063792778784996 0.0 0.0 0.0 0.0 0.0 0.0 0 25.5 25.0 24.5 24.0 23.5 23.0 0.174681 7 253 253 253 253 253 253 1 -0.007819923804226818 0.007819930313508047 -9.81999377278222 0.0 1.0 0.0 48.0 48.0 0.0 0.0 0.0 0.0 0.0 0.0 0.0 0 1 0.0
703.9699999999999 -0.6999999999999993 -1.5700000000000003 1.5700000000000003 -1.5700000000000003 -1.5700000000000003 0.0 0.0 0.0 0.0 0.0 0.0 0.0 0.0 0.0 0.0 0.0 0.0 0.0 9.161499119945228e-20 -1.4861993556273867 -2.075440237995849 -0.920691698351798 0.0006252407051619589 0.0 9.952649537947217e-19 -16.145415871819452 -16.13021775769184 -3.491025381691843 0.0023707514418722163 0.0 -0.6999999999999993 -1.5700000000000003 1.5700000000000003 -1.5700000000000003 -1.5700000000000003 0.0 0.0 0.0 0.0 0.0 0.0 0.0 9.161499119945228e-20 -1.4861993556273867 -2.075440237995849 -0.920691698351798 0.0006252407051619589 0.0 9.161499119945228e-20 -1.4861993556273867 -2.075440237995849 -0.920691698351798 0.0006252407051619589 0.0 -0.3129078330369898 0.0921202046453513 0.3032320146703553 2.8475298659302553 1.3245874220157179 -0.0006063792778784996 0.0 0.0 0.0 0.0 0.0 0.0 0.0 0.0 0.0 0.0 0.0 0.0 -0.3129078330369898 0.0921202046453513 0.3032320146703553 2.8475298659302553 1.3245874220157179 -0.0006063792778784996 0.0 0.0 0.0 0.0 0.0 0.0 0 25.5 25.0 24.5 24.0 23.5 23.0 0.270858 7 253 253 253 253 253 253 1 -0.007819923804226818 0.007819930313508047 -9.81999377278222 0.0 1.0 0.0 48.0 48.0 0.0 0.0 0.0 0.0 0.0 0.0 0.0 0 1 0.0
703.978 -0.6999999999999993 -1.5700000000000003 1.5700000000000003 -1.5700000000000003 -1.5700000000000003 0.0 0.0 0.0 0.0 0.0 0.0 0.0 0.0 0.0 0.0 0.0 0.0 0.0 9.161499119945228e-20 -1.4861993556273867 -2.075440237995849 -0.920691698351798 0.0006252407051619589 0.0 9.952649537947217e-19 -16.145415871819452 -16.13021775769184 -3.491025381691843 0.0023707514418722163 0.0 -0.6999999999999993 -1.5700000000000003 1.5700000000000003 -1.5700000000000003 -1.5700000000000003 0.0 0.0 0.0 0.0 0.0 0.0 0.0 9.161499119945228e-20 -1.4861993556273867 -2.075440237995849 -0.920691698351798 0.0006252407051619589 0.0 9.161499119945228e-20 -1.4861993556273867 -2.075440237995849 -0.920691698351798 0.0006252407051619589 0.0 -0.3129078330369898 0.0921202046453513 0.3032320146703553 2.8475298659302553 1.3245874220157179 -0.0006063792778784996 0.0 0.0 0.0 0.0 0.0 0.0 0.0 0.0 0.0 0.0 0.0 0.0 -0.3129078330369898 0.0921202046453513 0.3032320146703553 2.8475298659302553 1.3245874220157179 -0.0006063792778784996 0.0 0.0 0.0 0.0 0.0 0.0 0 25.5 25.0 24.5 24.0 23.5 23.0 0.198755 7 253 253 253 253 253 253 1 -0.007819923804226818 0.007819930313508047 -9.81999377278222 0.0 1.0 0.0 48.0 48.0 0.0 0.0 0.0 0.0 0.0 0.0 0.0 0 1 0.0
703.986 -0.6999999999999993 -1.5700000000000003 1.5700000000000003 -1.5700000000000003 -1.5700000000000003 0.0 0.0 0.0 0.0 0.0 0.0 0.0 0.0 0.0 0.0 0.0 0.0 0.0 9.161499119945228e-20 -1.4861993556273867 -2.075440237995849 -0.920691698351798 0.0006252407051619589 0.0 9.952649537947217e-19 -16.145415871819452 -16.13021775769184 -3.491025381691843 0.0023707514418722163 0.0 -0.6999999999999993 -1.5700000000000003 1.5700000000000003 -1.5700000000000003 -1.5700000000000003 0.0 0.0 0.0 0.0 0.0 0.0 0.0 9.161499119945228e-20 -1.4861993556273867 -2.075440237995849 -0.920691698351798 0.0006252407051619589 0.0 9.161499119945228e-20 -1.4861993556273867 -2.075440237995849 -0.920691698351798 0.0006252407051619589 0.0 -0.3129078330369898 0.0921202046453513 0.3032320146703553 2.8475298659302553 1.3245874220157179 -0.0006063792778784996 0.0 0.0 0.0 0.0 0.0 0.0 0.0 0.0 0.0 0.0 0.0 0.0 -0.3129078330369898 0.0921202046453513 0.3032320146703553 2.8475298659302553 1.3245874220157179 -0.0006063792778784996 0.0 0.0 0.0 0.0 0.0 0.0 0 25.5 25.0 24.5 24.0 23.5 23.0 0.15447 7 253 253 253 253 253 253 1 -0.007819923804226818 0.007819930313508047 -9.81999377278222 0.0 1.0 0.0 48.0 48.0 0.0 0.0 0.0 0.0 0.0 0.0 0.0 0 1 0.0
703.9939999999999 -0.6999999999999993 -1.5700000000000003 1.5700000000000003 -1.5700000000000003 -1.5700000000000003 0.0 0.0 0.0 0.0 0.0 0.0 0.0 0.0 0.0 0.0 0.0 0.0 0.0 9.161499119945228e-20 -1.4861993556273867 -2.075440237995849 -0.920691698351798 0.0006252407051619589 0.0 9.952649537947217e-19 -16.145415871819452 -16.13021775769184 -3.491025381691843 0.0023707514418722163 0.0 -0.6999999999999993 -1.5700000000000003 1.5700000000000003 -1.5700000000000003 -1.5700000000000003 0.0 0.0 0.0 0.0 0.0 0.0 0.0 9.161499119945228e-20 -1.4861993556273867 -2.075440237995849 -0.920691698351798 0.0006252407051619589 0.0 9.161499119945228e-20 -1.4861993556273867 -2.075440237995849 -0.920691698351798 0.0006252407051619589 0.0 -0.3129078330369898 0.0921202046453513 0.3032320146703553 2.8475298659302553 1.3245874220157179 -0.0006063792778784996 0.0 0.0 0.0 0.0 0.0 0.0 0.0 0.0 0.0 0.0 0.0 0.0 -0.3129078330369898 0.0921202046453513 0.3032320146703553 2.8475298659302553 1.3245874220157179 -0.0006063792778784996 0.0 0.0 0.0 0.0 0.0 0.0 0 25.5 25.0 24.5 24.0 23.5 23.0 0.136533 7 253 253 253 253 253 253 1 -0.007819923804226818 0.007819930313508047 -9.81999377278222 0.0 1.0 0.0 48.0 48.0 0.0 0.0 0.0 0.0 0.0 0.0 0.0 0 1 0.0
704.002 -0.6999999999999993 -1.5700000000000003 1.5700000000000003 -1.5700000000000003 -1.5700000000000003 0.0 0.0 0.0 0.0 0.0 0.0 0.0 0.0 0.0 0.0 0.0 0.0 0.0 9.161499119945228e-20 -1.4861993556273867 -2.075440237995849 -0.920691698351798 0.0006252407051619589 0.0 9.952649537947217e-19 -16.145415871819452 -16.13021775769184 -3.491025381691843 0.0023707514418722163 0.0 -0.6999999999999993 -1.5700000000000003 1.5700000000000003 -1.5700000000000003 -1.5700000000000003 0.0 0.0 0.0 0.0 0.0 0.0 0.0 9.161499119945228e-20 -1.4861993556273867 -2.075440237995849 -0.920691698351798 0.0006252407051619589 0.0 9.161499119945228e-20 -1.4861993556273867 -2.075440237995849 -0.920691698351798 0.0006252407051619589 0.0 -0.3129078330369898 0.0921202046453513 0.3032320146703553 2.8475298659302553 1.3245874220157179 -0.0006063792778784996 0.0 0.0 0.0 0.0 0.0 0.0 0.0 0.0 0.0 0.0 0.0 0.0 -0.3129078330369898 0.0921202046453513 0.3032320146703553 2.8475298659302553 1.3245874220157179 -0.0006063792778784996 0.0 0.0 0.0 0.0 0.0 0.0 0 25.5 25.0 24.5 24.0 23.5 23.0 0.155608 7 253 253 253 253 253 253 1 -0.007819923804226818 0.007819930313508047 -9.81999377278222 0.0 1.0 0.0 48.0 48.0 0.0 0.0 0.0 0.0 0.0 0.0 0.0 0 1 0.0
704.01 -0.6999999999999993 -1.5700000000000003 1.5700000000000003 -1.5700000000000003 -1.5700000000000003 0.0 0.0 0.0 0.0 0.0 0.0 0.0 0.0 0.0 0.0 0.0 0.0 0.0 9.161499119945228e-20 -1.4861993556273867 -2.075440237995849 -0.920691698351798 0.0006252407051619589 0.0 9.952649537947217e-19 -16.145415871819452 -16.13021775769184 -3.491025381691843 0.0023707514418722163 0.0 -0.6999999999999993 -1.5700000000000003 1.5700000000000003 -1.5700000000000003 -1.5700000000000003 0.0 0.0 0.0 0.0 0.0 0.0 0.0 9.161499119945228e-20 -1.4861993556273867 -2.075440237995849 -0.920691698351798 0.0006252407051619589 0.0 9.161499119945228e-20 -1.4861993556273867 -2.075440237995849 -0.920691698351798 0.0006252407051619589 0.0 -0.3129078330369898 0.0921202046453513 0.3032320146703553 2.8475298659302553 1.3245874220157179 -0.0006063792778784996 0.0 0.0 0.0 0.0 0.0 0.0 0.0 0.0 0.0 0.0 0.0 0.0 -0.3129078330369898 0.0921202046453513 0.3032320146703553 2.8475298659302553 1.3245874220157179 -0.0006063792778784996 0.0 0.0 0.0 0.0 0.0 0.0 0 25.5 25.0 24.5 24.0 23.5 23.0 0.189017 7 253 253 253 253 253 253 1 -0.007819923804226818 0.007819930313508047 -9.81999377278222 0.0 1.0 0.0 48.0 48.0 0.0 0.0 0.0 0.0 0.0 0.0 0.0 0 1 0.0
704.0179999999999 -0.6999999999999993 -1.5700000000000003 1.5700000000000003 -1.5700000000000003 -1.5700000000000003 0.0 0.0 0.0 0.0 0.0 0.0 0.0 0.0 0.0 0.0 0.0 0.0 0.0 9.161499119945228e-20 -1.4861993556273867 -2.075440237995849 -0.920691698351798 0.0006252407051619589 0.0 9.952649537947217e-19 -16.145415871819452 -16.13021775769184 -3.491025381691843 0.0023707514418722163 0.0 -0.6999999999999993 -1.5700000000000003 1.5700000000000003 -1.5700000000000003 -1.5700000000000003 0.0 0.0 0.0 0.0 0.0 0.0 0.0 9.161499119945228e-20 -1.4861993556273867 -2.075440237995849 -0.920691698351798 0.0006252407051619589 0.0 9.161499119945228e-20 -1.4861993556273867 -2.075440237995849 -0.920691698351798 0.0006252407051619589 0.0 -0.3129078330369898 0.0921202046453513 0.3032320146703553 2.8475298659302553 1.3245874220157179 -0.0006063792778784996 0.0 0.0 0.0 0.0 0.0 0.0 0.0 0.0 0.0 0.0 0.0 0.0 -0.3129078330369898 0.0921202046453513 0.3032320146703553 2.8475298659302553 1.3245874220157179 -0.0006063792778784996 0.0 0.0 0.0 0.0 0.0 0.0 0 25.5 25.0 24.5 24.0 23.5 23.0 0.166399 7 253 253 253 253 253 253 1 -0.007819923804226818 0.007819930313508047 -9.81999377278222 0.0 1.0 0.0 48.0 48.0 0.0 0.0 0.0 0.0 0.0 0.0 0.0 0 1 0.0
704.026 -0.6999999999999993 -1.5700000000000003 1.5700000000000003 -1.5700000000000003 -1.5700000000000003 0.0 0.0 0.0 0.0 0.0 0.0 0.0 0.0 0.0 0.0 0.0 0.0 0.0 9.161499119945228e-20 -1.4861993556273867 -2.075440237995849 -0.920691698351798 0.0006252407051619589 0.0 9.952649537947217e-19 -16.145415871819452 -16.13021775769184 -3.491025381691843 0.0023707514418722163 0.0 -0.6999999999999993 -1.5700000000000003 1.5700000000000003 -1.5700000000000003 -1.5700000000000003 0.0 0.0 0.0 0.0 0.0 0.0 0.0 9.161499119945228e-20 -1.4861993556273867 -2.075440237995849 -0.920691698351798 0.0006252407051619589 0.0 9.161499119945228e-20 -1.4861993556273867 -2.075440237995849 -0.920691698351798 0.0006252407051619589 0.0 -0.3129078330369898 0.0921202046453513 0.3032320146703553 2.8475298659302553 1.3245874220157179 -0.0006063792778784996 0.0 0.0 0.0 0.0 0.0 0.0 0.0 0.0 0.0 0.0 0.0 0.0 -0.3129078330369898 0.0921202046453513 0.3032320146703553 2.8475298659302553 1.3245874220157179 -0.0006063792778784996 0.0 0.0 0.0 0.0 0.0 0.0 0 25.5 25.0 24.5 24.0 23.5 23.0 0.181418 7 253 253 253 253 253 253 1 -0.007819923804226818 0.007819930313508047 -9.81999377278222 0.0 1.0 0.0 48.0 48.0 0.0 0.0 0.0 0.0 0.0 0.0 0.0 0 1 0.0
704.034 -0.6999999999999993 -1.5700000000000003 1.5700000000000003 -1.5700000000000003 -1.5700000000000003 0.0 0.0 0.0 0.0 0.0 0.0 0.0 0.0 0.0 0.0 0.0 0.0 0.0 9.161499119945228e-20 -1.4861993556273867 -2.075440237995849 -0.920691698351798 0.0006252407051619589 0.0 9.952649537947217e-19 -16.145415871819452 -16.13021775769184 -3.491025381691843 0.0023707514418722163 0.0 -0.6999999999999993 -1.5700000000000003 1.5700000000000003 -1.5700000000000003 -1.5700000000000003 0.0 0.0 0.0 0.0 0.0 0.0 0.0 9.161499119945228e-20 -1.4861993556273867 -2.075440237995849 -0.920691698351798 0.0006252407051619589 0.0 9.161499119945228e-20 -1.4861993556273867 -2.075440237995849 -0.920691698351798 0.0006252407051619589 0.0 -0.3129078330369898 0.0921202046453513 0.3032320146703553 2.8475298659302553 1.3245874220157179 -0.0006063792778784996 0.0 0.0 0.0 0.0 0.0 0.0 0.0 0.0 0.0 0.0 0.0 0.0 -0.3129078330369898 0.0921202046453513 0.3032320146703553 2.8475298659302553 1.3245874220157179 -0.0006063792778784996 0.0 0.0 0.0 0.0 0.0 0.0 0 25.5 25.0 24.5 24.0 23.5 23.0 0.13827 7 253 253 253 253 253 253 1 -0.007819923804226818 0.007819930313508047 -9.81999377278222 0.0 1.0 0.0 48.0 48.0 0.0 0.0 0.0 0.0 0.0 0.0 0.0 0 1 0.0
704.0419999999999 -0.6999999999999993 -1.5700000000000003 1.5700000000000003 -1.5700000000000003 -1.5700000000000003 0.0 0.0 0.0 0.0 0.0 0.0 0.0 0.0 0.0 0.0 0.0 0.0 0.0 9.161499119945228e-20 -1.4861993556273867 -2.075440237995849 -0.920691698351798 0.0006252407051619589 0.0 9.952649537947217e-19 -16.145415871819452 -16.13021775769184 -3.491025381691843 0.0023707514418722163 0.0 -0.6999999999999993 -1.5700000000000003 1.5700000000000003 -1.5700000000000003 -1.5700000000000003 0.0 0.0 0.0 0.0 0.0 0.0 0.0 9.161499119945228e-20 -1.4861993556273867 -2.075440237995849 -0.920691698351798 0.0006252407051619589 0.0 9.161499119945228e-20 -1.4861993556273867 -2.075440237995849 -0.920691698351798 0.0006252407051619589 0.0 -0.3129078330369898 0.0921202046453513 0.3032320146703553 2.8475298659302553 1.3245874220157179 -0.0006063792778784996 0.0 0.0 0.0 0.0 0.0 0.0 0.0 0.0 0.0 0.0 0.0 0.0 -0.3129078330369898 0.0921202046453513 0.3032320146703553 2.8475298659302553 1.3245874220157179 -0.0006063792778784996 0.0 0.0 0.0 0.0 0.0 0.0 0 25.5 25.0 24.5 24.0 23.5 23.0 0.135822 7 253 253 253 253 253 253 1 -0.007819923804226818 0.007819930313508047 -9.81999377278222 0.0 1.0 0.0 48.0 48.0 0.0 0.0 0.0 0.0 0.0 0.0 0.0 0 1 0.0
704.05 -0.6999999999999993 -1.5700000000000003 1.5700000000000003 -1.5700000000000003 -1.5700000000000003 0.0 0.0 0.0 0.0 0.0 0.0 0.0 0.0 0.0 0.0 0.0 0.0 0.0 9.161499119945228e-20 -1.4861993556273867 -2.075440237995849 -0.920691698351798 0.0006252407051619589 0.0 9.952649537947217e-19 -16.145415871819452 -16.13021775769184 -3.491025381691843 0.0023707514418722163 0.0 -0.6999999999999993 -1.5700000000000003 1.5700000000000003 -1.5700000000000003 -1.5700000000000003 0.0 0.0 0.0 0.0 0.0 0.0 0.0 9.161499119945228e-20 -1.4861993556273867 -2.075440237995849 -0.920691698351798 0.0006252407051619589 0.0 9.161499119945228e-20 -1.4861993556273867 -2.075440237995849 -0.920691698351798 0.0006252407051619589 0.0 -0.3129078330369898 0.0921202046453513 0.3032320146703553 2.8475298659302553 1.3245874220157179 -0.0006063792778784996 0.0 0.0 0.0 0.0 0.0 0.0 0.0 0.0 0.0 0.0 0.0 0.0 -0.3129078330369898 0.0921202046453513 0.3032320146703553 2.8475298659302553 1.3245874220157179 -0.0006063792778784996 0.0 0.0 0.0 0.0 0.0 0.0 0 25.5 25.0 24.5 24.0 23.5 23.0 0.19896799999999998 7 253 253 253 253 253 253 1 -0.007819923804226818 0.007819930313508047 -9.81999377278222 0.0 1.0 0.0 48.0 48.0 0.0 0.0 0.0 0.0 0.0 0.0 0.0 0 1 0.0
704.058 -0.6999999999999993 -1.5700000000000003 1.5700000000000003 -1.5700000000000003 -1.5700000000000003 0.0 0.0 0.0 0.0 0.0 0.0 0.0 0.0 0.0 0.0 0.0 0.0 0.0 9.161499119945228e-20 -1.4861993556273867 -2.075440237995849 -0.920691698351798 0.0006252407051619589 0.0 9.952649537947217e-19 -16.145415871819452 -16.13021775769184 -3.491025381691843 0.0023707514418722163 0.0 -0.6999999999999993 -1.5700000000000003 1.5700000000000003 -1.5700000000000003 -1.5700000000000003 0.0 0.0 0.0 0.0 0.0 0.0 0.0 9.161499119945228e-20 -1.4861993556273867 -2.075440237995849 -0.920691698351798 0.0006252407051619589 0.0 9.161499119945228e-20 -1.4861993556273867 -2.075440237995849 -0.920691698351798 0.0006252407051619589 0.0 -0.3129078330369898 0.0921202046453513 0.3032320146703553 2.8475298659302553 1.3245874220157179 -0.0006063792778784996 0.0 0.0 0.0 0.0 0.0 0.0 0.0 0.0 0.0 0.0 0.0 0.0 -0.3129078330369898 0.0921202046453513 0.3032320146703553 2.8475298659302553 1.3245874220157179 -0.0006063792778784996 0.0 0.0 0.0 0.0 0.0 0.0 0 25.5 25.0 24.5 24.0 23.5 23.0 0.16887799999999997 7 253 253 253 253 253 253 1 -0.007819923804226818 0.007819930313508047 -9.81999377278222 0.0 1.0 0.0 48.0 48.0 0.0 0.0 0.0 0.0 0.0 0.0 0.0 0 1 0.0
704.0659999999999 -0.6999999999999993 -1.5700000000000003 1.5700000000000003 -1.5700000000000003 -1.5700000000000003 0.0 0.0 0.0 0.0 0.0 0.0 0.0 0.0 0.0 0.0 0.0 0.0 0.0 9.161499119945228e-20 -1.4861993556273867 -2.075440237995849 -0.920691698351798 0.0006252407051619589 0.0 9.952649537947217e-19 -16.145415871819452 -16.13021775769184 -3.491025381691843 0.0023707514418722163 0.0 -0.6999999999999993 -1.5700000000000003 1.5700000000000003 -1.5700000000000003 -1.5700000000000003 0.0 0.0 0.0 0.0 0.0 0.0 0.0 9.161499119945228e-20 -1.4861993556273867 -2.075440237995849 -0.920691698351798 0.0006252407051619589 0.0 9.161499119945228e-20 -1.4861993556273867 -2.075440237995849 -0.920691698351798 0.0006252407051619589 0.0 -0.3129078330369898 0.0921202046453513 0.3032320146703553 2.8475298659302553 1.3245874220157179 -0.0006063792778784996 0.0 0.0 0.0 0.0 0.0 0.0 0.0 0.0 0.0 0.0 0.0 0.0 -0.3129078330369898 0.0921202046453513 0.3032320146703553 2.8475298659302553 1.3245874220157179 -0.0006063792778784996 0.0 0.0 0.0 0.0 0.0 0.0 0 25.5 25.0 24.5 24.0 23.5 23.0 0.185097 7 253 253 253 253 253 253 1 -0.007819923804226818 0.007819930313508047 -9.81999377278222 0.0 1.0 0.0 48.0 48.0 0.0 0.0 0.0 0.0 0.0 0.0 0.0 0 1 0.0
704.074 -0.6999999999999993 -1.5700000000000003 1.5700000000000003 -1.5700000000000003 -1.5700000000000003 0.0 0.0 0.0 0.0 0.0 0.0 0.0 0.0 0.0 0.0 0.0 0.0 0.0 9.161499119945228e-20 -1.4861993556273867 -2.075440237995849 -0.920691698351798 0.0006252407051619589 0.0 9.952649537947217e-19 -16.145415871819452 -16.13021775769184 -3.491025381691843 0.0023707514418722163 0.0 -0.6999999999999993 -1.5700000000000003 1.5700000000000003 -1.5700000000000003 -1.5700000000000003 0.0 0.0 0.0 0.0 0.0 0.0 0.0 9.161499119945228e-20 -1.4861993556273867 -2.075440237995849 -0.920691698351798 0.0006252407051619589 0.0 9.161499119945228e-20 -1.4861993556273867 -2.075440237995849 -0.920691698351798 0.0006252407051619589 0.0 -0.3129078330369898 0.0921202046453513 0.3032320146703553 2.8475298659302553 1.3245874220157179 -0.0006063792778784996 0.0 0.0 0.0 0.0 0.0 0.0 0.0 0.0 0.0 0.0 0.0 0.0 -0.3129078330369898 0.0921202046453513 0.3032320146703553 2.8475298659302553 1.3245874220157179 -0.0006063792778784996 0.0 0.0 0.0 0.0 0.0 0.0 0 25.5 25.0 24.5 24.0 23.5 23.0 0.139157 7 253 253 253 253 253 253 1 -0.007819923804226818 0.007819930313508047 -9.81999377278222 0.0 1.0 0.0 48.0 48.0 0.0 0.0 0.0 0.0 0.0 0.0 0.0 0 1 0.0
704.082 -0.6999999999999993 -1.5700000000000003 1.5700000000000003 -1.5700000000000003 -1.5700000000000003 0.0 0.0 0.0 0.0 0.0 0.0 0.0 0.0 0.0 0.0 0.0 0.0 0.0 9.161499119945228e-20 -1.4861993556273867 -2.075440237995849 -0.920691698351798 0.0006252407051619589 0.0 9.952649537947217e-19 -16.145415871819452 -16.13021775769184 -3.491025381691843 0.0023707514418722163 0.0 -0.6999999999999993 -1.5700000000000003 1.5700000000000003 -1.5700000000000003 -1.5700000000000003 0.0 0.0 0.0 0.0 0.0 0.0 0.0 9.161499119945228e-20 -1.4861993556273867 -2.075440237995849 -0.920691698351798 0.0006252407051619589 0.0 9.161499119945228e-20 -1.4861993556273867 -2.075440237995849 -0.920691698351798 0.0006252407051619589 0.0 -0.3129078330369898 0.0921202046453513 0.3032320146703553 2.8475298659302553 1.3245874220157179 -0.0006063792778784996 0.0 0.0 0.0 0.0 0.0 0.0 0.0 0.0 0.0 0.0 0.0 0.0 -0.3129078330369898 0.0921202046453513 0.3032320146703553 2.8475298659302553 1.3245874220157179 -0.0006063792778784996 0.0 0.0 0.0 0.0 0.0 0.0 0 25.5 25.0 24.5 24.0 23.5 23.0 0.24321299999999998 7 253 253 253 253 253 253 1 -0.007819923804226818 0.007819930313508047 -9.81999377278222 0.0 1.0 0.0 48.0 48.0 0.0 0.0 0.0 0.0 0.0 0.0 0.0 0 1 0.0
704.0899999999999 -0.6999999999999993 -1.5700000000000003 1.5700000000000003 -1.5700000000000003 -1.5700000000000003 0.0 0.0 0.0 0.0 0.0 0.0 0.0 0.0 0.0 0.0 0.0 0.0 0.0 9.161499119945228e-20 -1.4861993556273867 -2.075440237995849 -0.920691698351798 0.0006252407051619589 0.0 9.952649537947217e-19 -16.145415871819452 -16.13021775769184 -3.491025381691843 0.0023707514418722163 0.0 -0.6999999999999993 -1.5700000000000003 1.5700000000000003 -1.5700000000000003 -1.5700000000000003 0.0 0.0 0.0 0.0 0.0 0.0 0.0 9.161499119945228e-20 -1.4861993556273867 -2.075440237995849 -0.920691698351798 0.0006252407051619589 0.0 9.161499119945228e-20 -1.4861993556273867 -2.075440237995849 -0.920691698351798 0.0006252407051619589 0.0 -0.3129078330369898 0.0921202046453513 0.3032320146703553 2.8475298659302553 1.3245874220157179 -0.0006063792778784996 0.0 0.0 0.0 0.0 0.0 0.0 0.0 0.0 0.0 0.0 0.0 0.0 -0.3129078330369898 0.0921202046453513 0.3032320146703553 2.8475298659302553 1.3245874220157179 -0.0006063792778784996 0.0 0.0 0.0 0.0 0.0 0.0 0 25.5 25.0 24.5 24.0 23.5 23.0 0.168398 7 253 253 253 253 253 253 1 -0.007819923804226818 0.007819930313508047 -9.81999377278222 0.0 1.0 0.0 48.0 48.0 0.0 0.0 0.0 0.0 0.0 0.0 0.0 0 1 0.0
704.098 -0.6999999999999993 -1.5700000000000003 1.5700000000000003 -1.5700000000000003 -1.5700000000000003 0.0 0.0 0.0 0.0 0.0 0.0 0.0 0.0 0.0 0.0 0.0 0.0 0.0 9.161499119945228e-20 -1.4861993556273867 -2.075440237995849 -0.920691698351798 0.0006252407051619589 0.0 9.952649537947217e-19 -16.145415871819452 -16.13021775769184 -3.491025381691843 0.0023707514418722163 0.0 -0.6999999999999993 -1.5700000000000003 1.5700000000000003 -1.5700000000000003 -1.5700000000000003 0.0 0.0 0.0 0.0 0.0 0.0 0.0 9.161499119945228e-20 -1.4861993556273867 -2.075440237995849 -0.920691698351798 0.0006252407051619589 0.0 9.161499119945228e-20 -1.4861993556273867 -2.075440237995849 -0.920691698351798 0.0006252407051619589 0.0 -0.3129078330369898 0.0921202046453513 0.3032320146703553 2.8475298659302553 1.3245874220157179 -0.0006063792778784996 0.0 0.0 0.0 0.0 0.0 0.0 0.0 0.0 0.0 0.0 0.0 0.0 -0.3129078330369898 0.0921202046453513 0.3032320146703553 2.8475298659302553 1.3245874220157179 -0.0006063792778784996 0.0 0.0 0.0 0.0 0.0 0.0 0 25.5 25.0 24.5 24.0 23.5 23.0 0.21043 7 253 253 253 253 253 253 1 -0.007819923804226818 0.007819930313508047 -9.81999377278222 0.0 1.0 0.0 48.0 48.0 0.0 0.0 0.0 0.0 0.0 0.0 0.0 0 1 0.0
704.106 -0.6999999999999993 -1.5700000000000003 1.5700000000000003 -1.5700000000000003 -1.5700000000000003 0.0 0.0 0.0 0.0 0.0 0.0 0.0 0.0 0.0 0.0 0.0 0.0 0.0 9.161499119945228e-20 -1.4861993556273867 -2.075440237995849 -0.920691698351798 0.0006252407051619589 0.0 9.952649537947217e-19 -16.145415871819452 -16.13021775769184 -3.491025381691843 0.0023707514418722163 0.0 -0.6999999999999993 -1.5700000000000003 1.5700000000000003 -1.5700000000000003 -1.5700000000000003 0.0 0.0 0.0 0.0 0.0 0.0 0.0 9.161499119945228e-20 -1.4861993556273867 -2.075440237995849 -0.920691698351798 0.0006252407051619589 0.0 9.161499119945228e-20 -1.4861993556273867 -2.075440237995849 -0.920691698351798 0.0006252407051619589 0.0 -0.3129078330369898 0.0921202046453513 0.3032320146703553 2.8475298659302553 1.3245874220157179 -0.0006063792778784996 0.0 0.0 0.0 0.0 0.0 0.0 0.0 0.0 0.0 0.0 0.0 0.0 -0.3129078330369898 0.0921202046453513 0.3032320146703553 2.8475298659302553 1.3245874220157179 -0.0006063792778784996 0.0 0.0 0.0 0.0 0.0 0.0 0 25.5 25.0 24.5 24.0 23.5 23.0 0.182188 7 253 253 253 253 253 253 1 -0.007819923804226818 0.007819930313508047 -9.81999377278222 0.0 1.0 0.0 48.0 48.0 0.0 0.0 0.0 0.0 0.0 0.0 0.0 0 1 0.0
704.1139999999999 -0.6999999999999993 -1.5700000000000003 1.5700000000000003 -1.5700000000000003 -1.5700000000000003 0.0 0.0 0.0 0.0 0.0 0.0 0.0 0.0 0.0 0.0 0.0 0.0 0.0 9.161499119945228e-20 -1.4861993556273867 -2.075440237995849 -0.920691698351798 0.0006252407051619589 0.0 9.952649537947217e-19 -16.145415871819452 -16.13021775769184 -3.491025381691843 0.0023707514418722163 0.0 -0.6999999999999993 -1.5700000000000003 1.5700000000000003 -1.5700000000000003 -1.5700000000000003 0.0 0.0 0.0 0.0 0.0 0.0 0.0 9.161499119945228e-20 -1.4861993556273867 -2.075440237995849 -0.920691698351798 0.0006252407051619589 0.0 9.161499119945228e-20 -1.4861993556273867 -2.075440237995849 -0.920691698351798 0.0006252407051619589 0.0 -0.3129078330369898 0.0921202046453513 0.3032320146703553 2.8475298659302553 1.3245874220157179 -0.0006063792778784996 0.0 0.0 0.0 0.0 0.0 0.0 0.0 0.0 0.0 0.0 0.0 0.0 -0.3129078330369898 0.0921202046453513 0.3032320146703553 2.8475298659302553 1.3245874220157179 -0.0006063792778784996 0.0 0.0 0.0 0.0 0.0 0.0 0 25.5 25.0 24.5 24.0 23.5 23.0 0.18363300000000002 7 253 253 253 253 253 253 1 -0.007819923804226818 0.007819930313508047 -9.81999377278222 0.0 1.0 0.0 48.0 48.0 0.0 0.0 0.0 0.0 0.0 0.0 0.0 0 1 0.0
704.122 -0.6999999999999993 -1.5700000000000003 1.5700000000000003 -1.5700000000000003 -1.5700000000000003 0.0 0.0 0.0 0.0 0.0 0.0 0.0 0.0 0.0 0.0 0.0 0.0 0.0 9.161499119945228e-20 -1.4861993556273867 -2.075440237995849 -0.920691698351798 0.0006252407051619589 0.0 9.952649537947217e-19 -16.145415871819452 -16.13021775769184 -3.491025381691843 0.0023707514418722163 0.0 -0.6999999999999993 -1.5700000000000003 1.5700000000000003 -1.5700000000000003 -1.5700000000000003 0.0 0.0 0.0 0.0 0.0 0.0 0.0 9.161499119945228e-20 -1.4861993556273867 -2.075440237995849 -0.920691698351798 0.0006252407051619589 0.0 9.161499119945228e-20 -1.4861993556273867 -2.075440237995849 -0.920691698351798 0.0006252407051619589 0.0 -0.3129078330369898 0.0921202046453513 0.3032320146703553 2.8475298659302553 1.3245874220157179 -0.0006063792778784996 0.0 0.0 0.0 0.0 0.0 0.0 0.0 0.0 0.0 0.0 0.0 0.0 -0.3129078330369898 0.0921202046453513 0.3032320146703553 2.8475298659302553 1.3245874220157179 -0.0006063792778784996 0.0 0.0 0.0 0.0 0.0 0.0 0 25.5 25.0 24.5 24.0 23.5 23.0 0.143185 7 253 253 253 253 253 253 1 -0.007819923804226818 0.007819930313508047 -9.81999377278222 0.0 1.0 0.0 48.0 48.0 0.0 0.0 0.0 0.0 0.0 0.0 0.0 0 1 0.0
704.13 -0.6999999999999993 -1.5700000000000003 1.5700000000000003 -1.5700000000000003 -1.5700000000000003 0.0 0.0 0.0 0.0 0.0 0.0 0.0 0.0 0.0 0.0 0.0 0.0 0.0 9.161499119945228e-20 -1.4861993556273867 -2.075440237995849 -0.920691698351798 0.0006252407051619589 0.0 9.952649537947217e-19 -16.145415871819452 -16.13021775769184 -3.491025381691843 0.0023707514418722163 0.0 -0.6999999999999993 -1.5700000000000003 1.5700000000000003 -1.5700000000000003 -1.5700000000000003 0.0 0.0 0.0 0.0 0.0 0.0 0.0 9.161499119945228e-20 -1.4861993556273867 -2.075440237995849 -0.920691698351798 0.0006252407051619589 0.0 9.161499119945228e-20 -1.4861993556273867 -2.075440237995849 -0.920691698351798 0.0006252407051619589 0.0 -0.3129078330369898 0.0921202046453513 0.3032320146703553 2.8475298659302553 1.3245874220157179 -0.0006063792778784996 0.0 0.0 0.0 0.0 0.0 0.0 0.0 0.0 0.0 0.0 0.0 0.0 -0.3129078330369898 0.0921202046453513 0.3032320146703553 2.8475298659302553 1.3245874220157179 -0.0006063792778784996 0.0 0.0 0.0 0.0 0.0 0.0 0 25.5 25.0 24.5 24.0 23.5 23.0 0.13542500000000002 7 253 253 253 253 253 253 1 -0.007819923804226818 0.007819930313508047 -9.81999377278222 0.0 1.0 0.0 48.0 48.0 0.0 0.0 0.0 0.0 0.0 0.0 0.0 0 1 0.0
704.1379999999999 -0.6999999999999993 -1.5700000000000003 1.5700000000000003 -1.5700000000000003 -1.5700000000000003 0.0 0.0 0.0 0.0 0.0 0.0 0.0 0.0 0.0 0.0 0.0 0.0 0.0 9.161499119945228e-20 -1.4861993556273867 -2.075440237995849 -0.920691698351798 0.0006252407051619589 0.0 9.952649537947217e-19 -16.145415871819452 -16.13021775769184 -3.491025381691843 0.0023707514418722163 0.0 -0.6999999999999993 -1.5700000000000003 1.5700000000000003 -1.5700000000000003 -1.5700000000000003 0.0 0.0 0.0 0.0 0.0 0.0 0.0 9.161499119945228e-20 -1.4861993556273867 -2.075440237995849 -0.920691698351798 0.0006252407051619589 0.0 9.161499119945228e-20 -1.4861993556273867 -2.075440237995849 -0.920691698351798 0.0006252407051619589 0.0 -0.3129078330369898 0.0921202046453513 0.3032320146703553 2.8475298659302553 1.3245874220157179 -0.0006063792778784996 0.0 0.0 0.0 0.0 0.0 0.0 0.0 0.0 0.0 0.0 0.0 0.0 -0.3129078330369898 0.0921202046453513 0.3032320146703553 2.8475298659302553 1.3245874220157179 -0.0006063792778784996 0.0 0.0 0.0 0.0 0.0 0.0 0 25.5 25.0 24.5 24.0 23.5 23.0 0.177417 7 253 253 253 253 253 253 1 -0.007819923804226818 0.007819930313508047 -9.81999377278222 0.0 1.0 0.0 48.0 48.0 0.0 0.0 0.0 0.0 0.0 0.0 0.0 0 1 0.0
704.146 -0.6999999999999993 -1.5700000000000003 1.5700000000000003 -1.5700000000000003 -1.5700000000000003 0.0 0.0 0.0 0.0 0.0 0.0 0.0 0.0 0.0 0.0 0.0 0.0 0.0 9.161499119945228e-20 -1.4861993556273867 -2.075440237995849 -0.920691698351798 0.0006252407051619589 0.0 9.952649537947217e-19 -16.145415871819452 -16.13021775769184 -3.491025381691843 0.0023707514418722163 0.0 -0.6999999999999993 -1.5700000000000003 1.5700000000000003 -1.5700000000000003 -1.5700000000000003 0.0 0.0 0.0 0.0 0.0 0.0 0.0 9.161499119945228e-20 -1.4861993556273867 -2.075440237995849 -0.920691698351798 0.0006252407051619589 0.0 9.161499119945228e-20 -1.4861993556273867 -2.075440237995849 -0.920691698351798 0.0006252407051619589 0.0 -0.3129078330369898 0.0921202046453513 0.3032320146703553 2.8475298659302553 1.3245874220157179 -0.0006063792778784996 0.0 0.0 0.0 0.0 0.0 0.0 0.0 0.0 0.0 0.0 0.0 0.0 -0.3129078330369898 0.0921202046453513 0.3032320146703553 2.8475298659302553 1.3245874220157179 -0.0006063792778784996 0.0 0.0 0.0 0.0 0.0 0.0 0 25.5 25.0 24.5 24.0 23.5 23.0 0.182697 7 253 253 253 253 253 253 1 -0.007819923804226818 0.007819930313508047 -9.81999377278222 0.0 1.0 0.0 48.0 48.0 0.0 0.0 0.0 0.0 0.0 0.0 0.0 0 1 0.0
704.154 -0.6999999999999993 -1.5700000000000003 1.5700000000000003 -1.5700000000000003 -1.5700000000000003 0.0 0.0 0.0 0.0 0.0 0.0 0.0 0.0 0.0 0.0 0.0 0.0 0.0 9.161499119945228e-20 -1.4861993556273867 -2.075440237995849 -0.920691698351798 0.0006252407051619589 0.0 9.952649537947217e-19 -16.145415871819452 -16.13021775769184 -3.491025381691843 0.0023707514418722163 0.0 -0.6999999999999993 -1.5700000000000003 1.5700000000000003 -1.5700000000000003 -1.5700000000000003 0.0 0.0 0.0 0.0 0.0 0.0 0.0 9.161499119945228e-20 -1.4861993556273867 -2.075440237995849 -0.920691698351798 0.0006252407051619589 0.0 9.161499119945228e-20 -1.4861993556273867 -2.075440237995849 -0.920691698351798 0.0006252407051619589 0.0 -0.3129078330369898 0.0921202046453513 0.3032320146703553 2.8475298659302553 1.3245874220157179 -0.0006063792778784996 0.0 0.0 0.0 0.0 0.0 0.0 0.0 0.0 0.0 0.0 0.0 0.0 -0.3129078330369898 0.0921202046453513 0.3032320146703553 2.8475298659302553 1.3245874220157179 -0.0006063792778784996 0.0 0.0 0.0 0.0 0.0 0.0 0 25.5 25.0 24.5 24.0 23.5 23.0 0.157065 7 253 253 253 253 253 253 1 -0.007819923804226818 0.007819930313508047 -9.81999377278222 0.0 1.0 0.0 48.0 48.0 0.0 0.0 0.0 0.0 0.0 0.0 0.0 0 1 0.0
704.1619999999999 -0.6999999999999993 -1.5700000000000003 1.5700000000000003 -1.5700000000000003 -1.5700000000000003 0.0 0.0 0.0 0.0 0.0 0.0 0.0 0.0 0.0 0.0 0.0 0.0 0.0 9.161499119945228e-20 -1.4861993556273867 -2.075440237995849 -0.920691698351798 0.0006252407051619589 0.0 9.952649537947217e-19 -16.145415871819452 -16.13021775769184 -3.491025381691843 0.0023707514418722163 0.0 -0.6999999999999993 -1.5700000000000003 1.5700000000000003 -1.5700000000000003 -1.5700000000000003 0.0 0.0 0.0 0.0 0.0 0.0 0.0 9.161499119945228e-20 -1.4861993556273867 -2.075440237995849 -0.920691698351798 0.0006252407051619589 0.0 9.161499119945228e-20 -1.4861993556273867 -2.075440237995849 -0.920691698351798 0.0006252407051619589 0.0 -0.3129078330369898 0.0921202046453513 0.3032320146703553 2.8475298659302553 1.3245874220157179 -0.0006063792778784996 0.0 0.0 0.0 0.0 0.0 0.0 0.0 0.0 0.0 0.0 0.0 0.0 -0.3129078330369898 0.0921202046453513 0.3032320146703553 2.8475298659302553 1.3245874220157179 -0.0006063792778784996 0.0 0.0 0.0 0.0 0.0 0.0 0 25.5 25.0 24.5 24.0 23.5 23.0 0.13516399999999998 7 253 253 253 253 253 253 1 -0.007819923804226818 0.007819930313508047 -9.81999377278222 0.0 1.0 0.0 48.0 48.0 0.0 0.0 0.0 0.0 0.0 0.0 0.0 0 1 0.0
704.17 -0.6999999999999993 -1.5700000000000003 1.5700000000000003 -1.5700000000000003 -1.5700000000000003 0.0 0.0 0.0 0.0 0.0 0.0 0.0 0.0 0.0 0.0 0.0 0.0 0.0 9.161499119945228e-20 -1.4861993556273867 -2.075440237995849 -0.920691698351798 0.0006252407051619589 0.0 9.952649537947217e-19 -16.145415871819452 -16.13021775769184 -3.491025381691843 0.0023707514418722163 0.0 -0.6999999999999993 -1.5700000000000003 1.5700000000000003 -1.5700000000000003 -1.5700000000000003 0.0 0.0 0.0 0.0 0.0 0.0 0.0 9.161499119945228e-20 -1.4861993556273867 -2.075440237995849 -0.920691698351798 0.0006252407051619589 0.0 9.161499119945228e-20 -1.4861993556273867 -2.075440237995849 -0.920691698351798 0.0006252407051619589 0.0 -0.3129078330369898 0.0921202046453513 0.3032320146703553 2.8475298659302553 1.3245874220157179 -0.0006063792778784996 0.0 0.0 0.0 0.0 0.0 0.0 0.0 0.0 0.0 0.0 0.0 0.0 -0.3129078330369898 0.0921202046453513 0.3032320146703553 2.8475298659302553 1.3245874220157179 -0.0006063792778784996 0.0 0.0 0.0 0.0 0.0 0.0 0 25.5 25.0 24.5 24.0 23.5 23.0 0.169887 7 253 253 253 253 253 253 1 -0.007819923804226818 0.007819930313508047 -9.81999377278222 0.0 1.0 0.0 48.0 48.0 0.0 0.0 0.0 0.0 0.0 0.0 0.0 0 1 0.0
704.178 -0.6999999999999993 -1.5700000000000003 1.5700000000000003 -1.5700000000000003 -1.5700000000000003 0.0 0.0 0.0 0.0 0.0 0.0 0.0 0.0 0.0 0.0 0.0 0.0 0.0 9.161499119945228e-20 -1.4861993556273867 -2.075440237995849 -0.920691698351798 0.0006252407051619589 0.0 9.952649537947217e-19 -16.145415871819452 -16.13021775769184 -3.491025381691843 0.0023707514418722163 0.0 -0.6999999999999993 -1.5700000000000003 1.5700000000000003 -1.5700000000000003 -1.5700000000000003 0.0 0.0 0.0 0.0 0.0 0.0 0.0 9.161499119945228e-20 -1.4861993556273867 -2.075440237995849 -0.920691698351798 0.0006252407051619589 0.0 9.161499119945228e-20 -1.4861993556273867 -2.075440237995849 -0.920691698351798 0.0006252407051619589 0.0 -0.3129078330369898 0.0921202046453513 0.3032320146703553 2.8475298659302553 1.3245874220157179 -0.0006063792778784996 0.0 0.0 0.0 0.0 0.0 0.0 0.0 0.0 0.0 0.0 0.0 0.0 -0.3129078330369898 0.0921202046453513 0.3032320146703553 2.8475298659302553 1.3245874220157179 -0.0006063792778784996 0.0 0.0 0.0 0.0 0.0 0.0 0 25.5 25.0 24.5 24.0 23.5 23.0 0.189622 7 253 253 253 253 253 253 1 -0.007819923804226818 0.007819930313508047 -9.81999377278222 0.0 1.0 0.0 48.0 48.0 0.0 0.0 0.0 0.0 0.0 0.0 0.0 0 1 0.0
704.1859999999999 -0.6999999999999993 -1.5700000000000003 1.5700000000000003 -1.5700000000000003 -1.5700000000000003 0.0 0.0 0.0 0.0 0.0 0.0 0.0 0.0 0.0 0.0 0.0 0.0 0.0 9.161499119945228e-20 -1.4861993556273867 -2.075440237995849 -0.920691698351798 0.0006252407051619589 0.0 9.952649537947217e-19 -16.145415871819452 -16.13021775769184 -3.491025381691843 0.0023707514418722163 0.0 -0.6999999999999993 -1.5700000000000003 1.5700000000000003 -1.5700000000000003 -1.5700000000000003 0.0 0.0 0.0 0.0 0.0 0.0 0.0 9.161499119945228e-20 -1.4861993556273867 -2.075440237995849 -0.920691698351798 0.0006252407051619589 0.0 9.161499119945228e-20 -1.4861993556273867 -2.075440237995849 -0.920691698351798 0.0006252407051619589 0.0 -0.3129078330369898 0.0921202046453513 0.3032320146703553 2.8475298659302553 1.3245874220157179 -0.0006063792778784996 0.0 0.0 0.0 0.0 0.0 0.0 0.0 0.0 0.0 0.0 0.0 0.0 -0.3129078330369898 0.0921202046453513 0.3032320146703553 2.8475298659302553 1.3245874220157179 -0.0006063792778784996 0.0 0.0 0.0 0.0 0.0 0.0 0 25.5 25.0 24.5 24.0 23.5 23.0 0.14768299999999998 7 253 253 253 253 253 253 1 -0.007819923804226818 0.007819930313508047 -9.81999377278222 0.0 1.0 0.0 48.0 48.0 0.0 0.0 0.0 0.0 0.0 0.0 0.0 0 1 0.0
704.194 -0.6999999999999993 -1.5700000000000003 1.5700000000000003 -1.5700000000000003 -1.5700000000000003 0.0 0.0 0.0 0.0 0.0 0.0 0.0 0.0 0.0 0.0 0.0 0.0 0.0 9.161499119945228e-20 -1.4861993556273867 -2.075440237995849 -0.920691698351798 0.0006252407051619589 0.0 9.952649537947217e-19 -16.145415871819452 -16.13021775769184 -3.491025381691843 0.0023707514418722163 0.0 -0.6999999999999993 -1.5700000000000003 1.5700000000000003 -1.5700000000000003 -1.5700000000000003 0.0 0.0 0.0 0.0 0.0 0.0 0.0 9.161499119945228e-20 -1.4861993556273867 -2.075440237995849 -0.920691698351798 0.0006252407051619589 0.0 9.161499119945228e-20 -1.4861993556273867 -2.075440237995849 -0.920691698351798 0.0006252407051619589 0.0 -0.3129078330369898 0.0921202046453513 0.3032320146703553 2.8475298659302553 1.3245874220157179 -0.0006063792778784996 0.0 0.0 0.0 0.0 0.0 0.0 0.0 0.0 0.0 0.0 0.0 0.0 -0.3129078330369898 0.0921202046453513 0.3032320146703553 2.8475298659302553 1.3245874220157179 -0.0006063792778784996 0.0 0.0 0.0 0.0 0.0 0.0 0 25.5 25.0 24.5 24.0 23.5 23.0 0.13811299999999999 7 253 253 253 253 253 253 1 -0.007819923804226818 0.007819930313508047 -9.81999377278222 0.0 1.0 0.0 48.0 48.0 0.0 0.0 0.0 0.0 0.0 0.0 0.0 0 1 0.0
704.202 -0.6999999999999993 -1.5700000000000003 1.5700000000000003 -1.5700000000000003 -1.5700000000000003 0.0 0.0 0.0 0.0 0.0 0.0 0.0 0.0 0.0 0.0 0.0 0.0 0.0 9.161499119945228e-20 -1.4861993556273867 -2.075440237995849 -0.920691698351798 0.0006252407051619589 0.0 9.952649537947217e-19 -16.145415871819452 -16.13021775769184 -3.491025381691843 0.0023707514418722163 0.0 -0.6999999999999993 -1.5700000000000003 1.5700000000000003 -1.5700000000000003 -1.5700000000000003 0.0 0.0 0.0 0.0 0.0 0.0 0.0 9.161499119945228e-20 -1.4861993556273867 -2.075440237995849 -0.920691698351798 0.0006252407051619589 0.0 9.161499119945228e-20 -1.4861993556273867 -2.075440237995849 -0.920691698351798 0.0006252407051619589 0.0 -0.3129078330369898 0.0921202046453513 0.3032320146703553 2.8475298659302553 1.3245874220157179 -0.0006063792778784996 0.0 0.0 0.0 0.0 0.0 0.0 0.0 0.0 0.0 0.0 0.0 0.0 -0.3129078330369898 0.0921202046453513 0.3032320146703553 2.8475298659302553 1.3245874220157179 -0.0006063792778784996 0.0 0.0 0.0 0.0 0.0 0.0 0 25.5 25.0 24.5 24.0 23.5 23.0 0.403764 7 253 253 253 253 253 253 1 -0.007819923804226818 0.007819930313508047 -9.81999377278222 0.0 1.0 0.0 48.0 48.0 0.0 0.0 0.0 0.0 0.0 0.0 0.0 0 1 0.0
704.2099999999999 -0.6999999999999993 -1.5700000000000003 1.5700000000000003 -1.5700000000000003 -1.5700000000000003 0.0 0.0 0.0 0.0 0.0 0.0 0.0 0.0 0.0 0.0 0.0 0.0 0.0 9.161499119945228e-20 -1.4861993556273867 -2.075440237995849 -0.920691698351798 0.0006252407051619589 0.0 9.952649537947217e-19 -16.145415871819452 -16.13021775769184 -3.491025381691843 0.0023707514418722163 0.0 -0.6999999999999993 -1.5700000000000003 1.5700000000000003 -1.5700000000000003 -1.5700000000000003 0.0 0.0 0.0 0.0 0.0 0.0 0.0 9.161499119945228e-20 -1.4861993556273867 -2.075440237995849 -0.920691698351798 0.0006252407051619589 0.0 9.161499119945228e-20 -1.4861993556273867 -2.075440237995849 -0.920691698351798 0.0006252407051619589 0.0 -0.3129078330369898 0.0921202046453513 0.3032320146703553 2.8475298659302553 1.3245874220157179 -0.0006063792778784996 0.0 0.0 0.0 0.0 0.0 0.0 0.0 0.0 0.0 0.0 0.0 0.0 -0.3129078330369898 0.0921202046453513 0.3032320146703553 2.8475298659302553 1.3245874220157179 -0.0006063792778784996 0.0 0.0 0.0 0.0 0.0 0.0 0 25.5 25.0 24.5 24.0 23.5 23.0 0.149664 7 253 253 253 253 253 253 1 -0.007819923804226818 0.007819930313508047 -9.81999377278222 0.0 1.0 0.0 48.0 48.0 0.0 0.0 0.0 0.0 0.0 0.0 0.0 0 1 0.0
704.218 -0.6999999999999993 -1.5700000000000003 1.5700000000000003 -1.5700000000000003 -1.5700000000000003 0.0 0.0 0.0 0.0 0.0 0.0 0.0 0.0 0.0 0.0 0.0 0.0 0.0 9.161499119945228e-20 -1.4861993556273867 -2.075440237995849 -0.920691698351798 0.0006252407051619589 0.0 9.952649537947217e-19 -16.145415871819452 -16.13021775769184 -3.491025381691843 0.0023707514418722163 0.0 -0.6999999999999993 -1.5700000000000003 1.5700000000000003 -1.5700000000000003 -1.5700000000000003 0.0 0.0 0.0 0.0 0.0 0.0 0.0 9.161499119945228e-20 -1.4861993556273867 -2.075440237995849 -0.920691698351798 0.0006252407051619589 0.0 9.161499119945228e-20 -1.4861993556273867 -2.075440237995849 -0.920691698351798 0.0006252407051619589 0.0 -0.3129078330369898 0.0921202046453513 0.3032320146703553 2.8475298659302553 1.3245874220157179 -0.0006063792778784996 0.0 0.0 0.0 0.0 0.0 0.0 0.0 0.0 0.0 0.0 0.0 0.0 -0.3129078330369898 0.0921202046453513 0.3032320146703553 2.8475298659302553 1.3245874220157179 -0.0006063792778784996 0.0 0.0 0.0 0.0 0.0 0.0 0 25.5 25.0 24.5 24.0 23.5 23.0 0.203849 7 253 253 253 253 253 253 1 -0.007819923804226818 0.007819930313508047 -9.81999377278222 0.0 1.0 0.0 48.0 48.0 0.0 0.0 0.0 0.0 0.0 0.0 0.0 0 1 0.0
704.226 -0.6999999999999993 -1.5700000000000003 1.5700000000000003 -1.5700000000000003 -1.5700000000000003 0.0 0.0 0.0 0.0 0.0 0.0 0.0 0.0 0.0 0.0 0.0 0.0 0.0 9.161499119945228e-20 -1.4861993556273867 -2.075440237995849 -0.920691698351798 0.0006252407051619589 0.0 9.952649537947217e-19 -16.145415871819452 -16.13021775769184 -3.491025381691843 0.0023707514418722163 0.0 -0.6999999999999993 -1.5700000000000003 1.5700000000000003 -1.5700000000000003 -1.5700000000000003 0.0 0.0 0.0 0.0 0.0 0.0 0.0 9.161499119945228e-20 -1.4861993556273867 -2.075440237995849 -0.920691698351798 0.0006252407051619589 0.0 9.161499119945228e-20 -1.4861993556273867 -2.075440237995849 -0.920691698351798 0.0006252407051619589 0.0 -0.3129078330369898 0.0921202046453513 0.3032320146703553 2.8475298659302553 1.3245874220157179 -0.0006063792778784996 0.0 0.0 0.0 0.0 0.0 0.0 0.0 0.0 0.0 0.0 0.0 0.0 -0.3129078330369898 0.0921202046453513 0.3032320146703553 2.8475298659302553 1.3245874220157179 -0.0006063792778784996 0.0 0.0 0.0 0.0 0.0 0.0 0 25.5 25.0 24.5 24.0 23.5 23.0 0.184661 7 253 253 253 253 253 253 1 -0.007819923804226818 0.007819930313508047 -9.81999377278222 0.0 1.0 0.0 48.0 48.0 0.0 0.0 0.0 0.0 0.0 0.0 0.0 0 1 0.0
704.2339999999999 -0.6999999999999993 -1.5700000000000003 1.5700000000000003 -1.5700000000000003 -1.5700000000000003 0.0 0.0 0.0 0.0 0.0 0.0 0.0 0.0 0.0 0.0 0.0 0.0 0.0 9.161499119945228e-20 -1.4861993556273867 -2.075440237995849 -0.920691698351798 0.0006252407051619589 0.0 9.952649537947217e-19 -16.145415871819452 -16.13021775769184 -3.491025381691843 0.0023707514418722163 0.0 -0.6999999999999993 -1.5700000000000003 1.5700000000000003 -1.5700000000000003 -1.5700000000000003 0.0 0.0 0.0 0.0 0.0 0.0 0.0 9.161499119945228e-20 -1.4861993556273867 -2.075440237995849 -0.920691698351798 0.0006252407051619589 0.0 9.161499119945228e-20 -1.4861993556273867 -2.075440237995849 -0.920691698351798 0.0006252407051619589 0.0 -0.3129078330369898 0.0921202046453513 0.3032320146703553 2.8475298659302553 1.3245874220157179 -0.0006063792778784996 0.0 0.0 0.0 0.0 0.0 0.0 0.0 0.0 0.0 0.0 0.0 0.0 -0.3129078330369898 0.0921202046453513 0.3032320146703553 2.8475298659302553 1.3245874220157179 -0.0006063792778784996 0.0 0.0 0.0 0.0 0.0 0.0 0 25.5 25.0 24.5 24.0 23.5 23.0 0.168995 7 253 253 253 253 253 253 1 -0.007819923804226818 0.007819930313508047 -9.81999377278222 0.0 1.0 0.0 48.0 48.0 0.0 0.0 0.0 0.0 0.0 0.0 0.0 0 1 0.0
704.242 -0.6999999999999993 -1.5700000000000003 1.5700000000000003 -1.5700000000000003 -1.5700000000000003 0.0 0.0 0.0 0.0 0.0 0.0 0.0 0.0 0.0 0.0 0.0 0.0 0.0 9.161499119945228e-20 -1.4861993556273867 -2.075440237995849 -0.920691698351798 0.0006252407051619589 0.0 9.952649537947217e-19 -16.145415871819452 -16.13021775769184 -3.491025381691843 0.0023707514418722163 0.0 -0.6999999999999993 -1.5700000000000003 1.5700000000000003 -1.5700000000000003 -1.5700000000000003 0.0 0.0 0.0 0.0 0.0 0.0 0.0 9.161499119945228e-20 -1.4861993556273867 -2.075440237995849 -0.920691698351798 0.0006252407051619589 0.0 9.161499119945228e-20 -1.4861993556273867 -2.075440237995849 -0.920691698351798 0.0006252407051619589 0.0 -0.3129078330369898 0.0921202046453513 0.3032320146703553 2.8475298659302553 1.3245874220157179 -0.0006063792778784996 0.0 0.0 0.0 0.0 0.0 0.0 0.0 0.0 0.0 0.0 0.0 0.0 -0.3129078330369898 0.0921202046453513 0.3032320146703553 2.8475298659302553 1.3245874220157179 -0.0006063792778784996 0.0 0.0 0.0 0.0 0.0 0.0 0 25.5 25.0 24.5 24.0 23.5 23.0 0.137711 7 253 253 253 253 253 253 1 -0.007819923804226818 0.007819930313508047 -9.81999377278222 0.0 1.0 0.0 48.0 48.0 0.0 0.0 0.0 0.0 0.0 0.0 0.0 0 1 0.0
704.25 -0.6999999999999993 -1.5700000000000003 1.5700000000000003 -1.5700000000000003 -1.5700000000000003 0.0 0.0 0.0 0.0 0.0 0.0 0.0 0.0 0.0 0.0 0.0 0.0 0.0 9.161499119945228e-20 -1.4861993556273867 -2.075440237995849 -0.920691698351798 0.0006252407051619589 0.0 9.952649537947217e-19 -16.145415871819452 -16.13021775769184 -3.491025381691843 0.0023707514418722163 0.0 -0.6999999999999993 -1.5700000000000003 1.5700000000000003 -1.5700000000000003 -1.5700000000000003 0.0 0.0 0.0 0.0 0.0 0.0 0.0 9.161499119945228e-20 -1.4861993556273867 -2.075440237995849 -0.920691698351798 0.0006252407051619589 0.0 9.161499119945228e-20 -1.4861993556273867 -2.075440237995849 -0.920691698351798 0.0006252407051619589 0.0 -0.3129078330369898 0.0921202046453513 0.3032320146703553 2.8475298659302553 1.3245874220157179 -0.0006063792778784996 0.0 0.0 0.0 0.0 0.0 0.0 0.0 0.0 0.0 0.0 0.0 0.0 -0.3129078330369898 0.0921202046453513 0.3032320146703553 2.8475298659302553 1.3245874220157179 -0.0006063792778784996 0.0 0.0 0.0 0.0 0.0 0.0 0 25.5 25.0 24.5 24.0 23.5 23.0 0.14140799999999998 7 253 253 253 253 253 253 1 -0.007819923804226818 0.007819930313508047 -9.81999377278222 0.0 1.0 0.0 48.0 48.0 0.0 0.0 0.0 0.0 0.0 0.0 0.0 0 1 0.0
704.2579999999999 -0.6999999999999993 -1.5700000000000003 1.5700000000000003 -1.5700000000000003 -1.5700000000000003 0.0 0.0 0.0 0.0 0.0 0.0 0.0 0.0 0.0 0.0 0.0 0.0 0.0 9.161499119945228e-20 -1.4861993556273867 -2.075440237995849 -0.920691698351798 0.0006252407051619589 0.0 9.952649537947217e-19 -16.145415871819452 -16.13021775769184 -3.491025381691843 0.0023707514418722163 0.0 -0.6999999999999993 -1.5700000000000003 1.5700000000000003 -1.5700000000000003 -1.5700000000000003 0.0 0.0 0.0 0.0 0.0 0.0 0.0 9.161499119945228e-20 -1.4861993556273867 -2.075440237995849 -0.920691698351798 0.0006252407051619589 0.0 9.161499119945228e-20 -1.4861993556273867 -2.075440237995849 -0.920691698351798 0.0006252407051619589 0.0 -0.3129078330369898 0.0921202046453513 0.3032320146703553 2.8475298659302553 1.3245874220157179 -0.0006063792778784996 0.0 0.0 0.0 0.0 0.0 0.0 0.0 0.0 0.0 0.0 0.0 0.0 -0.3129078330369898 0.0921202046453513 0.3032320146703553 2.8475298659302553 1.3245874220157179 -0.0006063792778784996 0.0 0.0 0.0 0.0 0.0 0.0 0 25.5 25.0 24.5 24.0 23.5 23.0 0.142011 7 253 253 253 253 253 253 1 -0.007819923804226818 0.007819930313508047 -9.81999377278222 0.0 1.0 0.0 48.0 48.0 0.0 0.0 0.0 0.0 0.0 0.0 0.0 0 1 0.0
704.266 -0.6999999999999993 -1.5700000000000003 1.5700000000000003 -1.5700000000000003 -1.5700000000000003 0.0 0.0 0.0 0.0 0.0 0.0 0.0 0.0 0.0 0.0 0.0 0.0 0.0 9.161499119945228e-20 -1.4861993556273867 -2.075440237995849 -0.920691698351798 0.0006252407051619589 0.0 9.952649537947217e-19 -16.145415871819452 -16.13021775769184 -3.491025381691843 0.0023707514418722163 0.0 -0.6999999999999993 -1.5700000000000003 1.5700000000000003 -1.5700000000000003 -1.5700000000000003 0.0 0.0 0.0 0.0 0.0 0.0 0.0 9.161499119945228e-20 -1.4861993556273867 -2.075440237995849 -0.920691698351798 0.0006252407051619589 0.0 9.161499119945228e-20 -1.4861993556273867 -2.075440237995849 -0.920691698351798 0.0006252407051619589 0.0 -0.3129078330369898 0.0921202046453513 0.3032320146703553 2.8475298659302553 1.3245874220157179 -0.0006063792778784996 0.0 0.0 0.0 0.0 0.0 0.0 0.0 0.0 0.0 0.0 0.0 0.0 -0.3129078330369898 0.0921202046453513 0.3032320146703553 2.8475298659302553 1.3245874220157179 -0.0006063792778784996 0.0 0.0 0.0 0.0 0.0 0.0 0 25.5 25.0 24.5 24.0 23.5 23.0 0.20534899999999998 7 253 253 253 253 253 253 1 -0.007819923804226818 0.007819930313508047 -9.81999377278222 0.0 1.0 0.0 48.0 48.0 0.0 0.0 0.0 0.0 0.0 0.0 0.0 0 1 0.0
704.274 -0.6999999999999993 -1.5700000000000003 1.5700000000000003 -1.5700000000000003 -1.5700000000000003 0.0 0.0 0.0 0.0 0.0 0.0 0.0 0.0 0.0 0.0 0.0 0.0 0.0 9.161499119945228e-20 -1.4861993556273867 -2.075440237995849 -0.920691698351798 0.0006252407051619589 0.0 9.952649537947217e-19 -16.145415871819452 -16.13021775769184 -3.491025381691843 0.0023707514418722163 0.0 -0.6999999999999993 -1.5700000000000003 1.5700000000000003 -1.5700000000000003 -1.5700000000000003 0.0 0.0 0.0 0.0 0.0 0.0 0.0 9.161499119945228e-20 -1.4861993556273867 -2.075440237995849 -0.920691698351798 0.0006252407051619589 0.0 9.161499119945228e-20 -1.4861993556273867 -2.075440237995849 -0.920691698351798 0.0006252407051619589 0.0 -0.3129078330369898 0.0921202046453513 0.3032320146703553 2.8475298659302553 1.3245874220157179 -0.0006063792778784996 0.0 0.0 0.0 0.0 0.0 0.0 0.0 0.0 0.0 0.0 0.0 0.0 -0.3129078330369898 0.0921202046453513 0.3032320146703553 2.8475298659302553 1.3245874220157179 -0.0006063792778784996 0.0 0.0 0.0 0.0 0.0 0.0 0 25.5 25.0 24.5 24.0 23.5 23.0 0.234673 7 253 253 253 253 253 253 1 -0.007819923804226818 0.007819930313508047 -9.81999377278222 0.0 1.0 0.0 48.0 48.0 0.0 0.0 0.0 0.0 0.0 0.0 0.0 0 1 0.0
704.2819999999999 -0.6999999999999993 -1.5700000000000003 1.5700000000000003 -1.5700000000000003 -1.5700000000000003 0.0 0.0 0.0 0.0 0.0 0.0 0.0 0.0 0.0 0.0 0.0 0.0 0.0 9.161499119945228e-20 -1.4861993556273867 -2.075440237995849 -0.920691698351798 0.0006252407051619589 0.0 9.952649537947217e-19 -16.145415871819452 -16.13021775769184 -3.491025381691843 0.0023707514418722163 0.0 -0.6999999999999993 -1.5700000000000003 1.5700000000000003 -1.5700000000000003 -1.5700000000000003 0.0 0.0 0.0 0.0 0.0 0.0 0.0 9.161499119945228e-20 -1.4861993556273867 -2.075440237995849 -0.920691698351798 0.0006252407051619589 0.0 9.161499119945228e-20 -1.4861993556273867 -2.075440237995849 -0.920691698351798 0.0006252407051619589 0.0 -0.3129078330369898 0.0921202046453513 0.3032320146703553 2.8475298659302553 1.3245874220157179 -0.0006063792778784996 0.0 0.0 0.0 0.0 0.0 0.0 0.0 0.0 0.0 0.0 0.0 0.0 -0.3129078330369898 0.0921202046453513 0.3032320146703553 2.8475298659302553 1.3245874220157179 -0.0006063792778784996 0.0 0.0 0.0 0.0 0.0 0.0 0 25.5 25.0 24.5 24.0 23.5 23.0 0.13996799999999998 7 253 253 253 253 253 253 1 -0.007819923804226818 0.007819930313508047 -9.81999377278222 0.0 1.0 0.0 48.0 48.0 0.0 0.0 0.0 0.0 0.0 0.0 0.0 0 1 0.0
704.29 -0.6999999999999993 -1.5700000000000003 1.5700000000000003 -1.5700000000000003 -1.5700000000000003 0.0 0.0 0.0 0.0 0.0 0.0 0.0 0.0 0.0 0.0 0.0 0.0 0.0 9.161499119945228e-20 -1.4861993556273867 -2.075440237995849 -0.920691698351798 0.0006252407051619589 0.0 9.952649537947217e-19 -16.145415871819452 -16.13021775769184 -3.491025381691843 0.0023707514418722163 0.0 -0.6999999999999993 -1.5700000000000003 1.5700000000000003 -1.5700000000000003 -1.5700000000000003 0.0 0.0 0.0 0.0 0.0 0.0 0.0 9.161499119945228e-20 -1.4861993556273867 -2.075440237995849 -0.920691698351798 0.0006252407051619589 0.0 9.161499119945228e-20 -1.4861993556273867 -2.075440237995849 -0.920691698351798 0.0006252407051619589 0.0 -0.3129078330369898 0.0921202046453513 0.3032320146703553 2.8475298659302553 1.3245874220157179 -0.0006063792778784996 0.0 0.0 0.0 0.0 0.0 0.0 0.0 0.0 0.0 0.0 0.0 0.0 -0.3129078330369898 0.0921202046453513 0.3032320146703553 2.8475298659302553 1.3245874220157179 -0.0006063792778784996 0.0 0.0 0.0 0.0 0.0 0.0 0 25.5 25.0 24.5 24.0 23.5 23.0 0.134482 7 253 253 253 253 253 253 1 -0.007819923804226818 0.007819930313508047 -9.81999377278222 0.0 1.0 0.0 48.0 48.0 0.0 0.0 0.0 0.0 0.0 0.0 0.0 0 1 0.0
704.298 -0.6999999999999993 -1.5700000000000003 1.5700000000000003 -1.5700000000000003 -1.5700000000000003 0.0 0.0 0.0 0.0 0.0 0.0 0.0 0.0 0.0 0.0 0.0 0.0 0.0 9.161499119945228e-20 -1.4861993556273867 -2.075440237995849 -0.920691698351798 0.0006252407051619589 0.0 9.952649537947217e-19 -16.145415871819452 -16.13021775769184 -3.491025381691843 0.0023707514418722163 0.0 -0.6999999999999993 -1.5700000000000003 1.5700000000000003 -1.5700000000000003 -1.5700000000000003 0.0 0.0 0.0 0.0 0.0 0.0 0.0 9.161499119945228e-20 -1.4861993556273867 -2.075440237995849 -0.920691698351798 0.0006252407051619589 0.0 9.161499119945228e-20 -1.4861993556273867 -2.075440237995849 -0.920691698351798 0.0006252407051619589 0.0 -0.3129078330369898 0.0921202046453513 0.3032320146703553 2.8475298659302553 1.3245874220157179 -0.0006063792778784996 0.0 0.0 0.0 0.0 0.0 0.0 0.0 0.0 0.0 0.0 0.0 0.0 -0.3129078330369898 0.0921202046453513 0.3032320146703553 2.8475298659302553 1.3245874220157179 -0.0006063792778784996 0.0 0.0 0.0 0.0 0.0 0.0 0 25.5 25.0 24.5 24.0 23.5 23.0 0.17553200000000002 7 253 253 253 253 253 253 1 -0.007819923804226818 0.007819930313508047 -9.81999377278222 0.0 1.0 0.0 48.0 48.0 0.0 0.0 0.0 0.0 0.0 0.0 0.0 0 1 0.0
704.3059999999999 -0.6999999999999993 -1.5700000000000003 1.5700000000000003 -1.5700000000000003 -1.5700000000000003 0.0 0.0 0.0 0.0 0.0 0.0 0.0 0.0 0.0 0.0 0.0 0.0 0.0 9.161499119945228e-20 -1.4861993556273867 -2.075440237995849 -0.920691698351798 0.0006252407051619589 0.0 9.952649537947217e-19 -16.145415871819452 -16.13021775769184 -3.491025381691843 0.0023707514418722163 0.0 -0.6999999999999993 -1.5700000000000003 1.5700000000000003 -1.5700000000000003 -1.5700000000000003 0.0 0.0 0.0 0.0 0.0 0.0 0.0 9.161499119945228e-20 -1.4861993556273867 -2.075440237995849 -0.920691698351798 0.0006252407051619589 0.0 9.161499119945228e-20 -1.4861993556273867 -2.075440237995849 -0.920691698351798 0.0006252407051619589 0.0 -0.3129078330369898 0.0921202046453513 0.3032320146703553 2.8475298659302553 1.3245874220157179 -0.0006063792778784996 0.0 0.0 0.0 0.0 0.0 0.0 0.0 0.0 0.0 0.0 0.0 0.0 -0.3129078330369898 0.0921202046453513 0.3032320146703553 2.8475298659302553 1.3245874220157179 -0.0006063792778784996 0.0 0.0 0.0 0.0 0.0 0.0 0 25.5 25.0 24.5 24.0 23.5 23.0 0.14313399999999998 7 253 253 253 253 253 253 1 -0.007819923804226818 0.007819930313508047 -9.81999377278222 0.0 1.0 0.0 48.0 48.0 0.0 0.0 0.0 0.0 0.0 0.0 0.0 0 1 0.0
704.314 -0.6999999999999993 -1.5700000000000003 1.5700000000000003 -1.5700000000000003 -1.5700000000000003 0.0 0.0 0.0 0.0 0.0 0.0 0.0 0.0 0.0 0.0 0.0 0.0 0.0 9.161499119945228e-20 -1.4861993556273867 -2.075440237995849 -0.920691698351798 0.0006252407051619589 0.0 9.952649537947217e-19 -16.145415871819452 -16.13021775769184 -3.491025381691843 0.0023707514418722163 0.0 -0.6999999999999993 -1.5700000000000003 1.5700000000000003 -1.5700000000000003 -1.5700000000000003 0.0 0.0 0.0 0.0 0.0 0.0 0.0 9.161499119945228e-20 -1.4861993556273867 -2.075440237995849 -0.920691698351798 0.0006252407051619589 0.0 9.161499119945228e-20 -1.4861993556273867 -2.075440237995849 -0.920691698351798 0.0006252407051619589 0.0 -0.3129078330369898 0.0921202046453513 0.3032320146703553 2.8475298659302553 1.3245874220157179 -0.0006063792778784996 0.0 0.0 0.0 0.0 0.0 0.0 0.0 0.0 0.0 0.0 0.0 0.0 -0.3129078330369898 0.0921202046453513 0.3032320146703553 2.8475298659302553 1.3245874220157179 -0.0006063792778784996 0.0 0.0 0.0 0.0 0.0 0.0 0 25.5 25.0 24.5 24.0 23.5 23.0 0.17946700000000002 7 253 253 253 253 253 253 1 -0.007819923804226818 0.007819930313508047 -9.81999377278222 0.0 1.0 0.0 48.0 48.0 0.0 0.0 0.0 0.0 0.0 0.0 0.0 0 1 0.0
704.322 -0.6999999999999993 -1.5700000000000003 1.5700000000000003 -1.5700000000000003 -1.5700000000000003 0.0 0.0 0.0 0.0 0.0 0.0 0.0 0.0 0.0 0.0 0.0 0.0 0.0 9.161499119945228e-20 -1.4861993556273867 -2.075440237995849 -0.920691698351798 0.0006252407051619589 0.0 9.952649537947217e-19 -16.145415871819452 -16.13021775769184 -3.491025381691843 0.0023707514418722163 0.0 -0.6999999999999993 -1.5700000000000003 1.5700000000000003 -1.5700000000000003 -1.5700000000000003 0.0 0.0 0.0 0.0 0.0 0.0 0.0 9.161499119945228e-20 -1.4861993556273867 -2.075440237995849 -0.920691698351798 0.0006252407051619589 0.0 9.161499119945228e-20 -1.4861993556273867 -2.075440237995849 -0.920691698351798 0.0006252407051619589 0.0 -0.3129078330369898 0.0921202046453513 0.3032320146703553 2.8475298659302553 1.3245874220157179 -0.0006063792778784996 0.0 0.0 0.0 0.0 0.0 0.0 0.0 0.0 0.0 0.0 0.0 0.0 -0.3129078330369898 0.0921202046453513 0.3032320146703553 2.8475298659302553 1.3245874220157179 -0.0006063792778784996 0.0 0.0 0.0 0.0 0.0 0.0 0 25.5 25.0 24.5 24.0 23.5 23.0 0.16318000000000002 7 253 253 253 253 253 253 1 -0.007819923804226818 0.007819930313508047 -9.81999377278222 0.0 1.0 0.0 48.0 48.0 0.0 0.0 0.0 0.0 0.0 0.0 0.0 0 1 0.0
704.3299999999999 -0.6999999999999993 -1.5700000000000003 1.5700000000000003 -1.5700000000000003 -1.5700000000000003 0.0 0.0 0.0 0.0 0.0 0.0 0.0 0.0 0.0 0.0 0.0 0.0 0.0 9.161499119945228e-20 -1.4861993556273867 -2.075440237995849 -0.920691698351798 0.0006252407051619589 0.0 9.952649537947217e-19 -16.145415871819452 -16.13021775769184 -3.491025381691843 0.0023707514418722163 0.0 -0.6999999999999993 -1.5700000000000003 1.5700000000000003 -1.5700000000000003 -1.5700000000000003 0.0 0.0 0.0 0.0 0.0 0.0 0.0 9.161499119945228e-20 -1.4861993556273867 -2.075440237995849 -0.920691698351798 0.0006252407051619589 0.0 9.161499119945228e-20 -1.4861993556273867 -2.075440237995849 -0.920691698351798 0.0006252407051619589 0.0 -0.3129078330369898 0.0921202046453513 0.3032320146703553 2.8475298659302553 1.3245874220157179 -0.0006063792778784996 0.0 0.0 0.0 0.0 0.0 0.0 0.0 0.0 0.0 0.0 0.0 0.0 -0.3129078330369898 0.0921202046453513 0.3032320146703553 2.8475298659302553 1.3245874220157179 -0.0006063792778784996 0.0 0.0 0.0 0.0 0.0 0.0 0 25.5 25.0 24.5 24.0 23.5 23.0 0.180149 7 253 253 253 253 253 253 1 -0.007819923804226818 0.007819930313508047 -9.81999377278222 0.0 1.0 0.0 48.0 48.0 0.0 0.0 0.0 0.0 0.0 0.0 0.0 0 1 0.0
704.338 -0.6999999999999993 -1.5700000000000003 1.5700000000000003 -1.5700000000000003 -1.5700000000000003 0.0 0.0 0.0 0.0 0.0 0.0 0.0 0.0 0.0 0.0 0.0 0.0 0.0 9.161499119945228e-20 -1.4861993556273867 -2.075440237995849 -0.920691698351798 0.0006252407051619589 0.0 9.952649537947217e-19 -16.145415871819452 -16.13021775769184 -3.491025381691843 0.0023707514418722163 0.0 -0.6999999999999993 -1.5700000000000003 1.5700000000000003 -1.5700000000000003 -1.5700000000000003 0.0 0.0 0.0 0.0 0.0 0.0 0.0 9.161499119945228e-20 -1.4861993556273867 -2.075440237995849 -0.920691698351798 0.0006252407051619589 0.0 9.161499119945228e-20 -1.4861993556273867 -2.075440237995849 -0.920691698351798 0.0006252407051619589 0.0 -0.3129078330369898 0.0921202046453513 0.3032320146703553 2.8475298659302553 1.3245874220157179 -0.0006063792778784996 0.0 0.0 0.0 0.0 0.0 0.0 0.0 0.0 0.0 0.0 0.0 0.0 -0.3129078330369898 0.0921202046453513 0.3032320146703553 2.8475298659302553 1.3245874220157179 -0.0006063792778784996 0.0 0.0 0.0 0.0 0.0 0.0 0 25.5 25.0 24.5 24.0 23.5 23.0 0.14027799999999999 7 253 253 253 253 253 253 1 -0.007819923804226818 0.007819930313508047 -9.81999377278222 0.0 1.0 0.0 48.0 48.0 0.0 0.0 0.0 0.0 0.0 0.0 0.0 0 1 0.0
704.346 -0.6999999999999993 -1.5700000000000003 1.5700000000000003 -1.5700000000000003 -1.5700000000000003 0.0 0.0 0.0 0.0 0.0 0.0 0.0 0.0 0.0 0.0 0.0 0.0 0.0 9.161499119945228e-20 -1.4861993556273867 -2.075440237995849 -0.920691698351798 0.0006252407051619589 0.0 9.952649537947217e-19 -16.145415871819452 -16.13021775769184 -3.491025381691843 0.0023707514418722163 0.0 -0.6999999999999993 -1.5700000000000003 1.5700000000000003 -1.5700000000000003 -1.5700000000000003 0.0 0.0 0.0 0.0 0.0 0.0 0.0 9.161499119945228e-20 -1.4861993556273867 -2.075440237995849 -0.920691698351798 0.0006252407051619589 0.0 9.161499119945228e-20 -1.4861993556273867 -2.075440237995849 -0.920691698351798 0.0006252407051619589 0.0 -0.3129078330369898 0.0921202046453513 0.3032320146703553 2.8475298659302553 1.3245874220157179 -0.0006063792778784996 0.0 0.0 0.0 0.0 0.0 0.0 0.0 0.0 0.0 0.0 0.0 0.0 -0.3129078330369898 0.0921202046453513 0.3032320146703553 2.8475298659302553 1.3245874220157179 -0.0006063792778784996 0.0 0.0 0.0 0.0 0.0 0.0 0 25.5 25.0 24.5 24.0 23.5 23.0 0.135843 7 253 253 253 253 253 253 1 -0.007819923804226818 0.007819930313508047 -9.81999377278222 0.0 1.0 0.0 48.0 48.0 0.0 0.0 0.0 0.0 0.0 0.0 0.0 0 1 0.0
