moelyaakoubi/RealTimeDataUR/Scripts/robot_data.csv
timestamp,actual_q_0,actual_q_1,actual_q_2,actual_q_3,actual_q_4,actual_q_5,actual_current_0,actual_current_1,actual_current_2,actual_current_3,actual_current_4,actual_current_5
1476.5939999999998,0.7518007182463557,-1.9528202107299215,1.6097099484721924,-1.2748905059660913,-1.5102245748208603,-0.08591430141188638,-5.669176321706599e-17,-0.7748144772406357,-1.9984970428125837,-0.9572721200273628,0.047476282501612246,0.0
1476.6019999999999,0.7518007182463557,-1.9528202107299215,1.6097099484721924,-1.2748905059660913,-1.5102245748208603,-0.08591430141188638,-5.669176321706599e-17,-0.7748144772406357,-1.9984970428125837,-0.9572721200273628,0.047476282501612246,0.0
1476.61,0.7518007182463557,-1.9528202107299215,1.6097099484721924,-1.2748905059660913,-1.5102245748208603,-0.08591430141188638,-5.669176321706599e-17,-0.7748144772406357,-1.9984970428125837,-0.9572721200273628,0.047476282501612246,0.0
1476.618,0.7518007182463557,-1.9528202107299215,1.6097099484721924,-1.2748905059660913,-1.5102245748208603,-0.08591430141188638,-5.669176321706599e-17,-0.7748144772406357,-1.9984970428125837,-0.9572721200273628,0.047476282501612246,0.0
1476.626,0.7518007182463557,-1.9528202107299215,1.6097099484721924,-1.2748905059660913,-1.5102245748208603,-0.08591430141188638,-5.669176321706599e-17,-0.7748144772406357,-1.9984970428125837,-0.9572721200273628,0.047476282501612246,0.0
1476.634,0.7518007182463557,-1.9528202107299215,1.6097099484721924,-1.2748905059660913,-1.5102245748208603,-0.08591430141188638,-5.669176321706599e-17,-0.7748144772406357,-1.9984970428125837,-0.9572721200273628,0.047476282501612246,0.0
1476.6419999999998,0.7518007182463557,-1.9528202107299215,1.6097099484721924,-1.2748905059660913,-1.5102245748208603,-0.08591430141188638,-5.669176321706599e-17,-0.7748144772406357,-1.9984970428125837,-0.9572721200273628,0.047476282501612246,0.0
1476.6499999999999,0.7518007182463557,-1.9528202107299215,1.6097099484721924,-1.2748905059660913,-1.5102245748208603,-0.08591430141188638,-5.669176321706599e-17,-0.7748144772406357,-1.9984970428125837,-0.9572721200273628,0.047476282501612246,0.0
1476.658,0.7518007182463557,-1.9528202107299215,1.6097099484721924,-1.2748905059660913,-1.5102245748208603,-0.08591430141188638,-5.669176321706599e-17,-0.7748144772406357,-1.9984970428125837,-0.9572721200273628,0.047476282501612246,0.0
1476.666,0.7518007182463557,-1.9528202107299215,1.6097099484721924,-1.2748905059660913,-1.5102245748208603,-0.08591430141188638,-5.669176321706599e-17,-0.7748144772406357,-1.9984970428125837,-0.9572721200273628,0.047476282501612246,0.0
1476.674,0.7518007182463557,-1.9528202107299215,1.6097099484721924,-1.2748905059660913,-1.5102245748208603,-0.08591430141188638,-5.669176321706599e-17,-0.7748144772406357,-1.9984970428125837,-0.9572721200273628,0.047476282501612246,0.0
1476.682,0.7518007182463557,-1.9528202107299215,1.6097099484721924,-1.2748905059660913,-1.5102245748208603,-0.08591430141188638,-5.669176321706599e-17,-0.7748144772406357,-1.9984970428125837,-0.9572721200273628,0.047476282501612246,0.0
1476.6899999999998,0.7518007182463557,-1.9528202107299215,1.6097099484721924,-1.2748905059660913,-1.5102245748208603,-0.08591430141188638,-5.669176321706599e-17,-0.7748144772406357,-1.9984970428125837,-0.9572721200273628,0.047476282501612246,0.0
1476.6979999999999,0.7518007182463557,-1.9528202107299215,1.6097099484721924,-1.2748905059660913,-1.5102245748208603,-0.08591430141188638,-5.669176321706599e-17,-0.7748144772406357,-1.9984970428125837,-0.9572721200273628,0.047476282501612246,0.0
1476.706,0.7518007182463557,-1.9528202107299215,1.6097099484721924,-1.2748905059660913,-1.5102245748208603,-0.08591430141188638,-5.669176321706599e-17,-0.7748144772406357,-1.9984970428125837,-0.9572721200273628,0.047476282501612246,0.0
1476.714,0.7518007182463557,-1.9528202107299215,1.6097099484721924,-1.2748905059660913,-1.5102245748208603,-0.08591430141188638,-5.669176321706599e-17,-0.7748144772406357,-1.9984970428125837,-0.9572721200273628,0.047476282501612246,0.0
1476.722,0.7518007182463557,-1.9528202107299215,1.6097099484721924,-1.2748905059660913,-1.5102245748208603,-0.08591430141188638,-5.669176321706599e-17,-0.7748144772406357,-1.9984970428125837,-0.9572721200273628,0.047476282501612246,0.0
1476.73,0.7518007182463557,-1.9528202107299215,1.6097099484721924,-1.2748905059660913,-1.5102245748208603,-0.08591430141188638,-5.669176321706599e-17,-0.7748144772406357,-1.9984970428125837,-0.9572721200273628,0.047476282501612246,0.0
1476.7379999999998,0.7518007182463557,-1.9528202107299215,1.6097099484721924,-1.2748905059660913,-1.5102245748208603,-0.08591430141188638,-5.669176321706599e-17,-0.7748144772406357,-1.9984970428125837,-0.9572721200273628,0.047476282501612246,0.0
1476.7459999999999,0.7518007182463557,-1.9528202107299215,1.6097099484721924,-1.2748905059660913,-1.5102245748208603,-0.08591430141188638,-5.669176321706599e-17,-0.7748144772406357,-1.9984970428125837,-0.9572721200273628,0.047476282501612246,0.0
1476.754,0.7518007182463557,-1.9528202107299215,1.6097099484721924,-1.2748905059660913,-1.5102245748208603,-0.08591430141188638,-5.669176321706599e-17,-0.7748144772406357,-1.9984970428125837,-0.9572721200273628,0.047476282501612246,0.0
1476.762,0.7518007182463557,-1.9528202107299215,1.6097099484721924,-1.2748905059660913,-1.5102245748208603,-0.08591430141188638,-5.669176321706599e-17,-0.7748144772406357,-1.9984970428125837,-0.9572721200273628,0.047476282501612246,0.0
1476.77,0.7518007182463557,-1.9528202107299215,1.6097099484721924,-1.2748905059660913,-1.5102245748208603,-0.08591430141188638,-5.669176321706599e-17,-0.7748144772406357,-1.9984970428125837,-0.9572721200273628,0.047476282501612246,0.0
1476.778,0.7518007182463557,-1.9528202107299215,1.6097099484721924,-1.2748905059660913,-1.5102245748208603,-0.08591430141188638,-5.669176321706599e-17,-0.7748144772406357,-1.9984970428125837,-0.9572721200273628,0.047476282501612246,0.0
1476.7859999999998,0.7518007182463557,-1.9528202107299215,1.6097099484721924,-1.2748905059660913,-1.5102245748208603,-0.08591430141188638,-5.669176321706599e-17,-0.7748144772406357,-1.9984970428125837,-0.9572721200273628,0.047476282501612246,0.0
1476.7939999999999,0.7518007182463557,-1.9528202107299215,1.6097099484721924,-1.2748905059660913,-1.5102245748208603,-0.08591430141188638,-5.669176321706599e-17,-0.7748144772406357,-1.9984970428125837,-0.9572721200273628,0.047476282501612246,0.0
1476.802,0.7518007182463557,-1.9528202107299215,1.6097099484721924,-1.2748905059660913,-1.5102245748208603,-0.08591430141188638,-5.669176321706599e-17,-0.7748144772406357,-1.9984970428125837,-0.9572721200273628,0.047476282501612246,0.0
1476.81,0.7518007182463557,-1.9528202107299215,1.6097099484721924,-1.2748905059660913,-1.5102245748208603,-0.08591430141188638,-5.669176321706599e-17,-0.7748144772406357,-1.9984970428125837,-0.9572721200273628,0.047476282501612246,0.0
1476.818,0.7518007182463557,-1.9528202107299215,1.6097099484721924,-1.2748905059660913,-1.5102245748208603,-0.08591430141188638,-5.669176321706599e-17,-0.7748144772406357,-1.9984970428125837,-0.9572721200273628,0.047476282501612246,0.0
1476.826,0.7518007182463557,-1.9528202107299215,1.6097099484721924,-1.2748905059660913,-1.5102245748208603,-0.08591430141188638,-5.669176321706599e-17,-0.7748144772406357,-1.9984970428125837,-0.9572721200273628,0.047476282501612246,0.0
1476.8339999999998,0.7518007182463557,-1.9528202107299215,1.6097099484721924,-1.2748905059660913,-1.5102245748208603,-0.08591430141188638,-5.669176321706599e-17,-0.7748144772406357,-1.9984970428125837,-0.9572721200273628,0.047476282501612246,0.0
1476.8419999999999,0.7518007182463557,-1.9528202107299215,1.6097099484721924,-1.2748905059660913,-1.5102245748208603,-0.08591430141188638,-5.669176321706599e-17,-0.7748144772406357,-1.9984970428125837,-0.9572721200273628,0.047476282501612246,0.0
1476.85,0.7518007182463557,-1.9528202107299215,1.6097099484721924,-1.2748905059660913,-1.5102245748208603,-0.08591430141188638,-5.669176321706599e-17,-0.7748144772406357,-1.9984970428125837,-0.9572721200273628,0.047476282501612246,0.0
1476.858,0.7518007182463557,-1.9528202107299215,1.6097099484721924,-1.2748905059660913,-1.5102245748208603,-0.08591430141188638,-5.669176321706599e-17,-0.7748144772406357,-1.9984970428125837,-0.9572721200273628,0.047476282501612246,0.0
1476.866,0.7518007182463557,-1.9528202107299215,1.6097099484721924,-1.2748905059660913,-1.5102245748208603,-0.08591430141188638,-5.669176321706599e-17,-0.7748144772406357,-1.9984970428125837,-0.9572721200273628,0.047476282501612246,0.0
1476.874,0.7518007182463557,-1.9528202107299215,1.6097099484721924,-1.2748905059660913,-1.5102245748208603,-0.08591430141188638,-5.669176321706599e-17,-0.7748144772406357,-1.9984970428125837,-0.9572721200273628,0.047476282501612246,0.0
1476.8819999999998,0.7518007182463557,-1.9528202107299215,1.6097099484721924,-1.2748905059660913,-1.5102245748208603,-0.08591430141188638,-5.669176321706599e-17,-0.7748144772406357,-1.9984970428125837,-0.9572721200273628,0.047476282501612246,0.0
1476.8899999999999,0.7518007182463557,-1.9528202107299215,1.6097099484721924,-1.2748905059660913,-1.5102245748208603,-0.08591430141188638,-5.669176321706599e-17,-0.7748144772406357,-1.9984970428125837,-0.9572721200273628,0.047476282501612246,0.0
1476.898,0.7518007182463557,-1.9528202107299215,1.6097099484721924,-1.2748905059660913,-1.5102245748208603,-0.08591430141188638,-5.669176321706599e-17,-0.7748144772406357,-1.9984970428125837,-0.9572721200273628,0.047476282501612246,0.0
1476.906,0.7518007182463557,-1.9528202107299215,1.6097099484721924,-1.2748905059660913,-1.5102245748208603,-0.08591430141188638,-5.669176321706599e-17,-0.7748144772406357,-1.9984970428125837,-0.9572721200273628,0.047476282501612246,0.0
1476.914,0.7518007182463557,-1.9528202107299215,1.6097099484721924,-1.2748905059660913,-1.5102245748208603,-0.08591430141188638,-5.669176321706599e-17,-0.7748144772406357,-1.9984970428125837,-0.9572721200273628,0.047476282501612246,0.0
1476.922,0.7518007182463557,-1.9528202107299215,1.6097099484721924,-1.2748905059660913,-1.5102245748208603,-0.08591430141188638,-5.669176321706599e-17,-0.7748144772406357,-1.9984970428125837,-0.9572721200273628,0.047476282501612246,0.0
1476.9299999999998,0.7518007182463557,-1.9528202107299215,1.6097099484721924,-1.2748905059660913,-1.5102245748208603,-0.08591430141188638,-5.669176321706599e-17,-0.7748144772406357,-1.9984970428125837,-0.9572721200273628,0.047476282501612246,0.0
1476.9379999999999,0.7518007182463557,-1.9528202107299215,1.6097099484721924,-1.2748905059660913,-1.5102245748208603,-0.08591430141188638,-5.669176321706599e-17,-0.7748144772406357,-1.9984970428125837,-0.9572721200273628,0.047476282501612246,0.0
1476.946,0.7518007182463557,-1.9528202107299215,1.6097099484721924,-1.2748905059660913,-1.5102245748208603,-0.08591430141188638,-5.669176321706599e-17,-0.7748144772406357,-1.9984970428125837,-0.9572721200273628,0.047476282501612246,0.0
1476.954,0.7518007182463557,-1.9528202107299215,1.6097099484721924,-1.2748905059660913,-1.5102245748208603,-0.08591430141188638,-5.669176321706599e-17,-0.7748144772406357,-1.9984970428125837,-0.9572721200273628,0.047476282501612246,0.0
1476.962,0.7518007182463557,-1.9528202107299215,1.6097099484721924,-1.2748905059660913,-1.5102245748208603,-0.08591430141188638,-5.669176321706599e-17,-0.7748144772406357,-1.9984970428125837,-0.9572721200273628,0.047476282501612246,0.0
1476.97,0.7518007182463557,-1.9528202107299215,1.6097099484721924,-1.2748905059660913,-1.5102245748208603,-0.08591430141188638,-5.669176321706599e-17,-0.7748144772406357,-1.9984970428125837,-0.9572721200273628,0.047476282501612246,0.0
1476.9779999999998,0.7518007182463557,-1.9528202107299215,1.6097099484721924,-1.2748905059660913,-1.5102245748208603,-0.08591430141188638,-5.669176321706599e-17,-0.7748144772406357,-1.9984970428125837,-0.9572721200273628,0.047476282501612246,0.0
1476.9859999999999,0.7518007182463557,-1.9528202107299215,1.6097099484721924,-1.2748905059660913,-1.5102245748208603,-0.08591430141188638,-5.669176321706599e-17,-0.7748144772406357,-1.9984970428125837,-0.9572721200273628,0.047476282501612246,0.0
1476.994,0.7518007182463557,-1.9528202107299215,1.6097099484721924,-1.2748905059660913,-1.5102245748208603,-0.08591430141188638,-5.669176321706599e-17,-0.7748144772406357,-1.9984970428125837,-0.9572721200273628,0.047476282501612246,0.0
1477.002,0.7518007182463557,-1.9528202107299215,1.6097099484721924,-1.2748905059660913,-1.5102245748208603,-0.08591430141188638,-5.669176321706599e-17,-0.7748144772406357,-1.9984970428125837,-0.9572721200273628,0.047476282501612246,0.0
1477.01,0.7518007182463557,-1.9528202107299215,1.6097099484721924,-1.2748905059660913,-1.5102245748208603,-0.08591430141188638,-5.669176321706599e-17,-0.7748144772406357,-1.9984970428125837,-0.9572721200273628,0.047476282501612246,0.0
1477.018,0.7518007182463557,-1.9528202107299215,1.6097099484721924,-1.2748905059660913,-1.5102245748208603,-0.08591430141188638,-5.669176321706599e-17,-0.7748144772406357,-1.9984970428125837,-0.9572721200273628,0.047476282501612246,0.0
1477.0259999999998,0.7518007182463557,-1.9528202107299215,1.6097099484721924,-1.2748905059660913,-1.5102245748208603,-0.08591430141188638,-5.669176321706599e-17,-0.7748144772406357,-1.9984970428125837,-0.9572721200273628,0.047476282501612246,0.0
1477.0339999999999,0.7518007182463557,-1.9528202107299215,1.6097099484721924,-1.2748905059660913,-1.5102245748208603,-0.08591430141188638,-5.669176321706599e-17,-0.7748144772406357,-1.9984970428125837,-0.9572721200273628,0.047476282501612246,0.0
1477.042,0.7518007182463557,-1.9528202107299215,1.6097099484721924,-1.2748905059660913,-1.5102245748208603,-0.08591430141188638,-5.669176321706599e-17,-0.7748144772406357,-1.9984970428125837,-0.9572721200273628,0.047476282501612246,0.0
1477.05,0.7518007182463557,-1.9528202107299215,1.6097099484721924,-1.2748905059660913,-1.5102245748208603,-0.08591430141188638,-5.669176321706599e-17,-0.7748144772406357,-1.9984970428125837,-0.9572721200273628,0.047476282501612246,0.0
1477.058,0.7518007182463557,-1.9528202107299215,1.6097099484721924,-1.2748905059660913,-1.5102245748208603,-0.08591430141188638,-5.669176321706599e-17,-0.7748144772406357,-1.9984970428125837,-0.9572721200273628,0.047476282501612246,0.0
1477.066,0.7518007182463557,-1.9528202107299215,1.6097099484721924,-1.2748905059660913,-1.5102245748208603,-0.08591430141188638,-5.669176321706599e-17,-0.7748144772406357,-1.9984970428125837,-0.9572721200273628,0.047476282501612246,0.0
1477.0739999999998,0.7518007182463557,-1.9528202107299215,1.6097099484721924,-1.2748905059660913,-1.5102245748208603,-0.08591430141188638,-5.669176321706599e-17,-0.7748144772406357,-1.9984970428125837,-0.9572721200273628,0.047476282501612246,0.0
1477.0819999999999,0.7518007182463557,-1.9528202107299215,1.6097099484721924,-1.2748905059660913,-1.5102245748208603,-0.08591430141188638,-5.669176321706599e-17,-0.7748144772406357,-1.9984970428125837,-0.9572721200273628,0.047476282501612246,0.0
1477.09,0.7518007182463557,-1.9528202107299215,1.6097099484721924,-1.2748905059660913,-1.5102245748208603,-0.08591430141188638,-5.669176321706599e-17,-0.7748144772406357,-1.9984970428125837,-0.9572721200273628,0.047476282501612246,0.0
1477.098,0.7518007182463557,-1.9528202107299215,1.6097099484721924,-1.2748905059660913,-1.5102245748208603,-0.08591430141188638,-5.669176321706599e-17,-0.7748144772406357,-1.9984970428125837,-0.9572721200273628,0.047476282501612246,0.0
1477.106,0.7518007182463557,-1.9528202107299215,1.6097099484721924,-1.2748905059660913,-1.5102245748208603,-0.08591430141188638,-5.669176321706599e-17,-0.7748144772406357,-1.9984970428125837,-0.9572721200273628,0.047476282501612246,0.0
1477.114,0.7518007182463557,-1.9528202107299215,1.6097099484721924,-1.2748905059660913,-1.5102245748208603,-0.08591430141188638,-5.669176321706599e-17,-0.7748144772406357,-1.9984970428125837,-0.9572721200273628,0.047476282501612246,0.0
1477.1219999999998,0.7518007182463557,-1.9528202107299215,1.6097099484721924,-1.2748905059660913,-1.5102245748208603,-0.08591430141188638,-5.669176321706599e-17,-0.7748144772406357,-1.9984970428125837,-0.9572721200273628,0.047476282501612246,0.0
1477.1299999999999,0.7518007182463557,-1.9528202107299215,1.6097099484721924,-1.2748905059660913,-1.5102245748208603,-0.08591430141188638,-5.669176321706599e-17,-0.7748144772406357,-1.9984970428125837,-0.9572721200273628,0.047476282501612246,0.0
1477.138,0.7518007182463557,-1.9528202107299215,1.6097099484721924,-1.2748905059660913,-1.5102245748208603,-0.08591430141188638,-5.669176321706599e-17,-0.7748144772406357,-1.9984970428125837,-0.9572721200273628,0.047476282501612246,0.0
1477.146,0.7518007182463557,-1.9528202107299215,1.6097099484721924,-1.2748905059660913,-1.5102245748208603,-0.08591430141188638,-5.669176321706599e-17,-0.7748144772406357,-1.9984970428125837,-0.9572721200273628,0.047476282501612246,0.0
1477.154,0.7518007182463557,-1.9528202107299215,1.6097099484721924,-1.2748905059660913,-1.5102245748208603,-0.08591430141188638,-5.669176321706599e-17,-0.7748144772406357,-1.9984970428125837,-0.9572721200273628,0.047476282501612246,0.0
1477.162,0.7518007182463557,-1.9528202107299215,1.6097099484721924,-1.2748905059660913,-1.5102245748208603,-0.08591430141188638,-5.669176321706599e-17,-0.7748144772406357,-1.9984970428125837,-0.9572721200273628,0.047476282501612246,0.0
1477.1699999999998,0.7518007182463557,-1.9528202107299215,1.6097099484721924,-1.2748905059660913,-1.5102245748208603,-0.08591430141188638,-5.669176321706599e-17,-0.7748144772406357,-1.9984970428125837,-0.9572721200273628,0.047476282501612246,0.0
1477.1779999999999,0.7518007182463557,-1.9528202107299215,1.6097099484721924,-1.2748905059660913,-1.5102245748208603,-0.08591430141188638,-5.669176321706599e-17,-0.7748144772406357,-1.9984970428125837,-0.9572721200273628,0.047476282501612246,0.0
1477.186,0.7518007182463557,-1.9528202107299215,1.6097099484721924,-1.2748905059660913,-1.5102245748208603,-0.08591430141188638,-5.669176321706599e-17,-0.7748144772406357,-1.9984970428125837,-0.9572721200273628,0.047476282501612246,0.0
1477.194,0.7518007182463557,-1.9528202107299215,1.6097099484721924,-1.2748905059660913,-1.5102245748208603,-0.08591430141188638,-5.669176321706599e-17,-0.7748144772406357,-1.9984970428125837,-0.9572721200273628,0.047476282501612246,0.0
1477.202,0.7518007182463557,-1.9528202107299215,1.6097099484721924,-1.2748905059660913,-1.5102245748208603,-0.08591430141188638,-5.669176321706599e-17,-0.7748144772406357,-1.9984970428125837,-0.9572721200273628,0.047476282501612246,0.0
1477.21,0.7518007182463557,-1.9528202107299215,1.6097099484721924,-1.2748905059660913,-1.5102245748208603,-0.08591430141188638,-5.669176321706599e-17,-0.7748144772406357,-1.9984970428125837,-0.9572721200273628,0.047476282501612246,0.0
1477.2179999999998,0.7518007182463557,-1.9528202107299215,1.6097099484721924,-1.2748905059660913,-1.5102245748208603,-0.08591430141188638,-5.669176321706599e-17,-0.7748144772406357,-1.9984970428125837,-0.9572721200273628,0.047476282501612246,0.0
1477.2259999999999,0.7518007182463557,-1.9528202107299215,1.6097099484721924,-1.2748905059660913,-1.5102245748208603,-0.08591430141188638,-5.669176321706599e-17,-0.7748144772406357,-1.9984970428125837,-0.9572721200273628,0.047476282501612246,0.0
1477.234,0.7518007182463557,-1.9528202107299215,1.6097099484721924,-1.2748905059660913,-1.5102245748208603,-0.08591430141188638,-5.669176321706599e-17,-0.7748144772406357,-1.9984970428125837,-0.9572721200273628,0.047476282501612246,0.0
1477.242,0.7518007182463557,-1.9528202107299215,1.6097099484721924,-1.2748905059660913,-1.5102245748208603,-0.08591430141188638,-5.669176321706599e-17,-0.7748144772406357,-1.9984970428125837,-0.9572721200273628,0.047476282501612246,0.0
1477.25,0.7518007182463557,-1.9528202107299215,1.6097099484721924,-1.2748905059660913,-1.5102245748208603,-0.08591430141188638,-5.669176321706599e-17,-0.7748144772406357,-1.9984970428125837,-0.9572721200273628,0.047476282501612246,0.0
1477.258,0.7518007182463557,-1.9528202107299215,1.6097099484721924,-1.2748905059660913,-1.5102245748208603,-0.08591430141188638,-5.669176321706599e-17,-0.7748144772406357,-1.9984970428125837,-0.9572721200273628,0.047476282501612246,0.0
1477.2659999999998,0.7518007182463557,-1.9528202107299215,1.6097099484721924,-1.2748905059660913,-1.5102245748208603,-0.08591430141188638,-5.669176321706599e-17,-0.7748144772406357,-1.9984970428125837,-0.9572721200273628,0.047476282501612246,0.0
1477.274,0.7518007182463557,-1.9528202107299215,1.6097099484721924,-1.2748905059660913,-1.5102245748208603,-0.08591430141188638,-5.669176321706599e-17,-0.7748144772406357,-1.9984970428125837,-0.9572721200273628,0.047476282501612246,0.0
1477.282,0.7518007182463557,-1.9528202107299215,1.6097099484721924,-1.2748905059660913,-1.5102245748208603,-0.08591430141188638,-5.669176321706599e-17,-0.7748144772406357,-1.9984970428125837,-0.9572721200273628,0.047476282501612246,0.0
1477.29,0.7518007182463557,-1.9528202107299215,1.6097099484721924,-1.2748905059660913,-1.5102245748208603,-0.08591430141188638,-5.669176321706599e-17,-0.7748144772406357,-1.9984970428125837,-0.9572721200273628,0.047476282501612246,0.0
1477.298,0.7518007182463557,-1.9528202107299215,1.6097099484721924,-1.2748905059660913,-1.5102245748208603,-0.08591430141188638,-5.669176321706599e-17,-0.7748144772406357,-1.9984970428125837,-0.9572721200273628,0.047476282501612246,0.0
1477.306,0.7518007182463557,-1.9528202107299215,1.6097099484721924,-1.2748905059660913,-1.5102245748208603,-0.08591430141188638,-5.669176321706599e-17,-0.7748144772406357,-1.9984970428125837,-0.9572721200273628,0.047476282501612246,0.0
1477.3139999999999,0.7518007182463557,-1.9528202107299215,1.6097099484721924,-1.2748905059660913,-1.5102245748208603,-0.08591430141188638,-5.669176321706599e-17,-0.7748144772406357,-1.9984970428125837,-0.9572721200273628,0.047476282501612246,0.0
1477.322,0.7518007182463557,-1.9528202107299215,1.6097099484721924,-1.2748905059660913,-1.5102245748208603,-0.08591430141188638,-5.669176321706599e-17,-0.7748144772406357,-1.9984970428125837,-0.9572721200273628,0.047476282501612246,0.0
1477.33,0.7518007182463557,-1.9528202107299215,1.6097099484721924,-1.2748905059660913,-1.5102245748208603,-0.08591430141188638,-5.669176321706599e-17,-0.7748144772406357,-1.9984970428125837,-0.9572721200273628,0.047476282501612246,0.0
1477.338,0.7518007182463557,-1.9528202107299215,1.6097099484721924,-1.2748905059660913,-1.5102245748208603,-0.08591430141188638,-5.669176321706599e-17,-0.7748144772406357,-1.9984970428125837,-0.9572721200273628,0.047476282501612246,0.0
1477.346,0.7518007182463557,-1.9528202107299215,1.6097099484721924,-1.2748905059660913,-1.5102245748208603,-0.08591430141188638,-5.669176321706599e-17,-0.7748144772406357,-1.9984970428125837,-0.9572721200273628,0.047476282501612246,0.0
1477.354,0.7518007182463557,-1.9528202107299215,1.6097099484721924,-1.2748905059660913,-1.5102245748208603,-0.08591430141188638,-5.669176321706599e-17,-0.7748144772406357,-1.9984970428125837,-0.9572721200273628,0.047476282501612246,0.0
1477.3619999999999,0.7518007182463557,-1.9528202107299215,1.6097099484721924,-1.2748905059660913,-1.5102245748208603,-0.08591430141188638,-5.669176321706599e-17,-0.7748144772406357,-1.9984970428125837,-0.9572721200273628,0.047476282501612246,0.0
1477.37,0.7518007182463557,-1.9528202107299215,1.6097099484721924,-1.2748905059660913,-1.5102245748208603,-0.08591430141188638,-5.669176321706599e-17,-0.7748144772406357,-1.9984970428125837,-0.9572721200273628,0.047476282501612246,0.0
1477.378,0.7518007182463557,-1.9528202107299215,1.6097099484721924,-1.2748905059660913,-1.5102245748208603,-0.08591430141188638,-5.669176321706599e-17,-0.7748144772406357,-1.9984970428125837,-0.9572721200273628,0.047476282501612246,0.0
1477.386,0.7518007182463557,-1.9528202107299215,1.6097099484721924,-1.2748905059660913,-1.5102245748208603,-0.08591430141188638,-5.669176321706599e-17,-0.7748144772406357,-1.9984970428125837,-0.9572721200273628,0.047476282501612246,0.0
1477.394,0.7518007182463557,-1.9528202107299215,1.6097099484721924,-1.2748905059660913,-1.5102245748208603,-0.08591430141188638,-5.669176321706599e-17,-0.7748144772406357,-1.9984970428125837,-0.9572721200273628,0.047476282501612246,0.0
1477.402,0.7518007182463557,-1.9528202107299215,1.6097099484721924,-1.2748905059660913,-1.5102245748208603,-0.08591430141188638,-5.669176321706599e-17,-0.7748144772406357,-1.9984970428125837,-0.9572721200273628,0.047476282501612246,0.0
1477.4099999999999,0.7518007182463557,-1.9528202107299215,1.6097099484721924,-1.2748905059660913,-1.5102245748208603,-0.08591430141188638,-5.669176321706599e-17,-0.7748144772406357,-1.9984970428125837,-0.9572721200273628,0.047476282501612246,0.0
1477.418,0.7518007182463557,-1.9528202107299215,1.6097099484721924,-1.2748905059660913,-1.5102245748208603,-0.08591430141188638,-5.669176321706599e-17,-0.7748144772406357,-1.9984970428125837,-0.9572721200273628,0.047476282501612246,0.0
1477.426,0.7518007182463557,-1.9528202107299215,1.6097099484721924,-1.2748905059660913,-1.5102245748208603,-0.08591430141188638,-5.669176321706599e-17,-0.7748144772406357,-1.9984970428125837,-0.9572721200273628,0.047476282501612246,0.0
1477.434,0.7518007182463557,-1.9528202107299215,1.6097099484721924,-1.2748905059660913,-1.5102245748208603,-0.08591430141188638,-5.669176321706599e-17,-0.7748144772406357,-1.9984970428125837,-0.9572721200273628,0.047476282501612246,0.0
1477.442,0.7518007182463557,-1.9528202107299215,1.6097099484721924,-1.2748905059660913,-1.5102245748208603,-0.08591430141188638,-5.669176321706599e-17,-0.7748144772406357,-1.9984970428125837,-0.9572721200273628,0.047476282501612246,0.0
1477.45,0.7518007182463557,-1.9528202107299215,1.6097099484721924,-1.2748905059660913,-1.5102245748208603,-0.08591430141188638,-5.669176321706599e-17,-0.7748144772406357,-1.9984970428125837,-0.9572721200273628,0.047476282501612246,0.0
1477.4579999999999,0.7518007182463557,-1.9528202107299215,1.6097099484721924,-1.2748905059660913,-1.5102245748208603,-0.08591430141188638,-5.669176321706599e-17,-0.7748144772406357,-1.9984970428125837,-0.9572721200273628,0.047476282501612246,0.0
1477.466,0.7518007182463557,-1.9528202107299215,1.6097099484721924,-1.2748905059660913,-1.5102245748208603,-0.08591430141188638,-5.669176321706599e-17,-0.7748144772406357,-1.9984970428125837,-0.9572721200273628,0.047476282501612246,0.0
1477.474,0.7518007182463557,-1.9528202107299215,1.6097099484721924,-1.2748905059660913,-1.5102245748208603,-0.08591430141188638,-5.669176321706599e-17,-0.7748144772406357,-1.9984970428125837,-0.9572721200273628,0.047476282501612246,0.0
1477.482,0.7518007182463557,-1.9528202107299215,1.6097099484721924,-1.2748905059660913,-1.5102245748208603,-0.08591430141188638,-5.669176321706599e-17,-0.7748144772406357,-1.9984970428125837,-0.9572721200273628,0.047476282501612246,0.0
1477.49,0.7518007182463557,-1.9528202107299215,1.6097099484721924,-1.2748905059660913,-1.5102245748208603,-0.08591430141188638,-5.669176321706599e-17,-0.7748144772406357,-1.9984970428125837,-0.9572721200273628,0.047476282501612246,0.0
1477.4979999999998,0.7518007182463557,-1.9528202107299215,1.6097099484721924,-1.2748905059660913,-1.5102245748208603,-0.08591430141188638,-5.669176321706599e-17,-0.7748144772406357,-1.9984970428125837,-0.9572721200273628,0.047476282501612246,0.0
1477.5059999999999,0.7518007182463557,-1.9528202107299215,1.6097099484721924,-1.2748905059660913,-1.5102245748208603,-0.08591430141188638,-5.669176321706599e-17,-0.7748144772406357,-1.9984970428125837,-0.9572721200273628,0.047476282501612246,0.0
1477.514,0.7518007182463557,-1.9528202107299215,1.6097099484721924,-1.2748905059660913,-1.5102245748208603,-0.08591430141188638,-5.669176321706599e-17,-0.7748144772406357,-1.9984970428125837,-0.9572721200273628,0.047476282501612246,0.0
1477.522,0.7518007182463557,-1.9528202107299215,1.6097099484721924,-1.2748905059660913,-1.5102245748208603,-0.08591430141188638,-5.669176321706599e-17,-0.7748144772406357,-1.9984970428125837,-0.9572721200273628,0.047476282501612246,0.0
1477.53,0.7518007182463557,-1.9528202107299215,1.6097099484721924,-1.2748905059660913,-1.5102245748208603,-0.08591430141188638,-5.669176321706599e-17,-0.7748144772406357,-1.9984970428125837,-0.9572721200273628,0.047476282501612246,0.0
1477.538,0.7518007182463557,-1.9528202107299215,1.6097099484721924,-1.2748905059660913,-1.5102245748208603,-0.08591430141188638,-5.669176321706599e-17,-0.7748144772406357,-1.9984970428125837,-0.9572721200273628,0.047476282501612246,0.0
1477.5459999999998,0.7518007182463557,-1.9528202107299215,1.6097099484721924,-1.2748905059660913,-1.5102245748208603,-0.08591430141188638,-5.669176321706599e-17,-0.7748144772406357,-1.9984970428125837,-0.9572721200273628,0.047476282501612246,0.0
1477.5539999999999,0.7518007182463557,-1.9528202107299215,1.6097099484721924,-1.2748905059660913,-1.5102245748208603,-0.08591430141188638,-5.669176321706599e-17,-0.7748144772406357,-1.9984970428125837,-0.9572721200273628,0.047476282501612246,0.0
1477.562,0.7518007182463557,-1.9528202107299215,1.6097099484721924,-1.2748905059660913,-1.5102245748208603,-0.08591430141188638,-5.669176321706599e-17,-0.7748144772406357,-1.9984970428125837,-0.9572721200273628,0.047476282501612246,0.0
1477.57,0.7518007182463557,-1.9528202107299215,1.6097099484721924,-1.2748905059660913,-1.5102245748208603,-0.08591430141188638,-5.669176321706599e-17,-0.7748144772406357,-1.9984970428125837,-0.9572721200273628,0.047476282501612246,0.0
1477.578,0.7518007182463557,-1.9528202107299215,1.6097099484721924,-1.2748905059660913,-1.5102245748208603,-0.08591430141188638,-5.669176321706599e-17,-0.7748144772406357,-1.9984970428125837,-0.9572721200273628,0.047476282501612246,0.0
1477.586,0.7518007182463557,-1.9528202107299215,1.6097099484721924,-1.2748905059660913,-1.5102245748208603,-0.08591430141188638,-5.669176321706599e-17,-0.7748144772406357,-1.9984970428125837,-0.9572721200273628,0.047476282501612246,0.0
1477.5939999999998,0.7518007182463557,-1.9528202107299215,1.6097099484721924,-1.2748905059660913,-1.5102245748208603,-0.08591430141188638,-5.669176321706599e-17,-0.7748144772406357,-1.9984970428125837,-0.9572721200273628,0.047476282501612246,0.0
1477.6019999999999,0.7518007182463557,-1.9528202107299215,1.6097099484721924,-1.2748905059660913,-1.5102245748208603,-0.08591430141188638,-5.669176321706599e-17,-0.7748144772406357,-1.9984970428125837,-0.9572721200273628,0.047476282501612246,0.0
1477.61,0.7518007182463557,-1.9528202107299215,1.6097099484721924,-1.2748905059660913,-1.5102245748208603,-0.08591430141188638,-5.669176321706599e-17,-0.7748144772406357,-1.9984970428125837,-0.9572721200273628,0.047476282501612246,0.0
1477.618,0.7518007182463557,-1.9528202107299215,1.6097099484721924,-1.2748905059660913,-1.5102245748208603,-0.08591430141188638,-5.669176321706599e-17,-0.7748144772406357,-1.9984970428125837,-0.9572721200273628,0.047476282501612246,0.0
1477.626,0.7518007182463557,-1.9528202107299215,1.6097099484721924,-1.2748905059660913,-1.5102245748208603,-0.08591430141188638,-5.669176321706599e-17,-0.7748144772406357,-1.9984970428125837,-0.9572721200273628,0.047476282501612246,0.0
1477.634,0.7518007182463557,-1.9528202107299215,1.6097099484721924,-1.2748905059660913,-1.5102245748208603,-0.08591430141188638,-5.669176321706599e-17,-0.7748144772406357,-1.9984970428125837,-0.9572721200273628,0.047476282501612246,0.0
1477.6419999999998,0.7518007182463557,-1.9528202107299215,1.6097099484721924,-1.2748905059660913,-1.5102245748208603,-0.08591430141188638,-5.669176321706599e-17,-0.7748144772406357,-1.9984970428125837,-0.9572721200273628,0.047476282501612246,0.0
1477.6499999999999,0.7518007182463557,-1.9528202107299215,1.6097099484721924,-1.2748905059660913,-1.5102245748208603,-0.08591430141188638,-5.669176321706599e-17,-0.7748144772406357,-1.9984970428125837,-0.9572721200273628,0.047476282501612246,0.0
1477.658,0.7518007182463557,-1.9528202107299215,1.6097099484721924,-1.2748905059660913,-1.5102245748208603,-0.08591430141188638,-5.669176321706599e-17,-0.7748144772406357,-1.9984970428125837,-0.9572721200273628,0.047476282501612246,0.0
1477.666,0.7518007182463557,-1.9528202107299215,1.6097099484721924,-1.2748905059660913,-1.5102245748208603,-0.08591430141188638,-5.669176321706599e-17,-0.7748144772406357,-1.9984970428125837,-0.9572721200273628,0.047476282501612246,0.0
1477.674,0.7518007182463557,-1.9528202107299215,1.6097099484721924,-1.2748905059660913,-1.5102245748208603,-0.08591430141188638,-5.669176321706599e-17,-0.7748144772406357,-1.9984970428125837,-0.9572721200273628,0.047476282501612246,0.0
1477.682,0.7518007182463557,-1.9528202107299215,1.6097099484721924,-1.2748905059660913,-1.5102245748208603,-0.08591430141188638,-5.669176321706599e-17,-0.7748144772406357,-1.9984970428125837,-0.9572721200273628,0.047476282501612246,0.0
1477.6899999999998,0.7518007182463557,-1.9528202107299215,1.6097099484721924,-1.2748905059660913,-1.5102245748208603,-0.08591430141188638,-5.669176321706599e-17,-0.7748144772406357,-1.9984970428125837,-0.9572721200273628,0.047476282501612246,0.0
1477.6979999999999,0.7518007182463557,-1.9528202107299215,1.6097099484721924,-1.2748905059660913,-1.5102245748208603,-0.08591430141188638,-5.669176321706599e-17,-0.7748144772406357,-1.9984970428125837,-0.9572721200273628,0.047476282501612246,0.0
1477.706,0.7518007182463557,-1.9528202107299215,1.6097099484721924,-1.2748905059660913,-1.5102245748208603,-0.08591430141188638,-5.669176321706599e-17,-0.7748144772406357,-1.9984970428125837,-0.9572721200273628,0.047476282501612246,0.0
1477.714,0.7518007182463557,-1.9528202107299215,1.6097099484721924,-1.2748905059660913,-1.5102245748208603,-0.08591430141188638,-5.669176321706599e-17,-0.7748144772406357,-1.9984970428125837,-0.9572721200273628,0.047476282501612246,0.0
1477.722,0.7518007182463557,-1.9528202107299215,1.6097099484721924,-1.2748905059660913,-1.5102245748208603,-0.08591430141188638,-5.669176321706599e-17,-0.7748144772406357,-1.9984970428125837,-0.9572721200273628,0.047476282501612246,0.0
1477.73,0.7518007182463557,-1.9528202107299215,1.6097099484721924,-1.2748905059660913,-1.5102245748208603,-0.08591430141188638,-5.669176321706599e-17,-0.7748144772406357,-1.9984970428125837,-0.9572721200273628,0.047476282501612246,0.0
1477.7379999999998,0.7518007182463557,-1.9528202107299215,1.6097099484721924,-1.2748905059660913,-1.5102245748208603,-0.08591430141188638,-5.669176321706599e-17,-0.7748144772406357,-1.9984970428125837,-0.9572721200273628,0.047476282501612246,0.0
1477.7459999999999,0.7518007182463557,-1.9528202107299215,1.6097099484721924,-1.2748905059660913,-1.5102245748208603,-0.08591430141188638,-5.669176321706599e-17,-0.7748144772406357,-1.9984970428125837,-0.9572721200273628,0.047476282501612246,0.0
1477.754,0.7518007182463557,-1.9528202107299215,1.6097099484721924,-1.2748905059660913,-1.5102245748208603,-0.08591430141188638,-5.669176321706599e-17,-0.7748144772406357,-1.9984970428125837,-0.9572721200273628,0.047476282501612246,0.0
1477.762,0.7518007182463557,-1.9528202107299215,1.6097099484721924,-1.2748905059660913,-1.5102245748208603,-0.08591430141188638,-5.669176321706599e-17,-0.7748144772406357,-1.9984970428125837,-0.9572721200273628,0.047476282501612246,0.0
1477.77,0.7518007182463557,-1.9528202107299215,1.6097099484721924,-1.2748905059660913,-1.5102245748208603,-0.08591430141188638,-5.669176321706599e-17,-0.7748144772406357,-1.9984970428125837,-0.9572721200273628,0.047476282501612246,0.0
1477.778,0.7518007182463557,-1.9528202107299215,1.6097099484721924,-1.2748905059660913,-1.5102245748208603,-0.08591430141188638,-5.669176321706599e-17,-0.7748144772406357,-1.9984970428125837,-0.9572721200273628,0.047476282501612246,0.0
1477.7859999999998,0.7518007182463557,-1.9528202107299215,1.6097099484721924,-1.2748905059660913,-1.5102245748208603,-0.08591430141188638,-5.669176321706599e-17,-0.7748144772406357,-1.9984970428125837,-0.9572721200273628,0.047476282501612246,0.0
1477.7939999999999,0.7518007182463557,-1.9528202107299215,1.6097099484721924,-1.2748905059660913,-1.5102245748208603,-0.08591430141188638,-5.669176321706599e-17,-0.7748144772406357,-1.9984970428125837,-0.9572721200273628,0.047476282501612246,0.0
1477.802,0.7518007182463557,-1.9528202107299215,1.6097099484721924,-1.2748905059660913,-1.5102245748208603,-0.08591430141188638,-5.669176321706599e-17,-0.7748144772406357,-1.9984970428125837,-0.9572721200273628,0.047476282501612246,0.0
1477.81,0.7518007182463557,-1.9528202107299215,1.6097099484721924,-1.2748905059660913,-1.5102245748208603,-0.08591430141188638,-5.669176321706599e-17,-0.7748144772406357,-1.9984970428125837,-0.9572721200273628,0.047476282501612246,0.0
1477.818,0.7518007182463557,-1.9528202107299215,1.6097099484721924,-1.2748905059660913,-1.5102245748208603,-0.08591430141188638,-5.669176321706599e-17,-0.7748144772406357,-1.9984970428125837,-0.9572721200273628,0.047476282501612246,0.0
1477.826,0.7518007182463557,-1.9528202107299215,1.6097099484721924,-1.2748905059660913,-1.5102245748208603,-0.08591430141188638,-5.669176321706599e-17,-0.7748144772406357,-1.9984970428125837,-0.9572721200273628,0.047476282501612246,0.0
1477.8339999999998,0.7518007182463557,-1.9528202107299215,1.6097099484721924,-1.2748905059660913,-1.5102245748208603,-0.08591430141188638,-5.669176321706599e-17,-0.7748144772406357,-1.9984970428125837,-0.9572721200273628,0.047476282501612246,0.0
1477.8419999999999,0.7518007182463557,-1.9528202107299215,1.6097099484721924,-1.2748905059660913,-1.5102245748208603,-0.08591430141188638,-5.669176321706599e-17,-0.7748144772406357,-1.9984970428125837,-0.9572721200273628,0.047476282501612246,0.0
1477.85,0.7518007182463557,-1.9528202107299215,1.6097099484721924,-1.2748905059660913,-1.5102245748208603,-0.08591430141188638,-5.669176321706599e-17,-0.7748144772406357,-1.9984970428125837,-0.9572721200273628,0.047476282501612246,0.0
1477.858,0.7518007182463557,-1.9528202107299215,1.6097099484721924,-1.2748905059660913,-1.5102245748208603,-0.08591430141188638,-5.669176321706599e-17,-0.7748144772406357,-1.9984970428125837,-0.9572721200273628,0.047476282501612246,0.0
1477.866,0.7518007182463557,-1.9528202107299215,1.6097099484721924,-1.2748905059660913,-1.5102245748208603,-0.08591430141188638,-5.669176321706599e-17,-0.7748144772406357,-1.9984970428125837,-0.9572721200273628,0.047476282501612246,0.0
1477.874,0.7518007182463557,-1.9528202107299215,1.6097099484721924,-1.2748905059660913,-1.5102245748208603,-0.08591430141188638,-5.669176321706599e-17,-0.7748144772406357,-1.9984970428125837,-0.9572721200273628,0.047476282501612246,0.0
1477.8819999999998,0.7518007182463557,-1.9528202107299215,1.6097099484721924,-1.2748905059660913,-1.5102245748208603,-0.08591430141188638,-5.669176321706599e-17,-0.7748144772406357,-1.9984970428125837,-0.9572721200273628,0.047476282501612246,0.0
1477.8899999999999,0.7518007182463557,-1.9528202107299215,1.6097099484721924,-1.2748905059660913,-1.5102245748208603,-0.08591430141188638,-5.669176321706599e-17,-0.7748144772406357,-1.9984970428125837,-0.9572721200273628,0.047476282501612246,0.0
1477.898,0.7518007182463557,-1.9528202107299215,1.6097099484721924,-1.2748905059660913,-1.5102245748208603,-0.08591430141188638,-5.669176321706599e-17,-0.7748144772406357,-1.9984970428125837,-0.9572721200273628,0.047476282501612246,0.0
1477.906,0.7518007182463557,-1.9528202107299215,1.6097099484721924,-1.2748905059660913,-1.5102245748208603,-0.08591430141188638,-5.669176321706599e-17,-0.7748144772406357,-1.9984970428125837,-0.9572721200273628,0.047476282501612246,0.0
1477.914,0.7518007182463557,-1.9528202107299215,1.6097099484721924,-1.2748905059660913,-1.5102245748208603,-0.08591430141188638,-5.669176321706599e-17,-0.7748144772406357,-1.9984970428125837,-0.9572721200273628,0.047476282501612246,0.0
1477.922,0.7518007182463557,-1.9528202107299215,1.6097099484721924,-1.2748905059660913,-1.5102245748208603,-0.08591430141188638,-5.669176321706599e-17,-0.7748144772406357,-1.9984970428125837,-0.9572721200273628,0.047476282501612246,0.0
1477.9299999999998,0.7518007182463557,-1.9528202107299215,1.6097099484721924,-1.2748905059660913,-1.5102245748208603,-0.08591430141188638,-5.669176321706599e-17,-0.7748144772406357,-1.9984970428125837,-0.9572721200273628,0.047476282501612246,0.0
1477.9379999999999,0.7518007182463557,-1.9528202107299215,1.6097099484721924,-1.2748905059660913,-1.5102245748208603,-0.08591430141188638,-5.669176321706599e-17,-0.7748144772406357,-1.9984970428125837,-0.9572721200273628,0.047476282501612246,0.0
1477.946,0.7518007182463557,-1.9528202107299215,1.6097099484721924,-1.2748905059660913,-1.5102245748208603,-0.08591430141188638,-5.669176321706599e-17,-0.7748144772406357,-1.9984970428125837,-0.9572721200273628,0.047476282501612246,0.0
1477.954,0.7518007182463557,-1.9528202107299215,1.6097099484721924,-1.2748905059660913,-1.5102245748208603,-0.08591430141188638,-5.669176321706599e-17,-0.7748144772406357,-1.9984970428125837,-0.9572721200273628,0.047476282501612246,0.0
1477.962,0.7518007182463557,-1.9528202107299215,1.6097099484721924,-1.2748905059660913,-1.5102245748208603,-0.08591430141188638,-5.669176321706599e-17,-0.7748144772406357,-1.9984970428125837,-0.9572721200273628,0.047476282501612246,0.0
1477.97,0.7518007182463557,-1.9528202107299215,1.6097099484721924,-1.2748905059660913,-1.5102245748208603,-0.08591430141188638,-5.669176321706599e-17,-0.7748144772406357,-1.9984970428125837,-0.9572721200273628,0.047476282501612246,0.0
1477.9779999999998,0.7518007182463557,-1.9528202107299215,1.6097099484721924,-1.2748905059660913,-1.5102245748208603,-0.08591430141188638,-5.669176321706599e-17,-0.7748144772406357,-1.9984970428125837,-0.9572721200273628,0.047476282501612246,0.0
1477.9859999999999,0.7518007182463557,-1.9528202107299215,1.6097099484721924,-1.2748905059660913,-1.5102245748208603,-0.08591430141188638,-5.669176321706599e-17,-0.7748144772406357,-1.9984970428125837,-0.9572721200273628,0.047476282501612246,0.0
1477.994,0.7518007182463557,-1.9528202107299215,1.6097099484721924,-1.2748905059660913,-1.5102245748208603,-0.08591430141188638,-5.669176321706599e-17,-0.7748144772406357,-1.9984970428125837,-0.9572721200273628,0.047476282501612246,0.0
1478.002,0.7518007182463557,-1.9528202107299215,1.6097099484721924,-1.2748905059660913,-1.5102245748208603,-0.08591430141188638,-5.669176321706599e-17,-0.7748144772406357,-1.9984970428125837,-0.9572721200273628,0.047476282501612246,0.0
1478.01,0.7518007182463557,-1.9528202107299215,1.6097099484721924,-1.2748905059660913,-1.5102245748208603,-0.08591430141188638,-5.669176321706599e-17,-0.7748144772406357,-1.9984970428125837,-0.9572721200273628,0.047476282501612246,0.0
1478.018,0.7518007182463557,-1.9528202107299215,1.6097099484721924,-1.2748905059660913,-1.5102245748208603,-0.08591430141188638,-5.669176321706599e-17,-0.7748144772406357,-1.9984970428125837,-0.9572721200273628,0.047476282501612246,0.0
1478.0259999999998,0.7518007182463557,-1.9528202107299215,1.6097099484721924,-1.2748905059660913,-1.5102245748208603,-0.08591430141188638,-5.669176321706599e-17,-0.7748144772406357,-1.9984970428125837,-0.9572721200273628,0.047476282501612246,0.0
1478.0339999999999,0.7518007182463557,-1.9528202107299215,1.6097099484721924,-1.2748905059660913,-1.5102245748208603,-0.08591430141188638,-5.669176321706599e-17,-0.7748144772406357,-1.9984970428125837,-0.9572721200273628,0.047476282501612246,0.0
1478.042,0.7518007181994173,-1.952820210660108,1.6097099484391322,-1.2748905060063382,-1.5102245748287055,-0.08591430145802992,-5.5451605398618975e-06,-0.7748066046056802,-1.9984974259451578,-0.9572747099854897,0.04747529738107979,-8.678327446147652e-07
1478.05,0.751800707685213,-1.9528201950219586,1.6097099410336397,-1.2748905150215606,-1.5102245765860633,-0.08591431179408904,-0.00011090321289241983,-0.7746570510057647,-1.99850470984375,-0.9573239197213617,0.04745657882859977,-1.73566548909485e-05
1478.058,0.7518006231960711,-1.9528200693582516,1.6097098815252189,-1.274890587465313,-1.5102245907076846,-0.08591439485170671,-0.0003493451692656806,-0.7743187544978605,-1.9985212220412079,-0.957435292448141,0.047414207798448946,-5.467346287520038e-05
1478.066,0.7518003295493644,-1.95281963260706,1.609709674700396,-1.2748908392475986,-1.510224639788163,-0.08591468352307263,-0.000720871322400038,-0.773792086701544,-1.9985470237664262,-0.957608835425244,0.047348166348488215,-0.00011281825650912219
1478.0739999999998,0.7517996194650648,-1.9528185764734234,1.6097091745651788,-1.2748914480970912,-1.5102247584725426,-0.08591538157620882,-0.001225482616733927,-0.7730776171109109,-1.9985822083414053,-0.9578445593948031,0.04725842657928975,-0.00019179103518539124
1478.0819999999999,0.7517982135657428,-1.952816485429353,1.6097081843450554,-1.274892653561131,-1.510224993456319,-0.08591676365497314,-0.0018631812725080688,-0.772176112687867,-1.9986269004747321,-0.9581424780922656,0.04714495014683955,-0.00029159179747629096
1478.09,0.7517957603765681,-1.9528128367138322,1.6097064564849948,-1.274894757005729,-1.5102254034854337,-0.08591917527905579,-0.0026339716260868036,-0.7710885373147748,-1.9986812553105435,-0.9585026075876707,0.047007687607171125,-0.00041222054059339864
1478.098,0.751791836325309,-1.9528070003328128,1.6097036926494472,-1.2748981216155624,-1.510226059356281,-0.08592303284398195,-0.003537861186547282,-0.76981605110703,-1.9987454572322956,-0.9589249654575427,0.046846577592915384,-0.0005536772597083003
1478.106,0.7517859457423328,-1.952798239059221,1.6096995437223436,-1.27490317239398,-1.510227043915707,-0.08592882362111176,-0.004574861908640661,-0.7683600095862458,-1.9988197184204715,-0.9594095697873517,0.046661545821781315,-0.0007159619471344127
1478.114,0.7517775208606056,-1.95278570843295,1.609693609807095,-1.2749103961629968,-1.5102284520610034,-0.0859371057576368,-0.005744991682302369,-0.7667219627149313,-1.9989042771631371,-0.959956438004374,0.04645250393696118,-0.0008990745913700027
1478.1219999999998,0.7517659218156924,-1.9527684567608645,1.6096854402265948,-1.2749203415632984,-1.510230390739915,-0.0859485082765854,-0.0070482760389869855,-0.7649036537936621,-1.9989993959181,-0.960565585540782,0.04621934817944402,-0.0011030151760025556
1478.1299999999999,0.7517504366457571,-1.9527454251168024,1.6096745335232157,-1.274933619054238,-1.5102329789506355,-0.0859637310768191,-0.008484750075246707,-0.7629070182219205,-1.9991053591251307,-0.9612370243266363,0.04596195789225177,-0.0013277836784747687
1478.138,0.7517302812915626,-1.9527154473415704,1.6096603374588123,-1.2749509009138391,-1.5102363477418095,-0.08598354493303262,-0.010054460594139766,-0.7607341821239958,-1.999222470766562,-0.9619707611123598,0.045680193856576554,-0.0015733800687125021
1478.146,0.7517045995964705,-1.952677250042946,1.6096422490147195,-1.2749729212387901,-1.5102406402125315,-0.0860087914957548,-0.0117574684652794,-0.7583874608414214,-1.999351051674242,-0.9627667956200979,0.04537389645982001,-0.0018398043076151456
1478.154,0.7516724633064412,-1.9526294525956773,1.6096196143917534,-1.275000475944454,-1.5102460115123444,-0.08604038329135033,-0.013593851204598894,-0.7558693572936978,-1.9994914365806147,-0.9636251185232064,0.04504288369551945,-0.0021270563454090204
1478.162,0.7516328720700342,-1.9525705671414837,1.6095917290102104,-1.2750344227648558,-1.5102526288412434,-0.08607930372201622,-0.015563705775232075,-0.7531825602091787,-1.9996439709113802,-0.9645457092528245,0.04468694899514462,-0.002435136119864721
1478.1699999999998,0.7515847534384077,-1.9524989985890553,1.6095578375098687,-1.2750756812526953,-1.5102606714496725,-0.08612660706578446,-0.017667151611283866,-0.7503299422282406,-1.9998090073168957,-0.965528533630288,0.04430585889175776,-0.002764043554379415
1478.1779999999999,0.7515269628653191,-1.9524130446140529,1.609517133749986,-1.2751252327793363,-1.5102703306385266,-0.08618341847651934,-0.019904333866716847,-0.7473145578810196,-1.999986901939127,-0.9665735413237515,0.043899350515507383,-0.003113778555925168
1478.186,0.751458283707124,-1.9523108956591084,1.6094687608093026,-1.2751841205348153,-1.5102818097591477,-0.0862509339839228,-0.022275426892081417,-0.7441396414422392,-2.000178010410632,-0.9676806631270761,0.043467128920943135,-0.0034843410128654407
1478.194,0.7513774272227777,-1.9521906349338236,1.6094118109860378,-1.2752534495278347,-1.5102953242133328,-0.08633042049352646,-0.02478063794241263,-0.7408086046658701,-2.0003826835816496,-0.9688498080585962,0.04300886424611181,-0.0038757307926410517
1478.202,0.7512830325738338,-1.9520502384147722,1.609345325797893,-1.275334386585766,-1.5103111014533246,-0.08642321578669865,-0.02742021112027166,-0.7373250344025526,-2.0006012629709624,-0.9700808602769052,0.0425241887034293,-0.004287947739328523
1478.21,0.7511736668244449,-1.9518875748454967,1.60926829598205,-1.2754281603546502,-1.5103293809818181,-0.08653072852064181,-0.03019443155866085,-0.7336926901030058,-2.000834075935777,-0.9713736758102824,0.04201269340227467,-0.004720991671073153
1478.2179999999998,0.7510478249413626,-1.9517004057365126,1.6091796614951714,-1.2755360612991975,-1.510350414351958,-0.08665443822839247,-0.033103629849374774,-0.7299155012108072,-2.001081430555355,-0.9727280790957837,0.041473925003295616,-0.005174862377400344
1478.2259999999999,0.7509039297939373,-1.951486385365305,1.609078311513401,-1.2756594417027856,-1.510374465167338,-0.0867958953188186,-0.036148186723277485,-0.7259975644482315,-2.0013436102226696,-0.9741438593233536,0.04090738220438875,-0.005649559616409064
1478.234,0.7507403321541183,-1.9512430607763314,1.608963084432363,-1.2757997156674605,-1.510401809082003,-0.08695672107662578,-0.039328537990013825,-0.7219431409990358,-2.0016208679377616,-0.9756207665796129,0.04031251205833403,-0.0061450831118513285
1478.242,0.7505553106964538,-1.9509678717810157,1.6088327678671628,-1.2759583591139387,-1.5104327338004477,-0.08713860766235193,-0.0426451797458033,-0.7177566535923466,-2.0019134202959448,-0.9771585077851613,0.039688706122068804,-0.006661432550103934
1478.25,0.7503470719980907,-1.950658150957758,1.6086860986523865,-1.276136909781604,-1.5104675390776157,-0.08734331811236817,-0.04609867385918,-0.713442683491997,-2.0022214411633312,-0.9787567424183802,0.03903529643760349,-0.007198607577036339
1478.258,0.750113750538775,-1.9503111236519253,1.608521762842101,-1.2763369672285103,-1.5105065367189017,-0.08757268633888238,-0.04968965374590803,-0.7090059673959975,-2.0025450550315504,-0.9804150780177728,0.03835155134458914,-0.007756607794783729
1478.2659999999998,0.7498534087008515,-1.9499239079758572,1.608338395709854,-1.2765601928313783,-1.510550050580152,-0.08782861712993295,-0.05341883044574004,-0.7044513942509343,-2.0028843300427517,-0.9821330654538603,0.03763667112459211,-0.00833543275843065
1478.274,0.7495640367692639,-1.9494935148088635,1.6081345817486743,-1.276808309785599,-1.5105984165676594,-0.08811308614939595,-0.057286999015286014,-0.6997840019864392,-2.003239270675313,-0.9839101939605556,0.036889783477158565,-0.00893508197261436
1478.282,0.7492435529315545,-1.9490168477972247,1.6079088546710714,-1.2770831031052303,-1.5106519826381692,-0.08842813993697884,-0.06129504525295626,-0.6950089741749695,-2.0036098100797908,-0.9857458859147549,0.03610993882779212,-0.009555554888058725
1478.29,0.7488898032778649,-1.9484907033541932,1.6076596974090354,-1.2773864196230011,-1.5107111087988763,-0.08877589590822321,-0.06544395277377611,-0.6901316366224725,-2.003995802053905,-0.9876394913516315,0.03529610546805875,-0.010196850898045227
1478.298,0.7485005618009354,-1.9479117706599895,1.6073855421140377,-1.2777201679903092,-1.5107761671074256,-0.08915854235450738,-0.0697348104538377,-0.6851574538955838,-2.0043970126443296,-0.9895902822017487,0.03444716452809094,-0.01085896933483828
1478.306,0.7480735303961051,-1.9472766316618078,1.6070847701570306,-1.278086318677218,-1.510847541671911,-0.0895783384430402,-0.07416882026624953,-0.6800920257912367,-2.004813111362226,-0.9915974462347104,0.03356190478188758,-0.01154190946607256
1478.3139999999999,0.7476063388613121,-1.9465817610738103,1.6067557121284464,-1.2784869039724613,-1.5109256286508774,-0.09003761421686818,-0.07874730553269728,-0.6749410837547268,-2.005243661998387,-0.9936600806925439,0.03263901728592111,-0.012245670491120544
1478.322,0.7470965448970932,-1.9458235263771329,1.6063966478381995,-1.278924017983444,-1.5110108362533206,-0.09053877059486748,-0.08347171961708513,-0.6697104872523071,-2.005688113022791,-0.9957771855943869,0.03167708985174686,-0.012970251537452952
1478.33,0.7465416341065843,-1.9449981878198805,1.606005806315684,-1.2793998166362348,-1.5111035847386844,-0.09108427937175279,-0.08834365509027221,-0.6644062201045967,-2.0061457875523048,-0.9979476566924171,0.030674601353494896,-0.013715651657011451
1478.338,0.7459390199955199,-1.944101898417128,1.6055813658097753,-1.2799165176755753,-1.5112043064168637,-0.09167668321807021,-0.09336485339755919,-0.659034386787034,-2.0066158728690278,-1.0001702780571602,0.02962991587137118,-0.014481869822612126
1478.346,0.7452860439722339,-1.9431307039509234,1.60512145378883,-1.2804764006648757,-1.511313445648204,-0.09231859568020084,-0.09853721506340714,-0.6536012087036467,-2.007097409470581,-1.002443714268519,0.02854127667259387,-0.015268904924398086
1478.354,0.7445799753476583,-1.9420805429702828,1.6046241469406852,-1.2810818069862107,-1.511431458843501,-0.09301270118035898,-0.10386281047079177,-0.6481130204403971,-2.007589279632313,-1.0047665021868921,0.02740680003154333,-0.01607675576636777
1478.3619999999999,0.7438180113353245,-1.940947246791196,1.6040874711726587,-1.281735139840328,-1.5115588144639975,-0.093761755016593,-0.10934389125570777,-0.6425762660042127,-2.0080901954600576,-1.0071370422768555,0.0262244688913173,-0.016905421062998166
1478.37,0.7429972770513629,-1.93972653949662,1.6035094016115494,-1.282438864246643,-1.51169599302139,-0.09456858336278806,-0.11498290236051874,-0.6369974950536692,-2.0085986864105823,-1.0095535894537246,0.02499212636938172,-0.017754899435994717
1478.378,0.7421148255145023,-1.9384140379364867,1.6028878626036371,-1.2831955070432386,-1.5118434870778241,-0.09543608326865893,-0.12078249479322133,-0.631383359127061,-2.0091130862554794,-1.0120142434213277,0.023707469110608444,-0.018625189411189676
1478.386,0.7411676376460706,-1.9370052517276948,1.6022207277146823,-1.2840076568868684,-1.5120018012458925,-0.09636722265975806,-0.1267455391431198,-0.6257406078732675,-2.0096315194625705,-1.0145169384670663,0.022368040491660395,-0.019516289415630075
1478.394,0.7401526222699948,-1.9354955832541165,1.6015058197299261,-1.2848779642529529,-1.5121714521886434,-0.09736504033746929,-0.13287513990697283,-0.620076085290394,-2.0101518869673,-1.0170594326781996,0.020971223681487284,-0.020428197774872536
1478.402,0.7390666161128004,-1.9338803276665937,1.600740910654091,-1.285809141435581,-1.5123529686195694,-0.09843264597901324,-0.13917465068330864,-0.6143967259766605,-2.01067185130494,-1.0196392965410563,0.019514234563662292,-0.021360912710538634
1478.4099999999999,0.7379063838036121,-1.9321546728829384,1.59992372171138,-1.2868039625475127,-1.512546891302616,-0.09957322013744285,-0.1456476902963127,-0.6087095513974138,-2.0111888210725817,-1.0222539008826381,0.017994114527309566,-0.02231443233815636
1478.418,0.7366686178741532,-1.930313699587935,1.599051923345477,-1.2878652635201737,-1.5127537730521805,-0.10079001424164513,-0.15229815991440973,-0.603021666171245,-2.011699934688046,-1.0249004041118166,0.016407723134682445,-0.02328875466533096
1478.426,0.7353499387587459,-1.9283523812333367,1.5981231352195469,-1.2889959421036625,-1.5129741787331055,-0.10208635059634119,-0.15913026123238438,-0.5973402543774196,-2.0122020434110057,-1.0275757387151574,0.014751730674852392,-0.024283877590293015
1478.434,0.7339468947943115,-1.9262655840378695,1.597134926216235,-1.2901989578667408,-1.5132086852606879,-0.10346562238208712,-0.16614851578961176,-0.5916725758856034,-2.0126916935895096,-1.0302765969601602,0.013022610614596478,-0.025299798900867428
1478.442,0.7324578679668434,-1.9240509014717482,1.5960861567162217,-1.291475698147516,-1.5134575630718174,-0.10492942019841056,-0.11517381326605304,-0.6681296239875408,-2.0097757896892157,-1.0067370569780165,0.021793866360429348,-0.017354066116834647
1478.45,0.7309032677550998,-1.9217386892787056,1.594991201772016,-1.2928086631916784,-1.513717400900621,-0.10645768037024084,-0.11552812057020338,-0.672223579578432,-2.0100470273183433,-1.006541431769059,0.02131323618170454,-0.01735386458963663
1478.4579999999999,0.7292885863757526,-1.919337116227961,1.5938539297285172,-1.2941931437931027,-1.5139872807711177,-0.10804500373711878,-0.11589785993644476,-0.6764777763371446,-2.010325682900918,-1.0063369940251603,0.02081404679255001,-0.017353656303445382
1478.466,0.7276138238288016,-1.9168461823195155,1.5926743405857255,-1.2956291399517896,-1.5142672026833068,-0.10969139029904262,-0.1162832275347117,-0.6808924195574855,-2.0106114067643515,-1.0061236041844264,0.020296303765652696,-0.01735344137539302
1478.474,0.7258789801142471,-1.9142658875533662,1.591452434343641,-1.2971166516677393,-1.5145571666371893,-0.11139684005601236,-0.11668442642781088,-0.6854677175553678,-2.0109038360314893,-1.0059011180429298,0.01976001358192314,-0.01735321992697555
1478.482,0.724084055232089,-1.9115962319295159,1.5901882110022632,-1.2986556789409498,-1.5148571726327642,-0.11316135300802976,-0.11710166650044422,-0.6902038811501332,-2.011202594601646,-1.0056693868198154,0.01920518370723418,-0.017352992084053994
1478.49,0.7222290491823272,-1.9088372154479636,1.5888816705615927,-1.300246221771424,-1.5151672206700324,-0.11498492915509306,-0.11753516438091927,-0.6951011231250498,-2.0115072931313525,-1.0054282572255524,0.01863182267187022,-0.01735275797685456
1478.4979999999998,0.7203139619649618,-1.9059888381087084,1.587532813021629,-1.3018882801591598,-1.515487310748993,-0.11686756849720314,-0.1179851433549898,-0.7001596576667225,-2.011817529014907,-1.005177571533465,0.018039940152698386,-0.017352517739969098
1478.5059999999999,0.7183387935799928,-1.9030510999117523,1.5861416383823723,-1.3035818541041584,-1.515817442869647,-0.11880927103436001,-0.1184518332712602,-0.7053796997832182,-2.0121328863647525,-1.0049171676545903,0.017429547058047355,-0.017352271512356333
1478.514,0.7163035440274201,-1.9000240008570932,1.5847081466438229,-1.3053269436064188,-1.5161576170319941,-0.12081003676656366,-0.11893547043768285,-0.7107614647006494,-2.0124529359917274,-1.004646879215971,0.016800655615277472,-0.01735201943734157
1478.522,0.7142082133072439,-1.8969075409447314,1.5832323378059803,-1.3071235486659418,-1.5165078332360338,-0.1228698656938132,-0.11943629750845369,-0.7163051672379939,-2.0127772353853013,-1.0043665356424878,0.01615327946104655,-0.017351761662617957
1478.53,0.712052801419464,-1.8937017201746684,1.5817142118688448,-1.3089716692827267,-1.5168680914817667,-0.12498875781611041,-0.11995456336080014,-0.7220110211598966,-2.013105328693764,-1.0040759622422901,0.015487433734241982,-0.01735149834024672
1478.538,0.7098373083640805,-1.8904065385469035,1.5801537688324163,-1.310871305456775,-1.517238391769192,-0.1271667131334535,-0.12049052296100801,-0.7278792385071826,-2.013436746704513,-1.0037749802959626,0.014803135171582642,-0.01735122962665752
1478.5459999999998,0.7075617341410935,-1.8870219960614358,1.5785510086966947,-1.3128224571880844,-1.5176187340983107,-0.1294037316458434,-0.1210444372190062,-0.7339100289049016,-2.013771006824459,-1.0034634071494937,0.014100402205868008,-0.017350955682649695
1478.5539999999999,0.7052260787505028,-1.8835480927182662,1.5769059314616805,-1.3148251244766564,-1.5180091184691218,-0.13169981335327918,-0.12161657283094712,-0.7401035988475589,-2.0141076130606264,-1.0031410563111733,0.013379255066857639,-0.017350676673392115
1478.562,0.7028303421923084,-1.8799848285173946,1.575218537127373,-1.3168793073224911,-1.5184095448816262,-0.13405495825576264,-0.12220720210901734,-0.7464601509613037,-2.0144460560010145,-1.0028077375525044,0.012639715884767401,-0.01735039276842406
1478.57,0.7003745244665105,-1.876332203458821,1.5734888256937727,-1.3189850057255885,-1.518820013335823,-0.13646916635329198,-0.12281660279781982,-0.7529798832428762,-2.014785812795811,-1.002463257013234,0.011881808796366182,-0.017350104141655658
1478.578,0.6978586255731088,-1.8725902175425455,1.5717167971608792,-1.3211422196859468,-1.519240523831713,-0.1389424376458681,-0.12344505787661568,-0.7596629882749446,-2.015126347139009,-1.0021074173106272,0.011105560053644006,-0.017349810971368455
1478.586,0.6952826455121037,-1.8687588707685672,1.5699024515286928,-1.3233509492035687,-1.5196710763692955,-0.14147477213349102,-0.12409285534667816,-0.7665096524176455,-2.0154671092505207,-1.0017400176530717,0.010310998135039731,-0.017349513440215868
1478.5939999999998,0.6926465842834948,-1.8648381631368878,1.5680457887972135,-1.3256111942784523,-1.5201116709485714,-0.14406616981615983,-0.12476028800301545,-0.7735200549760214,-2.015807535858877,-1.001360853958128,0.009498153859195828,-0.017349211735223677
1478.6019999999999,0.6899504418872824,-1.8608280946475055,1.5661468089664412,-1.3279229549105978,-1.5205623075695396,-0.1467166306938763,-0.12544765318968887,-0.7806943673431226,-2.016147050184589,-1.000969718975155,0.008667060501221072,-0.0173489060477905
1478.61,0.6871942183234664,-1.8567286653004205,1.564205512036376,-1.3302862311000068,-1.521022986232202,-0.14942615476663867,-0.12615525253794496,-0.7880327521184415,-2.01648506192426,-1.0005664024125906,0.007817753911424937,-0.01734859657368822
1478.618,0.6843779135920467,-1.8525398750956343,1.5622218980070177,-1.3327010228466776,-1.521493706936556,-0.15219474203444783,-0.1268833916863401,-0.7955353622015255,-2.016820967235556,-1.0001506910700217,0.006950272636508602,-0.017348283513062397
1478.626,0.6815015276930234,-1.8482617240331454,1.5601959668783665,-1.3351673301506102,-1.5219744696826032,-0.15502239249730287,-0.12763237998206853,-0.8032023398603685,-2.0171541487231335,-0.9997223689751705,0.006064658043155809,-0.017347967070432697
1478.634,0.6785650606263964,-1.8438942121129553,1.5581277186504223,-1.3376851530118055,-1.5224652744703437,-0.1579091061552056,-0.12840253016262881,-0.8110338157743796,-2.017483975425576,-0.9992812175258727,0.00516095444401673,-0.017347647454693246
1478.6419999999998,0.6755685123921659,-1.8394373393350625,1.5560171533231852,-1.3402544914302625,-1.5229661212997767,-0.1608548830081542,-0.1291941580169946,-0.8190299080517759,-2.017809802803556,-0.9988270156372031,0.004239209226025948,-0.017347324879112676
1478.6499999999999,0.6725118829903317,-1.8348911056994677,1.553864270896655,-1.3428753454059823,-1.523477010170903,-0.1638597230561496,-0.13000758202540189,-0.8271907212208975,-2.0181309727292187,-0.998359539893861,0.003299472981029296,-0.017346999561335133
1478.658,0.669395172420894,-1.830255511206171,1.5516690713708319,-1.3455477149389647,-1.5239979410837217,-0.16692362629919177,-0.13084312297693101,-0.8355163451953835,-2.0184468134769245,-0.997878564707891,0.002341799638665425,-0.0173466717233798
1478.666,0.6662183806838525,-1.8255305558551722,1.5494315547457158,-1.348271600029209,-1.5245289140382337,-0.17004659273728073,-0.13170110356392342,-0.8440068542129829,-2.0187566397155776,-0.9973838624819248,0.0013662466014627774,-0.017346341591641248
1478.674,0.6629815077792075,-1.8207162396464707,1.5471517210213066,-1.351047000676716,-1.525069929034438,-0.17322862237041559,-0.13258184795236144,-0.8526623057475631,-2.0190597525025087,-0.9968752037780139,0.0003728748821154673,-0.017346009396890173
1478.682,0.6596845537069589,-1.8158125625800672,1.5448295701976047,-1.3538739168814846,-1.5256209860723358,-0.1764697151985981,-0.13348568132733765,-0.8614827393942316,-2.0193554392791193,-0.9963523574921755,-0.0006382507571420678,-0.01734567537427288
1478.6899999999998,0.6563275184671067,-1.8108195246559617,1.5424651022746096,-1.356752348643516,-1.5261820851519268,-0.17976987122182653,-0.13441292941263,-0.8704681757273961,-2.0196429738684705,-0.9958150910347966,-0.0016670616630862004,-0.017345339763311443
1478.6979999999999,0.6529104020596508,-1.8057371258741544,1.5400583172523217,-1.35968229596281,-1.5267532262732093,-0.18312909044010084,-0.13536391796347869,-0.8796186151313218,-2.01992161647483,-0.9952631705169906,-0.0027134851480448375,-0.017345002807904318
1478.706,0.6494332044845913,-1.800565366234645,1.5376092151307406,-1.362663758839366,-1.527334409436186,-0.18654737285342282,-0.13633897223167923,-0.8889340366031676,-2.020190613685436,-0.9946963609430306,-0.003777444344512363,-0.017344664756325706
1478.714,0.6458959257419281,-1.7953042457374329,1.5351177959098667,-1.3656967372731845,-1.5279256346408552,-0.1900247184617907,-0.13733841640197778,-0.8984143965282944,-2.02044919847457,-0.9941144264089744,-0.004858858057861769,-0.017344325861225487
1478.722,0.6422985658316613,-1.7899537643825187,1.5325840595896998,-1.3687812312642649,-1.5285269018872167,-0.19356112726520625,-0.13836257299886578,-0.9080596274274929,-2.020696590210103,-0.9935171303076212,-0.005957640617251711,-0.017343986379629743
1478.73,0.638641124753791,-1.7845139221699036,1.53000800617024,-1.371917240812608,-1.5291382111752725,-0.1971565992636677,-0.13941176226286897,-0.917869636676114,-2.02093199466267,-0.9929042355398644,-0.007073701724796977,-0.01734364657293989
1478.7379999999998,0.634923602508317,-1.7789847190995847,1.5273896356514869,-1.3751047659182127,-1.5297595625050198,-0.20081113445717502,-0.14048630149532348,-0.9278443051949714,-2.0211546040176946,-0.9922755047326142,-0.008206946303056304,-0.01734330670693248
1478.7459999999999,0.6311459990952395,-1.7733661551715656,1.5247289480334412,-1.3783438065810802,-1.5303909558764603,-0.20452473284573003,-0.1415865043707404,-0.9379834861125812,-2.021363596890279,-0.9916307004633529,-0.009357274340940141,-0.01734296705175885
1478.754,0.6273083145145583,-1.7676582303858428,1.5220259433161023,-1.3816343628012104,-1.5310323912895942,-0.20829739442933093,-0.1427126802158379,-0.9482870033990886,-2.021558138343404,-0.9909695854914785,-0.010524580738107202,-0.017342627881947154
1478.762,0.6234105487662734,-1.761860944742418,1.5192806214994705,-1.3849764345786024,-1.5316838687444205,-0.2121291192079786,-0.1438651332543179,-0.9587546504712056,-2.0217373799092893,-0.9902919229964977,-0.011708755147941535,-0.017342289476395857
1478.77,0.6194527018503849,-1.7559742982412923,1.5164929825835456,-1.388370021913257,-1.5323453882409401,-0.21601990718167308,-0.14504416181640958,-0.9693861887685915,-2.02190045961442,-0.9895974768232201,-0.012909681819192382,-0.01734195211837982
1478.778,0.6154347737668928,-1.7499982908824636,1.513663026568328,-1.3918151248051736,-1.533016949779153,-0.21996975835041432,-0.14625005751239956,-0.9801813463012677,-2.022046502008227,-0.9888860117340402,-0.014127239436385823,-0.01734161609554605
1478.7859999999998,0.6113567645157971,-1.743932922665933,1.5107907534538172,-1.3953117432543527,-1.5336985533590575,-0.22397867271420147,-0.1474831043691682,-0.991139816168058,-2.022174618195691,-0.9881572936683984,-0.015361300959094737,-0.01734128169991382
1478.7939999999999,0.6072186740970978,-1.7377781935916996,1.5078761632400135,-1.3988598772607945,-1.534390198980656,-0.22804665027303628,-0.14874357792889192,-1.0022612550462096,-2.0222839058740862,-0.9874110900095285,-0.016611733460178846,-0.01734094922787403
1478.802,0.6030205025107949,-1.7315341036597651,1.5049192559269167,-1.4024595268244981,-1.5350918866439471,-0.23217369102691698,-0.15003174430911967,-1.013545281652008,-2.0223734493741055,-0.9866471698586247,-0.017878397963096614,-0.01734061898018761
1478.81,0.5987622497568883,-1.7252006528701278,1.5019200315145271,-1.4061106919454645,-1.5358036163489306,-0.23635979497584447,-0.15134785922329116,-1.0249914751724265,-2.0224423197054837,-0.9858653043164342,-0.019161149278401696,-0.017340291261985906
1478.818,0.5944439158353781,-1.7187778412227885,1.4988784900028445,-1.4098133726236926,-1.5365253880956073,-0.24060496211981786,-0.15269216696105897,-1.0365993736680417,-2.0224895746075173,-0.9850652667724689,-0.020459835839555768,-0.0173399663827684
1478.826,0.5900655007462644,-1.7122656687177473,1.4957946313918689,-1.4135675688591824,-1.5372572018839774,-0.2449091924588389,-0.1540648993275603,-1.0483684724470255,-2.022514258604522,-0.9842468332018443,-0.02177429953816425,-0.017339644656401462
1478.8339999999998,0.585627004489547,-1.7056641353550042,1.4926684556816001,-1.417373280651936,-1.5379990577140399,-0.24927248599290586,-0.15546627454087344,-1.060298222410559,-2.0225154030666332,-0.9834097824698544,-0.023104375558756007,-0.017339326401118377
1478.8419999999999,0.5811284270652259,-1.6989732411345582,1.4894999628720387,-1.4212305080019512,-1.5387509555857957,-0.2536948427220196,-0.1568964960871335,-1.0723880283697838,-2.022492026276147,-0.9825538966443697,-0.024449892213272144,-0.01733901193951668
1478.85,0.5765697684733013,-1.692192986056411,1.486289152963184,-1.425139250909229,-1.5395128954992439,-0.2581762626461801,-0.15835575153255152,-1.0846372473343096,-2.0224431334996034,-0.9816789613161264,-0.025810670775371233,-0.017338701598556654
1478.858,0.571951028713773,-1.6853233701205612,1.4830360259550366,-1.4290995093737688,-1.5402848774543845,-0.2627167457653865,-0.15984421129171236,-1.097045186772718,-2.022367717065941,-0.9807847659269304,-0.027186525314692504,-0.01733839570956095
1478.866,0.5672722077866411,-1.6783643933270094,1.4797405818475962,-1.4331112833955704,-1.5410669014512193,-0.2673162920796397,-0.1613620273517733,-1.109611102845273,-2.0222647564510194,-0.9798711041059199,-0.028577262531258224,-0.01733809460821162
1478.874,0.5625333056919055,-1.6713160556757556,1.4764028206408626,-1.4371745729746355,-1.5418589674897465,-0.27197490158894055,-0.16290933195195992,-1.1223341986090227,-2.0221332183687064,-0.9789377740138713,-0.02998268159013444,-0.017337798634548214
1478.8819999999998,0.5577343224295664,-1.6641783571667998,1.473022742334836,-1.4412893781109615,-1.5426610755699661,-0.2766925742932873,-0.16448623621791209,-1.1352136221957885,-2.021972056868849,-0.9779845786956084,-0.03140257395651556,-0.017337508132967073
1478.8899999999999,0.5528752579996237,-1.6569512978001413,1.4696003469295167,-1.445455698804551,-1.543473225691879,-0.28146931019267996,-0.1660928287506934,-1.148248464963475,-2.0217802134425207,-0.9770113264406204,-0.03283672323142401,-0.017337223452217828
1478.898,0.5479561124020773,-1.6496348775757816,1.4661356344249044,-1.4496735350554015,-1.5442954178554853,-0.2863051092871203,-0.16772917417001887,-1.1614377596209338,-2.0215566171346597,-0.9760178311518104,-0.034284904988159504,-0.01733694494540178
1478.906,0.5429768856369273,-1.6422290964937192,1.4626286048209989,-1.4539428868635156,-1.545127652060783,-0.2911999715766065,-0.1693953116115966,-1.1747804783271207,-2.0213001846645913,-0.9750039127225218,-0.035746886609694446,-0.017336672969969394
1478.914,0.5379375777041737,-1.6347339545539548,1.4590792581178005,-1.4582637542288914,-1.545969928307775,-0.2961538970611395,-0.17109125317842444,-1.1882755307650275,-2.0210098205546387,-0.9739693974217782,-0.037222427127199004,-0.017336407887717776
1478.922,0.5328381886038165,-1.6271494517564875,1.4554875943153092,-1.46263613715153,-1.5468222465964594,-0.30116688574071926,-0.1728169823460535,-1.2019217621909124,-2.020684417267211,-0.9729141182877921,-0.03871127705986926,-0.017336150064787937
1478.9299999999998,0.5276787183358556,-1.6194755881013192,1.451853613413525,-1.4670600356314303,-1.5476846069268362,-0.3062389376153458,-0.17457245232185262,-1.2157179514595895,-2.020322855350644,-0.971837915529734,-0.04021317825626807,-0.017335899871661963
1478.9379999999999,0.5224591669002911,-1.611712363588449,1.4481773154124475,-1.4715354496685933,-1.5485570092989072,-0.3113700526850183,-0.17635758435845042,-1.229662809026601,-2.019924003594228,-0.9707406369377685,-0.04172786373736836,-0.01733565768316004
1478.946,0.517179534297123,-1.6038597782178758,1.4444587003120775,-1.476062379263018,-1.5494394537126697,-0.3165602309497384,-0.17817226602165126,-1.243754974927819,-2.0194867191926558,-0.9696221383013074,-0.043255057541504514,-0.017335423878437256
1478.954,0.5118398205263512,-1.5959178319896008,1.4406977681124142,-1.4806408244147065,-1.5503319401681264,-0.3218094724095044,-0.18001634941319367,-1.2579930167375506,-2.019009847920323,-0.9684822838355073,-0.04479447457145434,-0.01733519884098028
1478.962,0.506440025587976,-1.5878865249036238,1.4368945188134579,-1.4852707851236557,-1.5512344686652746,-0.32711777706431633,-0.18188964934885676,-1.2723754275061077,-2.018492224315873,-0.967320946615951,-0.04634582044384681,-0.017334982958603886
1478.97,0.500980149481997,-1.579765856959944,1.4330489524152088,-1.4899522613898686,-1.552147039204117,-0.3324851449141759,-0.1837919414925841,-1.2869006236776168,-2.0179326718772472,-0.9661380090214542,-0.04790879134115226,-0.017334776623447228
1478.9779999999998,0.4954601922084144,-1.571555828158563,1.4291610689176666,-1.4946852532133423,-1.5530696517846518,-0.3379115759590814,-0.1857229604473538,-1.301566942989418,-2.0173300032677446,-0.9649333631849843,-0.04948307386644444,-0.017334580231970046
1478.9859999999999,0.4898801537672282,-1.5632564384994794,1.4252308683208315,-1.4994697605940797,-1.554002306406879,-0.34339707019903454,-0.18768239780374538,-1.3163726423539783,-2.016683020533362,-0.963706911452579,-0.05106834490120929,-0.017334394184948587
1478.994,0.484251768761486,-1.5548851412752143,1.4212666156831593,-1.5042957218998003,-1.5549430417345311,-0.34893009185375057,-0.05438361955416093,-1.5040740181961834,-2.0235015516881796,-0.9269165900146643,-0.02432353587836925,1.2863093253516624e-05
1479.002,0.4786191592986466,-1.5465075608656411,1.4172993876244426,-1.509125305393142,-1.55588448314324,-0.3544672663893689,-0.054624909451570856,-1.5196178836840957,-2.024431826398515,-0.927005395804293,-0.02497409057412198,1.262335921653434e-05
1479.01,0.47298654983580724,-1.538129980456068,1.4133321595657262,-1.5139548888864827,-1.5568259245519496,-0.3600044409249872,-0.054859495504166814,-1.5351344833441936,-2.0253308570173236,-0.9270964741649323,-0.025622607927309863,1.2383624793519335e-05
1479.018,0.46735394037296796,-1.5297524000464957,1.4093649315070098,-1.5187844723798243,-1.5577673659606575,-0.3655416154606055,-0.05508725478314924,-1.550622733630935,-2.0261986377501913,-0.9271898421528588,-0.026269093495531474,1.2143890379980796e-05
1479.0259999999998,0.46172133091012857,-1.5213748196369226,1.4053977034482932,-1.523614055873166,-1.5587088073693671,-0.3710787899962238,-0.05530806543168997,-1.5660815521161475,-2.0270351635904795,-0.92728551664129,-0.026913552981234847,1.1904156371411343e-05
1479.0339999999999,0.4560887214472892,-1.5129972392273494,1.4014304753895768,-1.5284436393665066,-1.559650248778076,-0.3766159645318421,-0.055521806702382,-1.5815098575740116,-2.027840430318778,-0.9273835143188823,-0.027555992230977648,1.1664423163288443e-05
1479.042,0.4504561119844498,-1.5046196588177772,1.3974632473308601,-1.5332732228598474,-1.5605916901867847,-0.3821531390674595,-0.05572835899449177,-1.5969065700659404,-2.0286144345023027,-0.9274838516882351,-0.02819641723469343,1.142469115107139e-05
1479.05,0.4448235025216105,-1.496242078408205,1.3934960192721437,-1.538102806353189,-1.5615331315954935,-0.3876903136030778,-0.05592760389100431,-1.6122706110253415,-2.029357173494246,-0.9275865450644055,-0.028834834124935815,1.1184960730202038e-05
1479.058,0.4391908930587711,-1.4878644979986317,1.389528791213427,-1.5429323898465306,-1.5624745730042022,-0.3932274881386961,-0.05611942419544881,-1.6276009033422534,-2.030068645433091,-0.927691610573451,-0.029471249176116415,1.0945232296103868e-05
1479.066,0.43355828359593174,-1.4794869175890586,1.3855615631547107,-1.5477619733398722,-1.563416014412911,-0.39876466267431443,-0.05630370396849619,-1.642896371447827,-2.030748849241852,-0.9277990641509727,-0.030105668803730935,1.0705506244180924e-05
1479.0739999999998,0.42792567413309235,-1.4711093371794863,1.3815943350959943,-1.552591556833213,-1.5643574558216198,-0.40430183720993274,-0.056480328564316604,-1.658155941398686,-2.0313977846272895,-0.9279089215406852,-0.030738099563574796,1.0465782969817342e-05
1479.0819999999999,0.42229306467025307,-1.4627317567699132,1.3776271070372776,-1.5574211403265537,-1.5652988972303294,-0.40983901174555104,-0.05664918466668718,-1.6733785409611235,-2.0320154520790616,-0.9280211982929902,-0.03136854815094894,1.022606286837643e-05
1479.09,0.4166604552074137,-1.45435417636034,1.3736598789785612,-1.5622507238198953,-1.5662403386390373,-0.41537618628116935,-0.056810160324839425,-1.68856309969513,-2.0326018528688365,-0.9281359097635773,-0.031997021399850854,9.986346335200506e-06
1479.098,0.4110278457445743,-1.4459765959507678,1.3696926509198448,-1.5670803073132369,-1.567181780047747,-0.42091336081678676,-0.05696314498903614,-1.70370854903825,-2.033156989049342,-0.9282530711120275,-0.03262352628216645,9.746633765608776e-06
1479.106,0.405395236281735,-1.4375990155411946,1.3657254228611282,-1.5719098908065776,-1.5681232214564558,-0.42645053535240507,-0.0571080295458666,-1.7188138223892842,-2.033680863453384,-0.92837269730044,-0.033248069906834106,9.506925554899021e-06
1479.114,0.39976262681889563,-1.4292214351316215,1.3617581948024118,-1.5767394742999192,-1.5690646628651645,-0.4319877098880234,-0.05724470635325196,-1.7338778551917635,-2.0341734796928064,-0.9284948030920771,-0.033870659519016064,9.267222098344196e-06
1479.1219999999998,0.39413001735605624,-1.4208438547220492,1.3577909667436954,-1.58156905779326,-1.5700061042738733,-0.4375248844236417,-0.057373069275147556,-1.7488995850172622,-2.0346348421574048,-0.928619403050015,-0.03449130249924842,9.027523791193673e-06
1479.1299999999999,0.38849740789321685,-1.412466274312477,1.3538237386849787,-1.5863986412866016,-1.570947545682582,-0.44306205895926,-0.057493013715935286,-1.7638779516484828,-2.035064956013784,-0.9287465115358167,-0.03511000636258526,8.787831028671314e-06
1479.138,0.3828647984303776,-1.4040886939029038,1.3498565106262623,-1.5912282247799432,-1.5718889870912909,-0.4485992334948783,-0.05760443665449403,-1.7788118971621467,-2.0354638272041847,-0.9288761427082185,-0.035726778757732156,8.548144205975874e-06
1479.146,0.3772321889675382,-1.3957111134933307,1.345889282567546,-1.596057808273284,-1.5728304284999997,-0.4541364080304966,-0.057707236677937944,-1.7937003660116426,-2.0358314624452465,-0.9290083105218392,-0.03634162746616996,8.308463718279203e-06
1479.154,0.3715995795046988,-1.3873335330837584,1.3419220545088293,-1.6008873917666255,-1.5737718699087084,-0.4596735825661149,-0.05780131401501502,-1.808542305109464,-2.03616786922673,-0.9291430287258939,-0.03695456040126853,8.068789960726015e-06
1479.162,0.3659669700418594,-1.3789559526741852,1.3379548264501129,-1.6057169752599663,-1.5747133113174172,-0.4652107571017332,-0.05788657056915281,-1.823336663909403,-2.03647305581019,-0.9292803108629282,-0.037565585607390886,7.829123328433456e-06
1479.1699999999998,0.36033436057902013,-1.370578372264612,1.3339875983913965,-1.6105465587533079,-1.5756547527261269,-0.4707479316373506,-0.057962909951145114,-1.8380823944884888,-2.0367470312275984,-0.929420170267578,-0.03817471125898864,7.5894642164892925e-06
1479.1779999999999,0.35470175111618074,-1.3622007918550398,1.3300203703326798,-1.6153761422466495,-1.5765961941348348,-0.47628510617296893,-0.058030237511466784,-1.8527784516286845,-2.0369898052799273,-0.9295626200653316,-0.03878194565968363,7.349813019953513e-06
1479.186,0.34906914165334135,-1.3538232114454667,1.3260531422739634,-1.6202057257399902,-1.5775376355435444,-0.48182228070858724,-0.058088460372209834,-1.8674237928983166,-2.037201388535673,-0.9297076731713122,-0.03938729724135109,7.110170133854121e-06
1479.194,0.34343653219050196,-1.3454456310358944,1.322085914215247,-1.625035309233331,-1.5784790769522532,-0.48735945524420554,-0.058137487458629206,-1.8820173787332293,-2.0373817923293442,-0.929855342289089,-0.039990774563176484,6.870535953189977e-06
1479.202,0.3378039227276627,-1.3370680506263213,1.3181186861565304,-1.6298648927266726,-1.579420518360962,-0.49289662977982385,-0.05817722953029053,-1.8965581725176714,-2.0375310287598984,-0.930005639909486,-0.04059238631072024,6.630910872927635e-06
1479.21,0.3321713132648233,-1.328690470216749,1.314151458097814,-1.6346944762200142,-1.5803619597696708,-0.49843380431544215,-0.058207599211809055,-1.9110451406648787,-2.0376491106891264,-0.9301585783094211,-0.04119214129496233,6.39129528800138e-06
1479.2179999999998,0.3265387038019839,-1.3203128898071759,1.3101842300390973,-1.6395240597133558,-1.5813034011783795,-0.5039709788510605,-0.05822851102317284,-1.9254772526973873,-2.037736051740004,-0.9303141695507569,-0.04179004845134204,6.151689593313307e-06
1479.2259999999999,0.32093082610000023,-1.311972093825248,1.3062344213552297,-1.6443324373864137,-1.5822407088895662,-0.5094838406631821,0.0950338237290986,-2.120965888257761,-2.055348997896551,-0.9067704560882892,-0.009743366779198744,0.017350149569523243
1479.234,0.31538277167902845,-1.3037202751371213,1.3023267481328311,-1.6490895206226055,-1.5831680176625484,-0.5149378927974029,0.09686777934724831,-2.135664340808008,-2.057115827332445,-0.9083935199229792,-0.009505818591974004,0.01734973794550405
1479.242,0.30989479842566026,-1.2955578173066966,1.2984613920097257,-1.6537950883015338,-1.5840852843938373,-0.5203328817365769,0.09869061526446482,-2.1501479610841194,-2.0588399470847283,-0.9100076963369569,-0.009276038557028925,0.017349342985373557
1479.25,0.30446690633989576,-1.2874847203339748,1.2946383529859133,-1.6584491404232002,-1.5849925090834338,-0.5256688074807032,0.10050145151935432,-2.1644177906854005,-2.060522088929265,-0.91161251466523,-0.009053974204971739,0.017348964289993638
1479.258,0.29909909542173485,-1.279500984218954,1.2908576310613937,-1.663051676987604,-1.585889691731337,-0.5309456700297845,0.1022994424118108,-2.1784749068798925,-2.0621629780876627,-0.9132075184971786,-0.008839566468702535,0.01734860146458753
1479.2659999999998,0.29379136567117753,-1.2716066089616351,1.2871192262361673,-1.667602697994747,-1.5867768323375477,-0.5361634693838182,0.1040837764684805,-2.192320420699505,-2.063763333216654,-0.9147922654822489,-0.008632749967281892,0.017348254118741392
1479.274,0.2885437170882239,-1.26380159456202,1.2834231385102337,-1.6721022034446253,-1.587653930902066,-0.5413222055428051,0.10585367635160697,-2.2059554750741865,-2.065323866396721,-0.9163663271299991,-0.008433453285261518,0.01734792186640686
1479.282,0.2833561496728738,-1.256085941020106,1.279769367883593,-1.6765501933372429,-1.5885209874248902,-0.546421878506747,0.10760839871386833,-2.2193812430053725,-2.0668452831202018,-0.917929288605094,-0.00824159924743342,0.01734760432590487
1479.29,0.2782286634251273,-1.2484596483358938,1.2761579143562454,-1.6809466676725986,-1.589378001906022,-0.5514624882756403,0.10934723400191222,-2.2325989257776713,-2.0683282822784497,-0.919480748517402,-0.008057105188897117,0.017347301119926502
1479.298,0.2731612583449845,-1.2409227165093837,1.272588777928191,-1.6852916264506907,-1.5902249743454613,-0.5564440348494886,0.1110695062108853,-2.2456097512087756,-2.0697735561481934,-0.9210203187077051,-0.007879883220446218,0.017347011875535834
1479.306,0.2681539344324453,-1.2334751455405755,1.2690619585994294,-1.6895850696715211,-1.5910619047432073,-0.5613665182282892,0.11277457259258915,-2.2584149719369626,-2.071181790376898,-0.9225476240293082,-0.007709840489223752,0.017346736224171926
1479.3139999999999,0.26320669168750976,-1.226116935429471,1.2655774563699607,-1.6938269973350888,-1.59188879309926,-0.5662299384120439,0.11446182331973503,-2.2710158637459292,-2.0725536639672484,-0.9240623021259676,-0.00754687943460816,0.01734647380165005
1479.322,0.25831953011017783,-1.2188480861760675,1.2621352712397849,-1.6980174094413947,-1.5927056394136212,-0.5710342954007519,0.11613068110854871,-2.2834137239260333,-2.0738898492603473,-0.9255640032063192,-0.007390898039336972,0.017346224248164673
1479.33,0.2534924497004495,-1.211668597780366,1.2587354032089022,-1.7021563059904379,-1.5935124436862882,-0.5757795891944131,0.1177806008024225,-2.2956098696721385,-2.0751910119180588,-0.9270523898153628,-0.007241790075797846,0.017345987208288526
1479.338,0.24872545045832473,-1.2045784702423665,1.2553778522773125,-1.7062436869822193,-1.5943092059172628,-0.5804658197930275,0.11941106891865622,-2.3076056365169104,-2.0764578109040412,-0.9285271366031141,-0.0070994453475358675,0.01734576233097948
1479.346,0.24401853238380367,-1.1975777035620698,1.2520626184450157,-1.710279552416738,-1.595095926106544,-0.585092987196596,0.12102160316076928,-2.319402376799409,-2.0776908984636577,-0.9299879300908408,-0.006963749925926766,0.017345549269574562
1479.354,0.23937169547688608,-1.1906662977394742,1.248789701712012,-1.714263902293994,-1.595872604254133,-0.5896610914051168,0.12261175189859262,-2.331001458168447,-2.0788909201027077,-0.9314344684351629,-0.006834586382041117,0.017345347681795905
1479.3619999999999,0.2347849397375722,-1.1838442527745823,1.245559102078301,-1.7181967366139883,-1.5966392403600285,-0.5941701324185917,0.1241810936183333,-2.342404262119943,-2.0800585145648767,-0.9328664611902932,-0.006711834013686438,0.017345157229750628
1479.37,0.230258265165862,-1.1771115686673905,1.2423708195438834,-1.7220780553767199,-1.5973958344242316,-0.5986201102370199,0.12572923634479324,-2.3536121825680136,-2.0811943138079685,-0.9342836290686772,-0.006595369067654347,0.017344977579931736
1479.378,0.2257916717617554,-1.1704682454179025,1.2392248541087585,-1.7259078585821896,-1.5981423864467414,-0.6030110248604021,0.12725581703783934,-2.364626624449213,-2.082298942978958,-0.9356857037004142,-0.006485064957170714,0.017344808403219
1479.386,0.2213851595252524,-1.1639142830261155,1.2361212057729265,-1.7296861462303976,-1.5988788964275589,-0.6073428762887367,0.12876050096516292,-2.3754490023592125,-2.083373020387703,-0.9370724273915552,-0.006380792474575965,0.017344649374879662
1479.394,0.21703872845635297,-1.1574496814920305,1.2330598745363877,-1.733412918321342,-1.599605364366683,-0.6116156645220254,0.13024298105331747,-2.3860807392214998,-2.084417157479429,-0.9384435528816567,-0.006282419999257593,0.01734450017456931
1479.402,0.21275237855505724,-1.1510744408156484,1.2300408603991417,-1.7370881748550246,-1.6003217902641147,-0.6158293895602673,0.13170297721909124,-2.396523264987718,-2.0854319588060832,-0.9397988431008352,-0.006189813700842191,0.017344360486331038
1479.4099999999999,0.2085261098213651,-1.144788560996969,1.2270641633611887,-1.7407119158314455,-1.601028174119853,-0.6199840514034625,0.13314023568272154,-2.40677801536859,-2.086418021996257,-0.9411380709264459,-0.006102837737738154,0.017344229998598602
1479.418,0.20435992225527655,-1.1385920420359907,1.2241297834225287,-1.7442841412506027,-1.601724515933899,-0.6240796500516117,0.13455452826539682,-2.4168464305956157,-2.0873759377240897,-0.942461018939747,-0.006021354450957272,0.017344108404193988
1479.426,0.2002538158567917,-1.1324848839327144,1.2212377205831617,-1.7478048511124982,-1.6024108157062509,-0.6281161855047133,0.13594565167217837,-2.4267299542123517,-2.088306289676891,-0.9437674791827231,-0.005945224553356154,0.01734399540032902
1479.434,0.19620779062591043,-1.126467086687141,1.2183879748430877,-1.7512740454171318,-1.6030870734369111,-0.6320936577627689,0.1373134267624287,-2.436430031895102,-2.0892096545216083,-0.9450572529152398,-0.005874307314278967,0.017343890688605246
1479.442,0.19222184656263264,-1.1205386502992685,1.2155805462023066,-1.7546917241645028,-1.6037532891258781,-0.6360120668257778,0.13865769780923723,-2.4459481103023455,-2.0900866018701474,-0.9463301503727857,-0.005808460739655558,0.017343793975014257
1479.45,0.18829598366695866,-1.1146995747690989,1.2128154346608186,-1.758057887354612,-1.6044094627731518,-0.6398714126937399,0.13997833174957988,-2.455285635952531,-2.090937694243651,-0.9475859905250029,-0.0057475417475913474,0.017343704969936303
1479.4579999999999,0.18443020193888804,-1.1089498600966312,1.2100926402186236,-1.7613725349874585,-1.605055594378733,-0.6436716953666561,0.1412752174263473,-2.464444054129304,-2.091763487035541,-0.9488246008351165,-0.005691406339552468,0.017343623388142944
1479.466,0.18062450137842123,-1.1032895062818655,1.2074121628757215,-1.7646356670630423,-1.605691683942621,-0.6474129148445256,0.1425482648243475,-2.473424807814354,-2.0925645284737686,-0.9500458170205914,-0.005639909767084842,0.017343548948794158
1479.474,0.17687888198555834,-1.0977185133248026,1.2047740026321123,-1.7678472835813643,-1.6063177314648165,-0.6510950711273482,0.14379740430105464,-2.4822293366466175,-2.0933413595818373,-0.9512494828150176,-0.005592906694234021,0.01734348137543943
1479.482,0.17319334376029882,-1.0922368812254408,1.202178159487796,-1.7710073845424237,-1.6069337369453187,-0.6547181642151241,0.14502258581382493,-2.4908590759078413,-2.094094514139011,-0.9524354497315398,-0.0055502513556502054,0.017343420396017238
1479.49,0.16956788670264267,-1.0868446099837819,1.199624633442773,-1.7741159699462212,-1.6075397003841285,-0.6582821941078532,0.1462237781447476,-2.499315455533767,-2.0948245186395593,-0.9536035768279091,-0.005511797710460621,0.01734336574285465
1479.4979999999998,0.16600251081259043,-1.0815416995998248,1.1971134244970427,-1.777173039792756,-1.608135621781245,-0.6617871608055355,0.14740096812438963,-2.507599899150645,-2.095531892251188,-0.9547537304733342,-0.005477399591955695,0.017343317152666935
1479.5059999999999,0.16249721609014178,-1.0763281500735697,1.1946445326506052,-1.7801785940820283,-1.6087215011366691,-0.6652330643081719,0.14855415985557857,-2.5157138231361937,-2.096217146772547,-0.9558857841172643,-0.005446910853153757,0.017343274366557013
1479.514,0.15905200253529672,-1.0712039614050175,1.192217957903461,-1.7831326328140396,-1.6092973384504,-0.6686199046157615,0.1496833739383929,-2.5236586357051634,-2.0968807865901393,-0.9569996180603056,-0.005420185508305194,0.017343237130017387
1479.522,0.15566687014805525,-1.0661691335941672,1.18983370025561,-1.7860351559887864,-1.6098631337224374,-0.6719476817283043,0.15078864669738265,-2.5314357360184068,-2.0975233086343783,-0.9580951192273032,-0.0053970778703897005,0.017343205192920003
1479.53,0.15234181892841736,-1.061223666641018,1.1874917597070516,-1.7888861636062732,-1.6104188869527825,-0.6752163956458004,0.15187002941204816,-2.5390465133153826,-2.0981452023350675,-0.9591721809428365,-0.0053774426846784,0.017343178309529927
1479.538,0.14907684887638306,-1.0563675605455716,1.1851921362577862,-1.7916856556664964,-1.6109645981414342,-0.6784260463682505,0.15292758755155203,-2.546492346069562,-2.0987469495762623,-0.9602307027091194,-0.0053611352584155055,0.01734315623849509
1479.5459999999998,0.14587195999195246,-1.0516008153078271,1.182934829907814,-1.794433632169457,-1.6115002672883936,-0.6815766338956539,0.15396140001453906,-2.5537746011661477,-2.099329024650542,-0.9612705899865508,-0.005348011586689423,0.017343138742848027
1479.5539999999999,0.14272715227512556,-1.0469234309277855,1.1807198406571344,-1.7971300931151557,-1.6120258943936605,-0.6846681582280105,0.15497155837494958,-2.5608946331018894,-2.099891894212866,-0.9622917539769459,-0.0053379284745554674,0.01734312559000506
1479.562,0.13964242572590213,-1.042335407405445,1.178547168505748,-1.7997750385035927,-1.6125414794572333,-0.6877006193653212,0.15595816613463886,-2.5678537832065227,-2.100436017233953,-0.9632941114095754,-0.0053307436554747385,0.01734311655176558
1479.57,0.1366177803442825,-1.0378367447408063,1.1764168134536546,-1.802368468334766,-1.6130470224791136,-0.6906740173075843,0.15692133798353736,-2.574653378885263,-2.1009618449532925,-0.9642775843301212,-0.005326315906137971,0.017343111404311176
1479.578,0.13365321613026637,-1.0334274429338706,1.1743287755008542,-1.8049103826086785,-1.6135425234593015,-0.6935883520548005,0.1578611990680944,-2.5812947328821223,-2.101469820831846,-0.965242099892635,-0.005324505157732754,0.01734310992820478
1479.586,0.1307487330838537,-1.0291075019846367,1.1722830546473464,-1.8074007813253283,-1.614027982397797,-0.6964436236069709,0.15877788426866765,-2.587779142563702,-2.101960380504532,-0.9661875901546226,-0.00532517260373013,0.017343111908389896
1479.5939999999998,0.12790433120504485,-1.0248769218931049,1.1702796508931321,-1.8098396644847154,-1.6145033992945983,-0.6992398319640944,0.15967153748647622,-2.594107889222675,-2.102433951732375,-0.967113991875215,-0.005328180804244215,0.017343117134189474
1479.6019999999999,0.12512001049383958,-1.0207357026592758,1.1683185642382108,-1.8122270320868399,-1.6149687741497072,-0.7019769771261721,0.16054231094072605,-2.600282237401296,-2.1028909543547325,-0.9680212463167579,-0.005333393787051479,0.017343125399305232
1479.61,0.12239577095023801,-1.0166838442831487,1.1663997946825821,-1.8145628841317034,-1.6154241069631237,-0.7046550590932021,0.16139036447643196,-2.606303434233854,-2.103331800241263,-0.9689092990496154,-0.005340677145308554,0.01734313650181656
1479.618,0.11973161257424003,-1.0127213467647227,1.1645233422262464,-1.8168472206193034,-1.6158693977348468,-0.7072740778651863,0.16221586488345352,-2.612172708808158,-2.103756893243964,-0.9697780997604443,-0.0053498981320527885,0.017343150244179612
1479.626,0.11712753536584564,-1.0088482101039995,1.1626892068692039,-1.8190800415496415,-1.6163046464648776,-0.7098340334421236,0.16301898522721134,-2.617891271545523,-2.104166629149218,-0.9706276020639435,-0.005360925751550647,0.017343166433226313
1479.634,0.11458353932505472,-1.0050644343009782,1.1608973886114542,-1.821261346922717,-1.6167298531532142,-0.7123349258240141,0.1637999041915242,-2.6234603135990926,-2.1045613956299696,-0.9714577633181577,-0.0053736308475484575,0.01734318488016341
1479.6419999999998,0.11209962445186761,-1.0013700193556598,1.1591478874529977,-1.8233911367385307,-1.6171450177998592,-0.7147767550108579,0.16455880543393966,-2.628881006269809,-2.1049415721980034,-0.9722685444433691,-0.005387886188501739,0.01734320540057138
1479.6499999999999,0.10967579074628409,-0.9977649652680425,1.1574407033938339,-1.8254694109970817,-1.617550140404811,-0.7171595210026558,0.16529587695396855,-2.634154500440272,-2.105307530156506,-0.9730599097446846,-0.005403566549837649,0.01734322781440354
1479.658,0.10731203820830415,-0.9942492720381271,1.1557758364339632,-1.827496169698371,-1.6179452209680694,-0.719483223799406,0.1660113104745118,-2.6392819260256353,-2.105659632552853,-0.9738318267383282,-0.005420548793320333,0.017343251945984947
1479.666,0.10500836683792791,-0.9908229396659145,1.1541532865733855,-1.8294714128423966,-1.6183302594896354,-0.7217478634011112,0.16670530083681173,-2.6442643914415696,-2.1059982341317367,-0.9745842659817022,-0.0054387119435813135,0.017343277624011427
1479.674,0.10276477663515526,-0.9874859681514039,1.1525730538121008,-1.8313951404291604,-1.618705255969508,-0.7239534398077687,0.16737804540919124,-2.6491029830888806,-2.1063236812886736,-0.9753172009072663,-0.00545793726187125,0.017343304681548512
1479.682,0.10058126759998598,-0.9842383574945952,1.151035138150109,-1.8332673524586633,-1.6190702104076884,-0.7260999530193795,0.1680297435098375,-2.6537987648546606,-2.106636312024027,-0.9760306076603319,-0.005478108317104055,0.01734333295603057
1479.6899999999998,0.09845783973242062,-0.9810801076954894,1.1495395395874102,-1.8350880489309027,-1.6194251228041754,-0.7281874030359443,0.1686605958438248,-2.658352777629145,-2.106936455897282,-0.9767244649405935,-0.005499111054240987,0.017343362289259444
1479.6979999999999,0.09639449303245884,-0.9780112187540846,1.1480862581240043,-1.8368572298458794,-1.61976999315897,-0.7302157898574624,0.16927080395463814,-2.662766038839219,-2.107224433982284,-0.9773987538478741,-0.00552083386009339,0.017343392527403904
1479.706,0.09439122750010065,-0.9750316906703826,1.1466752937598916,-1.8385748952035952,-1.6201048214720704,-0.7321851134839328,0.16986056969028188,-2.6670395419967177,-2.107500558822657,-0.9780534577315924,-0.005543167626573326,0.01734342352099831
1479.714,0.09244804313534605,-0.9721415234443826,1.1453066464950716,-1.8402410450040474,-1.6204296077434792,-0.7340953739153573,0.17043009468419593,-2.6711742562624656,-2.107765134388046,-0.978688562044338,-0.005566005811483157,0.017343455124941638
1479.722,0.09056493993819514,-0.9693407170760846,1.1439803163295448,-1.841855679247237,-1.6207443519731948,-0.7359465711517359,0.1709795798511135,-2.6751711260258078,-2.1080184560312327,-0.9793040541995818,-0.00558924449687251,0.017343487198496724
1479.73,0.08874191790864772,-0.9666292715654885,1.1426963032633108,-1.8434187979331664,-1.621049054161217,-0.7377387051930677,0.17150922489789172,-2.679031070498181,-2.1082608104456075,-0.9798999234332547,-0.005612782445030291,0.017343519605288963
1479.7379999999998,0.08697897704670399,-0.9640071869125952,1.1414546072963698,-1.8449304010618315,-1.6213437143075478,-0.7394717760393528,0.17201922784954463,-2.6827549833224382,-2.108492475623901,-0.9804761606696489,-0.005636521152173876,0.017343552213305698
1479.7459999999999,0.08527611735236396,-0.961474463117403,1.140255228428722,-1.8463904886332347,-1.6216283324121843,-0.741145783690591,0.1725097845904077,-2.68634373219555,-2.1087137208172675,-0.981032758391202,-0.005660364899858836,0.01734358489489488
1479.754,0.0836333388256274,-0.9590311001799137,1.139098166660367,-1.8477990606473762,-1.6219029084751284,-0.7427607281467825,0.1729810884206481,-2.689798158506687,-2.108924806495778,-0.9815697105126796,-0.00568422080420216,0.017343617526764537
1479.762,0.08205064146649454,-0.9566770981001262,1.1379834219913052,-1.849156117104255,-1.6221674424963792,-0.7443166094079281,0.17343332962803784,-2.6931190769884927,-2.1091259843094226,-0.9820870122593018,-0.005707998862927529,0.017343649989981596
1479.77,0.08052802527496539,-0.9544124568780408,1.1369109944215359,-1.850461658003871,-1.6224219344759376,-0.7458134274740269,0.1738666950751112,-2.696307275382588,-2.1093174970502275,-0.9825846600491327,-0.005731612000310862,0.017343682169970953
1479.778,0.07906549025103948,-0.9522371765136581,1.1358808839510597,-1.8517156833462263,-1.6226663844138027,-0.747251182345078,0.1742813678017322,-2.6993635141191885,-2.1094995786156066,-0.9830626513797833,-0.0057549761100589665,0.017343713956514933
1479.7859999999998,0.07766303639471706,-0.9501512570069766,1.1348930905798769,-1.852918193131318,-1.6229007923099754,-0.7486298740210842,0.1746775266430038,-2.7022885260093434,-2.109672453972319,-0.983520984719055,-0.0057780100961716905,0.01734374524374956
1479.7939999999999,0.07632066370599877,-0.9481546983579978,1.1339476143079867,-1.8540691873591468,-1.6231251581644548,-0.7499495025020426,0.1750553458626547,-2.705083015951667,-2.109836339122063,-0.9839596594001587,-0.005800635911828991,0.017343775930173735
1479.802,0.07503837218488396,-0.946247500566721,1.1330444551353895,-1.8551686660297149,-1.6233394819772418,-0.7512100677879552,0.17541499480176959,-2.707747660651376,-2.10999144106777,-0.984378675520892,-0.005822778596349094,0.017343805918633895
1479.81,0.07381616183137285,-0.9444296636331462,1.1321836130620855,-1.8562166291430193,-1.6235437637483354,-0.7524115698788201,0.17575663754294396,-2.7102831083527357,-2.110137957781173,-0.9847780338471551,-0.005844366310251951,0.017343835116332654
1479.818,0.07265403264546522,-0.9427011875572742,1.1313650880880743,-1.857213076699062,-1.6237380034777358,-0.7535540087746391,0.1760804325898127,-2.7126899785848733,-2.110276078171888,-0.985157735720878,-0.005865330368485516,0.01734386343482633
1479.826,0.07155198462716128,-0.9410620723391032,1.130588880213356,-1.8581580086978429,-1.6239222011654437,-0.7546373844754122,0.1763865325619932,-2.7149688619194112,-2.110405982057143,-0.9855177829719199,-0.005885605271805498,0.0173438907900223
